;FLAVOR:RepRap
;TIME:5197
;Filament used: 18.0347m, 0m
;Layer height: 0.35
;Generated with Cura_SteamEngine 3.4.1
T0
M190 S65
M104 S220
M109 S220
M82 ;absolute extrusion mode
M203 Z12000
G28 ;Home
G1 Y-250 Z20 F12000 ;Move the platform down 15mm
G92 E0
G1 E160 F5000 E3
G92 E0
G1 Z0.2
G1 X10. F3000
G1 Z50 F12000
G92 E0
G1 F3000 E-9
;LAYER_COUNT:29
;LAYER:0
M107
M203 Z6000
G0 F6000 X99.991 Y-103.49 Z0.35
;TYPE:SKIRT
G1 F3000 E1.45513
G1 F1500 X100.518 Y-103.45 E1.53204
G1 X101.034 Y-103.331 E1.60909
G1 X101.525 Y-103.136 E1.68597
G1 X101.981 Y-102.869 E1.76286
G1 X102.392 Y-102.536 E1.83983
G1 X102.749 Y-102.145 E1.91688
G1 X103.042 Y-101.705 E1.9938
G1 X103.265 Y-101.226 E2.07068
G1 X103.414 Y-100.719 E2.14758
G1 X103.491 Y-99.99 E2.25425
G1 X103.491 Y99.991 E31.3541
G1 X103.451 Y100.518 E31.43101
G1 X103.332 Y101.033 E31.50792
G1 X103.137 Y101.525 E31.58493
G1 X102.87 Y101.981 E31.66182
G1 X102.537 Y102.392 E31.73879
G1 X102.146 Y102.749 E31.81584
G1 X101.706 Y103.042 E31.89276
G1 X101.227 Y103.265 E31.96964
G1 X100.72 Y103.414 E32.04654
G1 X99.991 Y103.491 E32.15321
G1 X-99.991 Y103.491 E61.25321
G1 X-100.518 Y103.451 E61.33011
G1 X-101.033 Y103.332 E61.40703
G1 X-101.525 Y103.137 E61.48404
G1 X-101.981 Y102.87 E61.56093
G1 X-102.392 Y102.537 E61.6379
G1 X-102.749 Y102.146 E61.71494
G1 X-103.042 Y101.706 E61.79187
G1 X-103.265 Y101.227 E61.86875
G1 X-103.414 Y100.72 E61.94565
G1 X-103.491 Y99.991 E62.05232
G1 X-103.491 Y-99.991 E91.15231
G1 X-103.451 Y-100.518 E91.22922
G1 X-103.332 Y-101.033 E91.30613
G1 X-103.137 Y-101.525 E91.38314
G1 X-102.87 Y-101.981 E91.46004
G1 X-102.537 Y-102.392 E91.53701
G1 X-102.146 Y-102.749 E91.61405
G1 X-101.706 Y-103.042 E91.69097
G1 X-101.227 Y-103.265 E91.76786
G1 X-100.72 Y-103.414 E91.84475
G1 X-99.991 Y-103.491 E91.95142
G1 X99.991 Y-103.49 E121.05142
G1 F3000 E112.05142
G1 F6000 Z1.85
G0 X98.5 Y-98.5 Z1.85
;TYPE:WALL-INNER
G1 F6000 Z0.35
G1 F3000 E122.50655
G1 F1500 X98.5 Y98.5 E151.17263
G1 X-98.5 Y98.5 E179.83871
G1 X-98.5 Y-98.5 E208.50479
G1 X98.5 Y-98.5 E237.17087
G0 F6000 X98.43 Y-98.43
G0 X95.57 Y-95.57
G0 X95.5 Y-95.5
G1 F1500 X-95.5 Y-95.5 E264.96387
G1 X-95.5 Y95.5 E292.75687
G1 X95.5 Y95.5 E320.54987
G1 X95.5 Y-95.5 E348.34287
G0 F6000 X94.5 Y-94.5
;TYPE:WALL-OUTER
G1 F1500 X-94.5 Y-94.5 E375.84484
G1 X-94.5 Y94.5 E403.34682
G1 X94.5 Y94.5 E430.84879
G1 X94.5 Y-94.5 E458.35077
G0 F6000 X94.15 Y-94.5
G0 X94.15 Y-95.6
G0 X98.43 Y-98.43
G0 X99.5 Y-99.5
G1 F1500 X99.5 Y99.5 E487.30787
G1 X-99.5 Y99.5 E516.26498
G1 X-99.5 Y-99.5 E545.22208
G1 X99.5 Y-99.5 E574.17919
G0 F6000 X99.5 Y-99.15
G0 X97.51 Y-97.51
;TYPE:SKIN
G1 F1500 X97.51 Y97.51 E602.55715
G1 X-97.51 Y97.51 E630.93511
G1 X-97.51 Y-97.51 E659.31308
G1 X97.51 Y-97.51 E687.69104
G0 F6000 X96.49 Y-96.49
G1 F1500 X-96.49 Y-96.49 E715.77216
G1 X-96.49 Y96.49 E743.85327
G1 X96.49 Y96.49 E771.93439
G1 X96.49 Y-96.49 E800.0155
G0 F6000 X-95.57 Y-95.57
G0 X-95.5 Y-95.5
;TIME_ELAPSED:228.871419
;LAYER:1
M140 S65
M106 S102
G0 X-95.5 Y-95.5 Z0.7
;TYPE:WALL-INNER
G1 F1500 X-95.5 Y95.5 E827.8085
G1 X95.5 Y95.5 E855.6015
G1 X95.5 Y-95.5 E883.3945
G1 X-95.5 Y-95.5 E911.18751
G0 F6000 X-95.57 Y-95.57
G0 X95.528 Y-95.528
G0 X98.43 Y98.43
G0 X98.5 Y98.5
G1 F1500 X-98.5 Y98.5 E939.85358
G1 X-98.5 Y-98.5 E968.51966
G1 X98.5 Y-98.5 E997.18574
G1 X98.5 Y98.5 E1025.85182
G0 F6000 X99.5 Y99.5
;TYPE:WALL-OUTER
G1 F1500 X-99.5 Y99.5 E1054.80893
G1 X-99.5 Y-99.5 E1083.76603
G1 X99.5 Y-99.5 E1112.72314
G1 X99.5 Y99.5 E1141.68024
G0 F6000 X99.15 Y99.5
G0 X98.43 Y98.43
G0 X95.6 Y94.5
G0 X94.5 Y94.5
G1 F1500 X94.5 Y-94.5 E1169.18222
G1 X-94.5 Y-94.5 E1196.68419
G1 X-94.5 Y94.5 E1224.18616
G1 X94.5 Y94.5 E1251.68814
G0 F6000 X94.5 Y94.15
G0 X95.6 Y94.15
G0 X96.49 Y96.49
;TYPE:SKIN
G1 F1500 X96.49 Y-96.49 E1279.76925
G1 X-96.49 Y-96.49 E1307.85037
G1 X-96.49 Y96.49 E1335.93149
G1 X96.49 Y96.49 E1364.0126
G0 F6000 X97.51 Y97.51
G1 F1500 X-97.51 Y97.51 E1392.39057
G1 X-97.51 Y-97.51 E1420.76853
G1 X97.51 Y-97.51 E1449.14649
G1 X97.51 Y97.51 E1477.52445
G0 F6000 X97.5 Y97.5
G0 X-95.528 Y95.528
G0 X-95.57 Y-95.57
G0 X-95.5 Y-95.5
;TIME_ELAPSED:423.307851
;LAYER:2
M106 S204
G0 X-95.5 Y-95.5 Z1.05
;TYPE:WALL-INNER
G1 F1500 X-95.5 Y95.5 E1505.31746
G1 X95.5 Y95.5 E1533.11046
G1 X95.5 Y-95.5 E1560.90346
G1 X-95.5 Y-95.5 E1588.69646
G0 F6000 X-95.57 Y-95.57
G0 X95.528 Y-95.528
G0 X98.43 Y98.43
G0 X98.5 Y98.5
G1 F1500 X-98.5 Y98.5 E1617.36254
G1 X-98.5 Y-98.5 E1646.02861
G1 X98.5 Y-98.5 E1674.69469
G1 X98.5 Y98.5 E1703.36077
G0 F6000 X99.5 Y99.5
;TYPE:WALL-OUTER
G1 F1500 X-99.5 Y99.5 E1732.31788
G1 X-99.5 Y-99.5 E1761.27498
G1 X99.5 Y-99.5 E1790.23209
G1 X99.5 Y99.5 E1819.18919
G0 F6000 X99.15 Y99.5
G0 X98.43 Y98.43
G0 X95.6 Y94.5
G0 X94.5 Y94.5
G1 F1500 X94.5 Y-94.5 E1846.69117
G1 X-94.5 Y-94.5 E1874.19314
G1 X-94.5 Y94.5 E1901.69511
G1 X94.5 Y94.5 E1929.19709
G0 F6000 X94.5 Y94.15
G0 X95.6 Y94.15
G0 X96.49 Y96.49
;TYPE:SKIN
G1 F1500 X96.49 Y-96.49 E1957.2782
G1 X-96.49 Y-96.49 E1985.35932
G1 X-96.49 Y96.49 E2013.44044
G1 X96.49 Y96.49 E2041.52155
G0 F6000 X97.51 Y97.51
G1 F1500 X-97.51 Y97.51 E2069.89952
G1 X-97.51 Y-97.51 E2098.27748
G1 X97.51 Y-97.51 E2126.65544
G1 X97.51 Y97.51 E2155.03341
G0 F6000 X97.5 Y97.5
G0 X-95.528 Y95.528
G0 X-95.57 Y-95.57
G0 X-95.5 Y-95.5
;TIME_ELAPSED:617.744282
;LAYER:3
G0 X-95.5 Y-95.5 Z1.4
;TYPE:WALL-INNER
G1 F1500 X-95.5 Y95.5 E2182.82641
G1 X95.5 Y95.5 E2210.61941
G1 X95.5 Y-95.5 E2238.41241
G1 X-95.5 Y-95.5 E2266.20541
G0 F6000 X-95.57 Y-95.57
G0 X95.528 Y-95.528
G0 X98.43 Y98.43
G0 X98.5 Y98.5
G1 F1500 X-98.5 Y98.5 E2294.87149
G1 X-98.5 Y-98.5 E2323.53756
G1 X98.5 Y-98.5 E2352.20364
G1 X98.5 Y98.5 E2380.86972
G0 F6000 X99.5 Y99.5
;TYPE:WALL-OUTER
G1 F1500 X-99.5 Y99.5 E2409.82683
G1 X-99.5 Y-99.5 E2438.78393
G1 X99.5 Y-99.5 E2467.74104
G1 X99.5 Y99.5 E2496.69814
G0 F6000 X99.15 Y99.5
G0 X98.43 Y98.43
G0 X95.6 Y94.5
G0 X94.5 Y94.5
G1 F1500 X94.5 Y-94.5 E2524.20012
G1 X-94.5 Y-94.5 E2551.70209
G1 X-94.5 Y94.5 E2579.20407
G1 X94.5 Y94.5 E2606.70604
G0 F6000 X94.5 Y94.15
G0 X95.883 Y96.449
;TYPE:FILL
G1 F1500 X94.783 Y97.549 E2606.9324
G1 X89.126 Y97.549 E2607.75557
G1 X90.226 Y96.449 E2607.98194
G1 X84.569 Y96.449 E2608.80511
G1 X83.469 Y97.549 E2609.03147
G1 X77.812 Y97.549 E2609.85464
G1 X78.913 Y96.449 E2610.08111
G1 X73.256 Y96.449 E2610.90427
G1 X72.156 Y97.549 E2611.13064
G1 X66.499 Y97.549 E2611.95381
G1 X67.599 Y96.449 E2612.18017
G1 X61.942 Y96.449 E2613.00334
G1 X60.842 Y97.549 E2613.2297
G1 X55.185 Y97.549 E2614.05287
G1 X56.285 Y96.449 E2614.27924
G1 X50.628 Y96.449 E2615.1024
G1 X49.528 Y97.549 E2615.32877
G1 X43.871 Y97.549 E2616.15194
G1 X44.971 Y96.449 E2616.3783
G1 X39.315 Y96.449 E2617.20132
G1 X38.214 Y97.549 E2617.42779
G1 X32.558 Y97.549 E2618.25082
G1 X33.658 Y96.449 E2618.47718
G1 X28.001 Y96.449 E2619.30035
G1 X26.901 Y97.549 E2619.52671
G1 X21.244 Y97.549 E2620.34988
G1 X22.344 Y96.449 E2620.57625
G1 X16.687 Y96.449 E2621.39941
G1 X15.587 Y97.549 E2621.62578
G1 X9.93 Y97.549 E2622.44895
G1 X11.03 Y96.449 E2622.67531
G1 X5.374 Y96.449 E2623.49833
G1 X4.273 Y97.549 E2623.7248
G1 X-1.383 Y97.549 E2624.54782
G1 X-.282 Y96.449 E2624.77429
G1 X-5.939 Y96.449 E2625.59746
G1 X-7.039 Y97.549 E2625.82382
G1 X-12.696 Y97.549 E2626.64699
G1 X-11.596 Y96.449 E2626.87336
G1 X-17.253 Y96.449 E2627.69653
G1 X-18.353 Y97.549 E2627.92289
G1 X-24.01 Y97.549 E2628.74606
G1 X-22.91 Y96.449 E2628.97242
G1 X-28.567 Y96.449 E2629.79559
G1 X-29.667 Y97.549 E2630.02196
G1 X-35.324 Y97.549 E2630.84512
G1 X-34.223 Y96.449 E2631.07159
G1 X-39.88 Y96.449 E2631.89476
G1 X-40.981 Y97.549 E2632.12123
G1 X-46.637 Y97.549 E2632.94425
G1 X-45.537 Y96.449 E2633.17061
G1 X-51.194 Y96.449 E2633.99378
G1 X-52.294 Y97.549 E2634.22015
G1 X-57.951 Y97.549 E2635.04332
G1 X-56.851 Y96.449 E2635.26968
G1 X-62.508 Y96.449 E2636.09285
G1 X-63.608 Y97.549 E2636.31921
G1 X-69.265 Y97.549 E2637.14238
G1 X-68.165 Y96.449 E2637.36875
G1 X-73.821 Y96.449 E2638.19177
G1 X-74.922 Y97.549 E2638.41824
G1 X-80.579 Y97.549 E2639.2414
G1 X-79.478 Y96.449 E2639.46787
G1 X-85.135 Y96.449 E2640.29104
G1 X-86.235 Y97.549 E2640.5174
G1 X-91.892 Y97.549 E2641.34057
G1 X-90.792 Y96.449 E2641.56694
G1 X-96.449 Y96.449 E2642.3901
G1 X-97.549 Y97.549 E2642.61647
G1 X-97.549 Y91.892 E2643.43964
G1 X-96.449 Y90.792 E2643.666
G1 X-96.449 Y85.135 E2644.48917
G1 X-97.549 Y86.235 E2644.71554
G1 X-97.549 Y80.579 E2645.53856
G1 X-96.449 Y79.478 E2645.76503
G1 X-96.449 Y73.821 E2646.58819
G1 X-97.549 Y74.922 E2646.81466
G1 X-97.549 Y69.265 E2647.63783
G1 X-96.449 Y68.165 E2647.86419
G1 X-96.449 Y62.508 E2648.68736
G1 X-97.549 Y63.608 E2648.91373
G1 X-97.549 Y57.951 E2649.73689
G1 X-96.449 Y56.851 E2649.96326
G1 X-96.449 Y51.194 E2650.78643
G1 X-97.549 Y52.294 E2651.01279
G1 X-97.549 Y46.637 E2651.83596
G1 X-96.449 Y45.537 E2652.06233
G1 X-96.449 Y39.88 E2652.88549
G1 X-97.549 Y40.981 E2653.11196
G1 X-97.549 Y35.324 E2653.93513
G1 X-96.449 Y34.223 E2654.1616
G1 X-96.449 Y28.567 E2654.98462
G1 X-97.549 Y29.667 E2655.21098
G1 X-97.549 Y24.01 E2656.03415
G1 X-96.449 Y22.91 E2656.26052
G1 X-96.449 Y17.253 E2657.08368
G1 X-97.549 Y18.353 E2657.31005
G1 X-97.549 Y12.696 E2658.13322
G1 X-96.449 Y11.596 E2658.35958
G1 X-96.449 Y5.939 E2659.18275
G1 X-97.549 Y7.039 E2659.40912
G1 X-97.549 Y1.383 E2660.23214
G1 X-96.449 Y0.282 E2660.45861
G1 X-96.449 Y-5.374 E2661.28163
G1 X-97.549 Y-4.273 E2661.5081
G1 X-97.549 Y-9.93 E2662.33126
G1 X-96.449 Y-11.03 E2662.55763
G1 X-96.449 Y-16.687 E2663.3808
G1 X-97.549 Y-15.587 E2663.60716
G1 X-97.549 Y-21.244 E2664.43033
G1 X-96.449 Y-22.344 E2664.65669
G1 X-96.449 Y-28.001 E2665.47986
G1 X-97.549 Y-26.901 E2665.70623
G1 X-97.549 Y-32.558 E2666.52939
G1 X-96.449 Y-33.658 E2666.75576
G1 X-96.449 Y-39.315 E2667.57893
G1 X-97.549 Y-38.214 E2667.8054
G1 X-97.549 Y-43.871 E2668.62856
G1 X-96.449 Y-44.971 E2668.85493
G1 X-96.449 Y-50.628 E2669.6781
G1 X-97.549 Y-49.528 E2669.90446
G1 X-97.549 Y-55.185 E2670.72763
G1 X-96.449 Y-56.285 E2670.95399
G1 X-96.449 Y-61.942 E2671.77716
G1 X-97.549 Y-60.842 E2672.00353
G1 X-97.549 Y-66.499 E2672.82669
G1 X-96.449 Y-67.599 E2673.05306
G1 X-96.449 Y-73.256 E2673.87623
G1 X-97.549 Y-72.156 E2674.10259
G1 X-97.549 Y-77.812 E2674.92561
G1 X-96.449 Y-78.913 E2675.15208
G1 X-96.449 Y-84.569 E2675.9751
G1 X-97.549 Y-83.469 E2676.20147
G1 X-97.549 Y-89.126 E2677.02464
G1 X-96.449 Y-90.226 E2677.251
G1 X-96.449 Y-95.883 E2678.07417
G1 X-97.549 Y-94.783 E2678.30054
G0 F6000 X-95.883 Y-96.449
G1 F1500 X-94.783 Y-97.549 E2678.5269
G1 X-89.126 Y-97.549 E2679.35007
G1 X-90.226 Y-96.449 E2679.57643
G1 X-84.569 Y-96.449 E2680.3996
G1 X-83.469 Y-97.549 E2680.62597
G1 X-77.812 Y-97.549 E2681.44913
G1 X-78.913 Y-96.449 E2681.6756
G1 X-73.256 Y-96.449 E2682.49877
G1 X-72.156 Y-97.549 E2682.72514
G1 X-66.499 Y-97.549 E2683.5483
G1 X-67.599 Y-96.449 E2683.77467
G1 X-61.942 Y-96.449 E2684.59784
G1 X-60.842 Y-97.549 E2684.8242
G1 X-55.185 Y-97.549 E2685.64737
G1 X-56.285 Y-96.449 E2685.87373
G1 X-50.628 Y-96.449 E2686.6969
G1 X-49.528 Y-97.549 E2686.92327
G1 X-43.871 Y-97.549 E2687.74643
G1 X-44.971 Y-96.449 E2687.9728
G1 X-39.315 Y-96.449 E2688.79582
G1 X-38.214 Y-97.549 E2689.02229
G1 X-32.558 Y-97.549 E2689.84531
G1 X-33.658 Y-96.449 E2690.07168
G1 X-28.001 Y-96.449 E2690.89484
G1 X-26.901 Y-97.549 E2691.12121
G1 X-21.244 Y-97.549 E2691.94438
G1 X-22.344 Y-96.449 E2692.17074
G1 X-16.687 Y-96.449 E2692.99391
G1 X-15.587 Y-97.549 E2693.22027
G1 X-9.93 Y-97.549 E2694.04344
G1 X-11.03 Y-96.449 E2694.26981
G1 X-5.374 Y-96.449 E2695.09283
G1 X-4.273 Y-97.549 E2695.3193
G1 X1.383 Y-97.549 E2696.14232
G1 X0.282 Y-96.449 E2696.36879
G1 X5.939 Y-96.449 E2697.19196
G1 X7.039 Y-97.549 E2697.41832
G1 X12.696 Y-97.549 E2698.24149
G1 X11.596 Y-96.449 E2698.46785
G1 X17.253 Y-96.449 E2699.29102
G1 X18.353 Y-97.549 E2699.51739
G1 X24.01 Y-97.549 E2700.34055
G1 X22.91 Y-96.449 E2700.56692
G1 X28.567 Y-96.449 E2701.39009
G1 X29.667 Y-97.549 E2701.61645
G1 X35.324 Y-97.549 E2702.43962
G1 X34.223 Y-96.449 E2702.66609
G1 X39.88 Y-96.449 E2703.48926
G1 X40.981 Y-97.549 E2703.71572
G1 X46.637 Y-97.549 E2704.53875
G1 X45.537 Y-96.449 E2704.76511
G1 X51.194 Y-96.449 E2705.58828
G1 X52.294 Y-97.549 E2705.81464
G1 X57.951 Y-97.549 E2706.63781
G1 X56.851 Y-96.449 E2706.86418
G1 X62.508 Y-96.449 E2707.68734
G1 X63.608 Y-97.549 E2707.91371
G1 X69.265 Y-97.549 E2708.73688
G1 X68.165 Y-96.449 E2708.96324
G1 X73.821 Y-96.449 E2709.78626
G1 X74.922 Y-97.549 E2710.01273
G1 X80.579 Y-97.549 E2710.8359
G1 X79.478 Y-96.449 E2711.06237
G1 X85.135 Y-96.449 E2711.88554
G1 X86.235 Y-97.549 E2712.1119
G1 X91.892 Y-97.549 E2712.93507
G1 X90.792 Y-96.449 E2713.16143
G1 X96.449 Y-96.449 E2713.9846
G1 X97.549 Y-97.549 E2714.21097
G1 X97.549 Y-91.892 E2715.03413
G1 X96.449 Y-90.792 E2715.2605
G1 X96.449 Y-85.135 E2716.08367
G1 X97.549 Y-86.235 E2716.31003
G1 X97.549 Y-80.579 E2717.13305
G1 X96.449 Y-79.478 E2717.35952
G1 X96.449 Y-73.821 E2718.18269
G1 X97.549 Y-74.922 E2718.40916
G1 X97.549 Y-69.265 E2719.23233
G1 X96.449 Y-68.165 E2719.45869
G1 X96.449 Y-62.508 E2720.28186
G1 X97.549 Y-63.608 E2720.50822
G1 X97.549 Y-57.951 E2721.33139
G1 X96.449 Y-56.851 E2721.55776
G1 X96.449 Y-51.194 E2722.38092
G1 X97.549 Y-52.294 E2722.60729
G1 X97.549 Y-46.637 E2723.43046
G1 X96.449 Y-45.537 E2723.65682
G1 X96.449 Y-39.88 E2724.47999
G1 X97.549 Y-40.981 E2724.70646
G1 X97.549 Y-35.324 E2725.52963
G1 X96.449 Y-34.223 E2725.75609
G1 X96.449 Y-28.567 E2726.57912
G1 X97.549 Y-29.667 E2726.80548
G1 X97.549 Y-24.01 E2727.62865
G1 X96.449 Y-22.91 E2727.85501
G1 X96.449 Y-17.253 E2728.67818
G1 X97.549 Y-18.353 E2728.90455
G1 X97.549 Y-12.696 E2729.72771
G1 X96.449 Y-11.596 E2729.95408
G1 X96.449 Y-5.939 E2730.77725
G1 X97.549 Y-7.039 E2731.00361
G1 X97.549 Y-1.383 E2731.82663
G1 X96.449 Y-.282 E2732.0531
G1 X96.449 Y5.374 E2732.87612
G1 X97.549 Y4.273 E2733.10259
G1 X97.549 Y9.93 E2733.92576
G1 X96.449 Y11.03 E2734.15213
G1 X96.449 Y16.687 E2734.97529
G1 X97.549 Y15.587 E2735.20166
G1 X97.549 Y21.244 E2736.02483
G1 X96.449 Y22.344 E2736.25119
G1 X96.449 Y28.001 E2737.07436
G1 X97.549 Y26.901 E2737.30072
G1 X97.549 Y32.558 E2738.12389
G1 X96.449 Y33.658 E2738.35026
G1 X96.449 Y39.315 E2739.17342
G1 X97.549 Y38.214 E2739.39989
G1 X97.549 Y43.871 E2740.22306
G1 X96.449 Y44.971 E2740.44942
G1 X96.449 Y50.628 E2741.27259
G1 X97.549 Y49.528 E2741.49896
G1 X97.549 Y55.185 E2742.32213
G1 X96.449 Y56.285 E2742.54849
G1 X96.449 Y61.942 E2743.37166
G1 X97.549 Y60.842 E2743.59802
G1 X97.549 Y66.499 E2744.42119
G1 X96.449 Y67.599 E2744.64756
G1 X96.449 Y73.256 E2745.47072
G1 X97.549 Y72.156 E2745.69709
G1 X97.549 Y77.812 E2746.52011
G1 X96.449 Y78.913 E2746.74658
G1 X96.449 Y84.569 E2747.5696
G1 X97.549 Y83.469 E2747.79597
G1 X97.549 Y89.126 E2748.61913
G1 X96.449 Y90.226 E2748.8455
G1 X96.449 Y95.883 E2749.66867
G1 X97.549 Y94.783 E2749.89503
G0 F6000 X97.5 Y94.783
G0 X95.528 Y-95.528
G0 X-95.57 Y-95.57
G0 X-95.5 Y-95.5
;TIME_ELAPSED:789.692614
;LAYER:4
G0 X-95.5 Y-95.5 Z1.75
;TYPE:WALL-INNER
G1 F1500 X-95.5 Y95.5 E2777.68803
G1 X95.5 Y95.5 E2805.48103
G1 X95.5 Y-95.5 E2833.27403
G1 X-95.5 Y-95.5 E2861.06703
G0 F6000 X-95.57 Y-95.57
G0 X95.528 Y-95.528
G0 X98.43 Y98.43
G0 X98.5 Y98.5
G1 F1500 X-98.5 Y98.5 E2889.73311
G1 X-98.5 Y-98.5 E2918.39919
G1 X98.5 Y-98.5 E2947.06527
G1 X98.5 Y98.5 E2975.73135
G0 F6000 X99.5 Y99.5
;TYPE:WALL-OUTER
G1 F1500 X-99.5 Y99.5 E3004.68845
G1 X-99.5 Y-99.5 E3033.64556
G1 X99.5 Y-99.5 E3062.60266
G1 X99.5 Y99.5 E3091.55977
G0 F6000 X99.15 Y99.5
G0 X98.43 Y98.43
G0 X95.6 Y94.5
G0 X94.5 Y94.5
G1 F1500 X94.5 Y-94.5 E3119.06174
G1 X-94.5 Y-94.5 E3146.56372
G1 X-94.5 Y94.5 E3174.06569
G1 X94.5 Y94.5 E3201.56767
G0 F6000 X94.5 Y94.15
G0 X95.6 Y94.15
G0 X95.528 Y95.528
G0 X-94.783 Y97.549
;TYPE:FILL
G1 F1500 X-95.883 Y96.449 E3201.79403
G1 X-90.226 Y96.449 E3202.6172
G1 X-89.126 Y97.549 E3202.84356
G1 X-83.469 Y97.549 E3203.66673
G1 X-84.569 Y96.449 E3203.8931
G1 X-78.913 Y96.449 E3204.71612
G1 X-77.812 Y97.549 E3204.94259
G1 X-72.156 Y97.549 E3205.76561
G1 X-73.256 Y96.449 E3205.99197
G1 X-67.599 Y96.449 E3206.81514
G1 X-66.499 Y97.549 E3207.04151
