;FLAVOR:RepRap
;TIME:4303
;Filament used: 9.83211m, 3.91483m
;Layer height: 0.24
;MINX:-29.225
;MINY:-139.226
;MINZ:0.3
;MAXX:19.851
;MAXY:0
;MAXZ:30.82
;Generated with Cura_SteamEngine 4.5.0-beta
T0
M190 S60
M104 S220
M109 S220
M82 ;absolute extrusion mode
M203 Z14000
G28 ;Home
G1 X0 Y-130 Z0.3 F8000 ;Move the platform down 15mm
G1 Z5
G1 F200 E3
G92 E0
M82 ;absolute extrusion mode
G91
G1 Z1 F10000
G90
G1 X0 Y-130 F14000
T0 P0
G92 E0
G1 E145 F5000
G92 E0
G1 E15 F1000
G92 E0
M18 E1
M83 ;relative extrusion mode
M83 ;relative extrusion mode
G1 F3600 E-6
;LAYER_COUNT:124
;LAYER:0
M107
G1 F3600 Z1.3
G0 F15000 X-.39 Y-36.302 Z1.3
;TYPE:SKIRT
G1 F3600 Z0.3
G1 F3600 E6
G1 F2700 X-1.099 Y-36.326 E0.04424
G1 X-2.119 Y-36.412 E0.06384
G1 X-3.225 Y-36.569 E0.06966
G1 X-3.827 Y-36.677 E0.03814
G1 X-4.321 Y-36.787 E0.03156
G1 X-5.223 Y-37.023 E0.05814
G1 X-5.731 Y-37.17 E0.03298
G1 X-6.407 Y-37.403 E0.04459
G1 X-7.03 Y-37.64 E0.04157
G1 X-8.246 Y-38.18 E0.08297
G1 X-8.972 Y-38.546 E0.0507
G1 X-9.828 Y-39.044 E0.06176
G1 X-10.314 Y-39.349 E0.03578
G1 X-10.854 Y-39.712 E0.04058
G1 X-11.273 Y-40.024 E0.03258
G1 X-11.825 Y-40.459 E0.04383
G1 X-12.275 Y-40.832 E0.03645
G1 X-12.697 Y-41.209 E0.03529
G1 X-13.26 Y-41.756 E0.04895
G1 X-13.83 Y-42.353 E0.05148
G1 X-14.41 Y-43.017 E0.05498
G1 X-14.819 Y-43.524 E0.04062
G1 X-15.156 Y-43.979 E0.03531
G1 X-15.51 Y-44.471 E0.0378
G1 X-16.028 Y-45.285 E0.06017
G1 X-16.479 Y-46.06 E0.05592
G1 X-16.82 Y-46.707 E0.04561
G1 X-17.228 Y-47.585 E0.06038
G1 X-17.601 Y-48.518 E0.06266
G1 X-17.795 Y-49.056 E0.03567
G1 X-18.182 Y-50.334 E0.08327
G1 X-18.345 Y-50.982 E0.04167
G1 X-18.45 Y-51.499 E0.0329
G1 X-18.628 Y-52.581 E0.06838
G1 X-18.691 Y-53.101 E0.03267
G1 X-18.784 Y-54.302 E0.07512
G1 X-18.805 Y-54.865 E0.03513
G1 X-18.797 Y-55.38 E0.03212
G1 X-18.745 Y-56.528 E0.07167
G1 X-18.649 Y-57.785 E0.07862
G1 X-18.567 Y-58.686 E0.05642
G1 X-18.398 Y-61.403 E0.16977
G1 X-18.306 Y-64.125 E0.16985
G1 X-18.29 Y-66.847 E0.16975
G1 X-18.351 Y-69.566 E0.16961
G1 X-18.49 Y-72.289 E0.17003
G1 X-18.704 Y-74.997 E0.1694
G1 X-18.994 Y-77.683 E0.16848
G1 X-19.364 Y-80.396 E0.17076
G1 X-19.812 Y-83.102 E0.17105
G1 X-20.329 Y-85.76 E0.16887
G1 X-20.922 Y-88.402 E0.16886
G1 X-21.594 Y-91.048 E0.17025
G1 X-22.337 Y-93.664 E0.16959
G1 X-23.163 Y-96.288 E0.17156
G1 X-24.047 Y-98.832 E0.16796
G1 X-25 Y-101.351 E0.16796
G1 X-26.061 Y-103.932 E0.17403
G1 X-26.669 Y-105.321 E0.09456
G1 X-26.89 Y-105.813 E0.03364
G1 X-27.249 Y-106.864 E0.06926
G1 X-28.002 Y-109.345 E0.16169
G1 X-28.208 Y-110.059 E0.04634
G1 X-28.331 Y-110.672 E0.03899
G1 X-28.407 Y-111.339 E0.04187
G1 X-28.666 Y-113.964 E0.1645
G1 X-28.727 Y-114.685 E0.04512
G1 X-28.727 Y-115.31 E0.03898
G1 X-28.675 Y-115.935 E0.03911
G1 X-28.415 Y-118.576 E0.1655
G1 X-28.332 Y-119.31 E0.04607
G1 X-28.213 Y-119.914 E0.03839
G1 X-28.019 Y-120.597 E0.04428
G1 X-27.262 Y-123.093 E0.16266
G1 X-27.042 Y-123.788 E0.04546
G1 X-26.799 Y-124.375 E0.03962
G1 X-26.515 Y-124.924 E0.03855
G1 X-25.276 Y-127.242 E0.16391
G1 X-24.901 Y-127.922 E0.04843
G1 X-24.547 Y-128.451 E0.0397
G1 X-24.121 Y-128.984 E0.04255
G1 X-22.476 Y-130.992 E0.16188
G1 X-22.021 Y-131.53 E0.04394
G1 X-21.598 Y-131.956 E0.03744
G1 X-21.033 Y-132.44 E0.0464
G1 X-19.056 Y-134.063 E0.15952
G1 X-18.442 Y-134.554 E0.04903
G1 X-17.916 Y-134.905 E0.03944
G1 X-17.336 Y-135.225 E0.04131
G1 X-15.051 Y-136.447 E0.1616
G1 X-14.366 Y-136.801 E0.04809
G1 X-13.791 Y-137.039 E0.03881
G1 X-13.157 Y-137.242 E0.04152
G1 X-10.654 Y-138.002 E0.16313
G1 X-9.933 Y-138.209 E0.04678
G1 X-9.336 Y-138.329 E0.03798
G1 X-8.728 Y-138.4 E0.03817
G1 X-6.024 Y-138.667 E0.16945
G1 X-5.339 Y-138.726 E0.04288
G1 X-4.724 Y-138.727 E0.03835
G1 X-4.058 Y-138.674 E0.04166
G1 X-1.412 Y-138.414 E0.16581
G1 X-.704 Y-138.334 E0.04443
G1 X-.116 Y-138.22 E0.03735
G1 X0.503 Y-138.047 E0.04008
G1 X3.08 Y-137.267 E0.16791
G1 X3.78 Y-137.045 E0.0458
G1 X4.369 Y-136.801 E0.03976
G1 X4.964 Y-136.493 E0.04178
G1 X7.242 Y-135.276 E0.16106
G1 X7.911 Y-134.907 E0.04765
G1 X8.423 Y-134.565 E0.0384
G1 X8.97 Y-134.132 E0.04351
G1 X10.992 Y-132.476 E0.16299
G1 X11.53 Y-132.021 E0.04394
G1 X11.956 Y-131.598 E0.03744
G1 X12.44 Y-131.033 E0.0464
G1 X14.063 Y-129.056 E0.15952
G1 X14.549 Y-128.448 E0.04854
G1 X14.896 Y-127.929 E0.03893
G1 X15.221 Y-127.343 E0.04179
G1 X16.446 Y-125.051 E0.16207
G1 X16.8 Y-124.368 E0.04797
G1 X17.039 Y-123.791 E0.03895
G1 X17.242 Y-123.157 E0.04152
G1 X18.002 Y-120.654 E0.16313
G1 X18.209 Y-119.933 E0.04678
G1 X18.329 Y-119.336 E0.03798
G1 X18.4 Y-118.728 E0.03817
G1 X18.667 Y-116.025 E0.16939
G1 X18.726 Y-115.338 E0.043
G1 X18.727 Y-114.723 E0.03835
G1 X18.674 Y-114.058 E0.0416
G1 X18.414 Y-111.412 E0.16581
G1 X18.334 Y-110.704 E0.04443
G1 X18.241 Y-110.195 E0.03227
G1 X17.964 Y-109.113 E0.06965
G1 X17.312 Y-106.448 E0.1711
G1 X16.736 Y-103.772 E0.1707
G1 X16.245 Y-101.108 E0.16893
G1 X15.828 Y-98.433 E0.16884
G1 X15.484 Y-95.733 E0.16974
G1 X15.217 Y-93.022 E0.16988
G1 X15.026 Y-90.304 E0.16992
G1 X14.912 Y-87.587 E0.16959
G1 X14.876 Y-84.865 E0.16977
G1 X14.916 Y-82.143 E0.16977
G1 X15.035 Y-79.388 E0.17197
G1 X15.227 Y-76.702 E0.16793
G1 X15.497 Y-74.003 E0.16916
G1 X15.846 Y-71.291 E0.17052
G1 X16.268 Y-68.608 E0.16938
G1 X16.769 Y-65.928 E0.17003
G1 X17.338 Y-63.293 E0.16811
G1 X17.967 Y-60.789 E0.16101
G1 X18.311 Y-59.397 E0.08942
G1 X18.435 Y-58.807 E0.0376
G1 X18.526 Y-58.3 E0.03212
G1 X18.632 Y-57.628 E0.04243
G1 X18.693 Y-57.131 E0.03123
G1 X18.785 Y-55.959 E0.07331
G1 X18.808 Y-55.383 E0.03595
G1 X18.8 Y-54.825 E0.0348
G1 X18.749 Y-53.689 E0.07092
G1 X18.668 Y-52.917 E0.04841
G1 X18.57 Y-52.259 E0.04149
G1 X18.474 Y-51.734 E0.03328
G1 X18.292 Y-50.881 E0.05439
G1 X18.092 Y-50.117 E0.04925
G1 X17.898 Y-49.49 E0.04093
G1 X17.535 Y-48.461 E0.06805
G1 X17.147 Y-47.527 E0.06307
G1 X16.858 Y-46.893 E0.04345
G1 X16.431 Y-46.081 E0.05721
G1 X16.157 Y-45.597 E0.03468
G1 X15.862 Y-45.107 E0.03567
G1 X15.453 Y-44.492 E0.04606
G1 X15.021 Y-43.881 E0.04667
G1 X14.512 Y-43.235 E0.05129
G1 X14.172 Y-42.834 E0.03279
G1 X13.663 Y-42.271 E0.04733
G1 X13.049 Y-41.633 E0.05522
G1 X12.618 Y-41.22 E0.03723
G1 X11.772 Y-40.488 E0.06977
G1 X11.005 Y-39.898 E0.06035
G1 X10.022 Y-39.209 E0.07486
G1 X8.89 Y-38.548 E0.08175
G1 X7.973 Y-38.075 E0.06435
G1 X7.433 Y-37.835 E0.03685
G1 X6.739 Y-37.554 E0.04669
G1 X6.214 Y-37.358 E0.03495
G1 X5.722 Y-37.195 E0.03232
G1 X4.715 Y-36.909 E0.06528
G1 X4.223 Y-36.785 E0.03164
G1 X3.288 Y-36.592 E0.05954
G1 X2.782 Y-36.507 E0.032
G1 X2.165 Y-36.428 E0.03879
G1 X1.355 Y-36.347 E0.05077
G1 X0.532 Y-36.309 E0.05138
G1 X-.39 Y-36.302 E0.0575
G0 F15000 X-.393 Y-36.802
G1 F2700 X-1.072 Y-36.826 E0.04237
G1 X-2.077 Y-36.91 E0.06289
G1 X-3.151 Y-37.064 E0.06766
G1 X-3.737 Y-37.169 E0.03713
G1 X-4.308 Y-37.299 E0.03652
G1 X-5.095 Y-37.507 E0.05076
G1 X-5.592 Y-37.65 E0.03225
G1 X-6.239 Y-37.874 E0.0427
G1 X-6.851 Y-38.107 E0.04084
G1 X-8.041 Y-38.636 E0.08121
G1 X-8.745 Y-38.991 E0.04917
G1 X-9.573 Y-39.474 E0.05978
G1 X-10.039 Y-39.767 E0.03433
G1 X-10.555 Y-40.113 E0.03874
G1 X-10.974 Y-40.425 E0.03258
G1 X-11.515 Y-40.851 E0.04294
G1 X-11.955 Y-41.216 E0.03565
G1 X-12.349 Y-41.568 E0.03295
G1 X-12.912 Y-42.115 E0.04895
G1 X-13.468 Y-42.697 E0.0502
G1 X-14.031 Y-43.344 E0.05349
G1 X-14.418 Y-43.822 E0.03835
G1 X-14.755 Y-44.277 E0.03531
G1 X-15.103 Y-44.763 E0.03728
G1 X-15.605 Y-45.55 E0.05821
G1 X-16.047 Y-46.31 E0.05483
G1 X-16.373 Y-46.932 E0.04379
G1 X-16.775 Y-47.795 E0.05937
G1 X-17.136 Y-48.701 E0.06082
G1 X-17.324 Y-49.224 E0.03466
G1 X-17.702 Y-50.474 E0.08144
G1 X-17.855 Y-51.083 E0.03916
G1 X-17.958 Y-51.587 E0.03208
G1 X-18.134 Y-52.658 E0.06769
G1 X-18.285 Y-54.341 E0.10538
G1 X-18.305 Y-54.86 E0.03239
G1 X-18.246 Y-56.505 E0.10265
G1 X-18.15 Y-57.746 E0.07762
G1 X-18.069 Y-58.645 E0.05629
G1 X-17.898 Y-61.39 E0.17152
G1 X-17.806 Y-64.105 E0.16941
G1 X-17.79 Y-66.856 E0.17156
G1 X-17.851 Y-69.568 E0.16917
G1 X-17.991 Y-72.318 E0.17172
G1 X-18.207 Y-75.055 E0.17122
G1 X-18.5 Y-77.764 E0.16993
G1 X-18.87 Y-80.48 E0.17094
G1 X-19.317 Y-83.175 E0.17036
G1 X-19.839 Y-85.861 E0.17064
G1 X-20.436 Y-88.522 E0.17007
G1 X-21.106 Y-91.161 E0.1698
G1 X-21.863 Y-93.824 E0.17265
G1 X-22.681 Y-96.424 E0.16998
G1 X-23.574 Y-98.993 E0.16961
G1 X-24.549 Y-101.569 E0.17177
G1 X-25.595 Y-104.115 E0.17165
G1 X-26.434 Y-106.018 E0.1297
G1 X-26.773 Y-107.016 E0.06573
G1 X-27.524 Y-109.49 E0.16124
G1 X-27.728 Y-110.197 E0.04589
G1 X-27.834 Y-110.729 E0.03383
G1 X-27.91 Y-111.396 E0.04187
G1 X-28.168 Y-114.013 E0.16399
G1 X-28.229 Y-114.727 E0.04469
G1 X-28.229 Y-115.268 E0.03374
G1 X-28.177 Y-115.893 E0.03911
G1 X-27.917 Y-118.527 E0.16506
G1 X-27.835 Y-119.254 E0.04563
G1 X-27.732 Y-119.777 E0.03324
G1 X-27.538 Y-120.46 E0.04428
G1 X-26.784 Y-122.948 E0.16213
G1 X-26.565 Y-123.637 E0.04509
G1 X-26.355 Y-124.145 E0.03428
G1 X-26.071 Y-124.694 E0.03855
G1 X-24.835 Y-127.006 E0.16349
G1 X-24.463 Y-127.68 E0.04801
G1 X-24.157 Y-128.139 E0.0344
G1 X-23.731 Y-128.672 E0.04255
G1 X-22.089 Y-130.675 E0.16152
G1 X-21.639 Y-131.207 E0.04345
G1 X-21.272 Y-131.576 E0.03246
G1 X-20.707 Y-132.06 E0.0464
G1 X-18.739 Y-133.677 E0.15884
G1 X-18.13 Y-134.163 E0.04859
G1 X-17.674 Y-134.468 E0.03421
G1 X-17.094 Y-134.788 E0.04131
G1 X-14.815 Y-136.006 E0.16115
G1 X-14.137 Y-136.356 E0.04758
G1 X-13.638 Y-136.563 E0.03369
G1 X-13.004 Y-136.766 E0.04152
G1 X-10.509 Y-137.524 E0.16262
G1 X-9.795 Y-137.729 E0.04633
G1 X-9.278 Y-137.832 E0.03288
G1 X-8.67 Y-137.903 E0.03817
G1 X-5.975 Y-138.169 E0.16888
G1 X-5.296 Y-138.227 E0.0425
G1 X-4.763 Y-138.229 E0.03324
G1 X-4.097 Y-138.176 E0.04166
G1 X-1.461 Y-137.916 E0.16519
G1 X-.76 Y-137.837 E0.04399
G1 X-.25 Y-137.738 E0.0324
G1 X0.369 Y-137.565 E0.04008
G1 X2.935 Y-136.788 E0.1672
G1 X3.628 Y-136.569 E0.04532
G1 X4.139 Y-136.357 E0.0345
G1 X4.734 Y-136.049 E0.04178
G1 X7.006 Y-134.835 E0.16065
G1 X7.669 Y-134.469 E0.04723
G1 X8.113 Y-134.173 E0.03328
G1 X8.66 Y-133.74 E0.04351
G1 X10.675 Y-132.089 E0.16245
G1 X11.207 Y-131.639 E0.04345
G1 X11.576 Y-131.272 E0.03246
G1 X12.06 Y-130.707 E0.0464
G1 X13.677 Y-128.739 E0.15884
G1 X14.158 Y-128.136 E0.0481
G1 X14.459 Y-127.686 E0.03376
G1 X14.784 Y-127.1 E0.04179
G1 X16.005 Y-124.816 E0.16151
G1 X16.356 Y-124.138 E0.04761
G1 X16.563 Y-123.638 E0.03375
G1 X16.766 Y-123.004 E0.04152
G1 X17.524 Y-120.509 E0.16262
G1 X17.729 Y-119.795 E0.04633
G1 X17.832 Y-119.278 E0.03288
G1 X17.903 Y-118.67 E0.03817
G1 X18.169 Y-115.976 E0.16882
G1 X18.227 Y-115.296 E0.04256
G1 X18.229 Y-114.763 E0.03324
G1 X18.176 Y-114.098 E0.0416
G1 X17.916 Y-111.461 E0.16525
G1 X17.837 Y-110.76 E0.04399
G1 X17.488 Y-109.271 E0.09537
G1 X16.825 Y-106.56 E0.17405
G1 X16.245 Y-103.87 E0.17161
G1 X15.754 Y-101.205 E0.16899
G1 X15.333 Y-98.502 E0.1706
G1 X14.986 Y-95.775 E0.17143
G1 X14.719 Y-93.07 E0.16951
G1 X14.526 Y-90.326 E0.17155
G1 X14.413 Y-87.613 E0.16934
G1 X14.376 Y-84.863 E0.17151
G1 X14.416 Y-82.113 E0.17152
G1 X14.534 Y-79.401 E0.16929
G1 X14.73 Y-76.655 E0.17168
G1 X15.003 Y-73.922 E0.17129
G1 X15.35 Y-71.225 E0.16958
G1 X15.773 Y-68.538 E0.16963
G1 X16.278 Y-65.835 E0.17148
G1 X16.856 Y-63.158 E0.17079
G1 X17.482 Y-60.667 E0.16018
G1 X17.825 Y-59.277 E0.08928
G1 X17.945 Y-58.706 E0.03639
G1 X18.138 Y-57.55 E0.07309
G1 X18.209 Y-56.946 E0.03793
G1 X18.287 Y-55.921 E0.06411
G1 X18.308 Y-55.387 E0.03333
G1 X18.301 Y-54.847 E0.03368
G1 X18.25 Y-53.711 E0.07092
G1 X18.172 Y-52.976 E0.04609
G1 X18.076 Y-52.335 E0.04042
G1 X17.985 Y-51.839 E0.03145
G1 X17.803 Y-50.986 E0.05439
G1 X17.609 Y-50.247 E0.04765
G1 X17.421 Y-49.64 E0.03963
G1 X17.064 Y-48.628 E0.06692
G1 X16.687 Y-47.721 E0.06125
G1 X16.404 Y-47.102 E0.04245
G1 X15.99 Y-46.316 E0.0554
G1 X15.723 Y-45.844 E0.03382
G1 X15.441 Y-45.377 E0.03402
G1 X15.04 Y-44.774 E0.04516
G1 X14.613 Y-44.17 E0.04613
G1 X14.122 Y-43.547 E0.04947
G1 X13.292 Y-42.606 E0.07825
G1 X12.689 Y-41.981 E0.05416
G1 X12.291 Y-41.598 E0.03445
G1 X11.445 Y-40.866 E0.06977
G1 X10.703 Y-40.297 E0.05831
G1 X9.736 Y-39.619 E0.07365
G1 X8.643 Y-38.982 E0.07889
G1 X7.749 Y-38.522 E0.0627
G1 X7.246 Y-38.299 E0.03431
G1 X6.552 Y-38.018 E0.04669
G1 X6.041 Y-37.827 E0.03402
G1 X4.578 Y-37.39 E0.09522
G1 X3.735 Y-37.189 E0.05405
G1 X3.192 Y-37.083 E0.0345
G1 X2.562 Y-36.98 E0.03981
G1 X2.028 Y-36.916 E0.03354
G1 X1.306 Y-36.845 E0.04524
G1 X0.512 Y-36.808 E0.04957
G1 X-.393 Y-36.802 E0.05644
G1 F3600 E-6
G1 F3600 Z1.3
;MESH:twistytest1.STL
G0 F15000 X-4.999 Y-95.251 Z1.3
;TYPE:PRIME-TOWER
G1 F3600 Z0.3
G1 F3600 E6
G1 F2700 X-8.853 Y-95.631 E0.24151
G1 X-12.558 Y-96.754 E0.24143
G1 X-15.97 Y-98.578 E0.24128
G1 X-18.964 Y-101.035 E0.24154
G1 X-21.421 Y-104.029 E0.24154
G1 X-23.245 Y-107.441 E0.24128
G1 X-24.368 Y-111.145 E0.24137
G1 X-24.749 Y-115 E0.24158
G1 X-24.368 Y-118.854 E0.24152
G1 X-23.245 Y-122.558 E0.24137
G1 X-21.421 Y-125.97 E0.24128
G1 X-18.964 Y-128.964 E0.24154
G1 X-15.97 Y-131.421 E0.24154
G1 X-12.558 Y-133.245 E0.24128
G1 X-8.854 Y-134.368 E0.24137
G1 X-5 Y-134.749 E0.24152
G1 X-1.145 Y-134.368 E0.24158
G1 X2.558 Y-133.245 E0.24132
G1 X5.97 Y-131.421 E0.24128
G1 X8.964 Y-128.964 E0.24154
G1 X11.421 Y-125.97 E0.24154
G1 X13.245 Y-122.558 E0.24128
G1 X14.368 Y-118.854 E0.24137
G1 X14.749 Y-115 E0.24152
G1 X14.368 Y-111.145 E0.24158
G1 X13.245 Y-107.441 E0.24137
G1 X11.421 Y-104.029 E0.24128
G1 X8.964 Y-101.035 E0.24154
G1 X5.97 Y-98.578 E0.24154
G1 X2.558 Y-96.754 E0.24128
G1 X-1.146 Y-95.631 E0.24137
G1 X-4.999 Y-95.251 E0.24145
G0 F15000 X-4.999 Y-95.754
G1 F2700 X-8.755 Y-96.124 E0.23537
G1 X-12.367 Y-97.219 E0.23538
G1 X-15.69 Y-98.996 E0.235
G1 X-18.609 Y-101.39 E0.23543
G1 X-21.003 Y-104.309 E0.23543
G1 X-22.782 Y-107.636 E0.23528
G1 X-23.874 Y-111.239 E0.23479
G1 X-24.246 Y-115 E0.23569
G1 X-23.874 Y-118.76 E0.23563
G1 X-22.782 Y-122.363 E0.23479
G1 X-21.003 Y-125.69 E0.23528
G1 X-18.609 Y-128.609 E0.23543
G1 X-15.69 Y-131.003 E0.23543
G1 X-12.363 Y-132.782 E0.23528
G1 X-8.76 Y-133.874 E0.23479
G1 X-5 Y-134.246 E0.23563
G1 X-1.239 Y-133.874 E0.23569
G1 X2.363 Y-132.782 E0.23473
G1 X5.69 Y-131.003 E0.23528
G1 X8.609 Y-128.609 E0.23543
G1 X11.003 Y-125.69 E0.23543
G1 X12.782 Y-122.363 E0.23528
G1 X13.874 Y-118.76 E0.23479
G1 X14.246 Y-115 E0.23563
G1 X13.874 Y-111.239 E0.23569
G1 X12.782 Y-107.636 E0.23479
G1 X11.003 Y-104.309 E0.23528
G1 X8.609 Y-101.39 E0.23543
G1 X5.69 Y-98.996 E0.23543
G1 X2.363 Y-97.217 E0.23528
G1 X-1.24 Y-96.125 E0.23479
G1 X-4.999 Y-95.754 E0.23556
G0 F15000 X-4.999 Y-96.257
G1 F2700 X-8.662 Y-96.618 E0.22954
G1 X-12.172 Y-97.682 E0.22873
G1 X-15.41 Y-99.414 E0.229
G1 X-18.254 Y-101.745 E0.22932
G1 X-20.585 Y-104.589 E0.22932
G1 X-22.317 Y-107.827 E0.229
G1 X-23.381 Y-111.337 E0.22873
G1 X-23.743 Y-115 E0.22955
G1 X-23.381 Y-118.662 E0.22949
G1 X-22.317 Y-122.172 E0.22873
G1 X-20.585 Y-125.41 E0.229
G1 X-18.254 Y-128.254 E0.22932
G1 X-15.41 Y-130.585 E0.22932
G1 X-12.172 Y-132.317 E0.229
G1 X-8.662 Y-133.381 E0.22873
G1 X-5 Y-133.743 E0.22949
G1 X-1.333 Y-133.38 E0.2298
G1 X2.168 Y-132.319 E0.22814
G1 X5.41 Y-130.585 E0.22928
G1 X8.254 Y-128.254 E0.22932
G1 X10.585 Y-125.41 E0.22932
G1 X12.317 Y-122.172 E0.229
G1 X13.381 Y-118.662 E0.22873
G1 X13.743 Y-115 E0.22949
G1 X13.381 Y-111.337 E0.22955
G1 X12.317 Y-107.827 E0.22873
G1 X10.585 Y-104.589 E0.229
G1 X8.254 Y-101.745 E0.22932
G1 X5.41 Y-99.414 E0.22932
G1 X2.172 Y-97.682 E0.229
G1 X-1.338 Y-96.618 E0.22873
G1 X-4.999 Y-96.257 E0.22942
G0 F15000 X-4.999 Y-96.76
G1 F2700 X-8.569 Y-97.112 E0.22371
G1 X-11.977 Y-98.145 E0.22208
G1 X-15.13 Y-99.832 E0.22301
G1 X-17.899 Y-102.1 E0.22321
G1 X-20.167 Y-104.869 E0.22321
G1 X-21.854 Y-108.022 E0.22301
G1 X-22.887 Y-111.431 E0.22214
G1 X-23.24 Y-115 E0.22366
G1 X-22.887 Y-118.568 E0.2236
G1 X-21.854 Y-121.977 E0.22214
G1 X-20.167 Y-125.13 E0.22301
G1 X-17.899 Y-127.899 E0.22321
G1 X-15.13 Y-130.167 E0.22321
G1 X-11.977 Y-131.854 E0.22301
G1 X-8.568 Y-132.887 E0.22214
G1 X-5 Y-133.24 E0.2236
G1 X-1.431 Y-132.887 E0.22366
G1 X1.977 Y-131.854 E0.22208
G1 X5.13 Y-130.167 E0.22301
G1 X7.899 Y-127.899 E0.22321
G1 X10.167 Y-125.13 E0.22321
G1 X11.854 Y-121.977 E0.22301
G1 X12.887 Y-118.568 E0.22214
G1 X13.24 Y-115 E0.2236
