;FLAVOR:RepRap
;TIME:907
;Filament used: 1.51451m, 0m
;Layer height: 0.2
;MINX:-26.599
;MINY:-98.129
;MINZ:0.3
;MAXX:26.599
;MAXY:-42.309
;MAXZ:3.5
;Generated with Cura_SteamEngine 4.2.1
T0
M190 S80
M104 S240
M109 S240
M82 ;absolute extrusion mode
M203 Z14000
G28 ;Home
G1 X0 Y-130 Z0.3 F8000 ;Move the platform down 15mm
G1 Z5
G1 F200 E3
G92 E0
G92 E0
G91
G1 Z1 F10000
G90
G1 X0 Y-130 F14000
T0 P0
G92 E0
G1 E160 F5000
G92 E0
M18 E1
G92 E0
G1 F4200 E-5.5
;LAYER_COUNT:12
;LAYER:0
M107
G0 F15000 X11.933 Y-42.311 Z0.3
;TYPE:SKIRT
G1 F4200 E0.12473
G1 F1500 X-11.973 Y-42.309 E1.61557
G1 X-12.026 Y-42.309 E1.61887
G1 X-13.021 Y-42.323 E1.68093
G1 X-13.12 Y-42.326 E1.68711
G1 X-13.464 Y-42.34 E1.70858
G1 X-13.636 Y-42.351 E1.71933
G1 X-14.109 Y-42.392 E1.74894
G1 X-14.25 Y-42.407 E1.75778
G1 X-14.602 Y-42.451 E1.7799
G1 X-14.715 Y-42.467 E1.78702
G1 X-14.978 Y-42.508 E1.80362
G1 X-15.079 Y-42.525 E1.81
G1 X-15.367 Y-42.578 E1.82827
G1 X-15.478 Y-42.6 E1.83532
G1 X-15.761 Y-42.661 E1.85338
G1 X-15.857 Y-42.683 E1.85952
G1 X-16.149 Y-42.754 E1.87826
G1 X-16.323 Y-42.801 E1.8895
G1 X-16.917 Y-42.976 E1.92812
G1 X-17.062 Y-43.022 E1.9376
G1 X-17.286 Y-43.098 E1.95236
G1 X-17.374 Y-43.129 E1.95817
G1 X-17.63 Y-43.223 E1.97518
G1 X-17.74 Y-43.265 E1.98252
G1 X-18.045 Y-43.388 E2.00303
G1 X-18.138 Y-43.427 E2.00932
G1 X-18.384 Y-43.534 E2.02605
G1 X-18.481 Y-43.578 E2.03269
G1 X-18.677 Y-43.67 E2.0462
G1 X-18.776 Y-43.718 E2.05306
G1 X-19.134 Y-43.899 E2.07808
G1 X-19.215 Y-43.942 E2.0838
G1 X-19.42 Y-44.052 E2.0983
G1 X-19.535 Y-44.116 E2.10651
G1 X-19.801 Y-44.271 E2.12571
G1 X-19.885 Y-44.321 E2.13181
G1 X-20.126 Y-44.47 E2.14948
G1 X-20.216 Y-44.528 E2.15615
G1 X-20.462 Y-44.69 E2.17452
G1 X-20.555 Y-44.753 E2.18153
G1 X-20.78 Y-44.911 E2.19867
G1 X-20.852 Y-44.963 E2.20421
G1 X-21.108 Y-45.152 E2.22406
G1 X-21.214 Y-45.233 E2.23238
G1 X-21.433 Y-45.407 E2.24982
G1 X-21.505 Y-45.465 E2.25559
G1 X-21.724 Y-45.648 E2.27338
G1 X-21.815 Y-45.728 E2.28094
G1 X-22.028 Y-45.918 E2.29874
G1 X-22.087 Y-45.971 E2.30369
G1 X-22.318 Y-46.186 E2.32337
G1 X-22.415 Y-46.279 E2.33175
G1 X-22.566 Y-46.43 E2.34506
G1 X-22.627 Y-46.493 E2.35053
G1 X-22.899 Y-46.778 E2.3751
G1 X-22.976 Y-46.862 E2.38221
G1 X-23.143 Y-47.048 E2.3978
G1 X-23.215 Y-47.13 E2.4046
G1 X-23.386 Y-47.332 E2.42111
G1 X-23.447 Y-47.406 E2.42709
G1 X-23.623 Y-47.625 E2.44461
G1 X-23.697 Y-47.721 E2.45217
G1 X-23.906 Y-47.999 E2.47386
G1 X-23.962 Y-48.074 E2.47969
G1 X-24.089 Y-48.252 E2.49333
G1 X-24.156 Y-48.35 E2.50073
G1 X-24.354 Y-48.647 E2.52299
G1 X-24.41 Y-48.733 E2.52939
G1 X-24.545 Y-48.948 E2.54523
G1 X-24.605 Y-49.047 E2.55245
G1 X-24.766 Y-49.322 E2.57232
G1 X-24.81 Y-49.399 E2.57785
G1 X-24.953 Y-49.657 E2.59624
G1 X-25.015 Y-49.774 E2.6045
G1 X-25.128 Y-49.996 E2.62004
G1 X-25.168 Y-50.076 E2.62561
G1 X-25.284 Y-50.318 E2.64235
G1 X-25.327 Y-50.412 E2.6488
G1 X-25.475 Y-50.744 E2.67147
G1 X-25.55 Y-50.924 E2.68363
G1 X-25.767 Y-51.488 E2.72131
G1 X-25.817 Y-51.626 E2.73047
G1 X-25.895 Y-51.855 E2.74555
G1 X-25.923 Y-51.941 E2.75119
G1 X-26.004 Y-52.199 E2.76806
G1 X-26.037 Y-52.31 E2.77528
G1 X-26.13 Y-52.642 E2.79678
G1 X-26.157 Y-52.744 E2.80336
G1 X-26.218 Y-52.988 E2.81905
G1 X-26.24 Y-53.081 E2.825
G1 X-26.288 Y-53.296 E2.83874
G1 X-26.311 Y-53.408 E2.84587
G1 X-26.379 Y-53.763 E2.86841
G1 X-26.4 Y-53.88 E2.87583
G1 X-26.443 Y-54.151 E2.89294
G1 X-26.457 Y-54.246 E2.89893
G1 X-26.499 Y-54.563 E2.91887
G1 X-26.511 Y-54.669 E2.92552
G1 X-26.538 Y-54.929 E2.94182
G1 X-26.548 Y-55.044 E2.94902
G1 X-26.57 Y-55.346 E2.96791
G1 X-26.576 Y-55.44 E2.97378
G1 X-26.591 Y-55.755 E2.99345
G1 X-26.594 Y-55.868 E3.0005
G1 X-26.598 Y-56.097 E3.01478
G1 X-26.599 Y-56.197 E3.02102
G1 X-26.596 Y-56.515 E3.04085
G1 X-26.593 Y-56.628 E3.0479
G1 X-26.582 Y-56.907 E3.06531
G1 X-26.577 Y-56.999 E3.07106
G1 X-26.561 Y-57.249 E3.08668
G1 X-26.551 Y-57.372 E3.09437
G1 X-26.513 Y-57.763 E3.11887
G1 X-26.502 Y-57.868 E3.12546
G1 X-26.446 Y-58.313 E3.15343
G1 X-26.147 Y-61.018 E3.32315
G1 X-25.928 Y-63.699 E3.4909
G1 X-25.781 Y-66.453 E3.66289
G1 X-25.712 Y-69.174 E3.83263
G1 X-25.721 Y-71.897 E4.00245
G1 X-25.807 Y-74.617 E4.17216
G1 X-25.967 Y-77.301 E4.33984
G1 X-26.211 Y-80.067 E4.513
G1 X-26.473 Y-82.3 E4.65321
G1 X-26.48 Y-82.357 E4.6568
G1 X-26.539 Y-82.934 E4.69297
G1 X-26.548 Y-83.043 E4.69979
G1 X-26.57 Y-83.346 E4.71873
G1 X-26.576 Y-83.44 E4.72461
G1 X-26.591 Y-83.755 E4.74427
G1 X-26.594 Y-83.868 E4.75132
G1 X-26.598 Y-84.1 E4.76579
G1 X-26.599 Y-84.201 E4.77209
G1 X-26.596 Y-84.516 E4.79174
G1 X-26.593 Y-84.628 E4.79872
G1 X-26.582 Y-84.907 E4.81614
G1 X-26.577 Y-84.999 E4.82188
G1 X-26.561 Y-85.249 E4.83751
G1 X-26.551 Y-85.372 E4.8452
G1 X-26.513 Y-85.763 E4.8697
G1 X-26.502 Y-85.867 E4.87622
G1 X-26.476 Y-86.074 E4.88923
G1 X-26.46 Y-86.186 E4.89629
G1 X-26.407 Y-86.525 E4.91769
G1 X-26.39 Y-86.624 E4.92395
G1 X-26.349 Y-86.847 E4.93809
G1 X-26.328 Y-86.952 E4.94477
G1 X-26.259 Y-87.275 E4.96537
G1 X-26.232 Y-87.393 E4.97291
G1 X-26.158 Y-87.692 E4.99212
G1 X-26.136 Y-87.776 E4.99754
G1 X-26.069 Y-88.022 E5.01344
G1 X-26.041 Y-88.121 E5.01986
G1 X-25.967 Y-88.366 E5.03582
G1 X-25.93 Y-88.483 E5.04347
G1 X-25.809 Y-88.841 E5.06703
G1 X-25.775 Y-88.935 E5.07327
G1 X-25.704 Y-89.128 E5.08609
G1 X-25.665 Y-89.231 E5.09296
G1 X-25.532 Y-89.562 E5.11521
G1 X-25.485 Y-89.672 E5.12267
G1 X-25.373 Y-89.927 E5.14004
G1 X-25.332 Y-90.017 E5.1462
G1 X-25.218 Y-90.259 E5.16289
G1 X-25.173 Y-90.352 E5.16933
G1 X-25.031 Y-90.633 E5.18896
G1 X-24.982 Y-90.727 E5.19557
G1 X-24.87 Y-90.934 E5.21025
G1 X-24.817 Y-91.029 E5.21704
G1 X-24.671 Y-91.281 E5.2352
G1 X-24.622 Y-91.362 E5.2411
G1 X-24.425 Y-91.683 E5.26459
G1 X-24.315 Y-91.853 E5.27722
G1 X-23.985 Y-92.331 E5.31344
G1 X-23.903 Y-92.445 E5.3222
G1 X-23.758 Y-92.639 E5.3373
G1 X-23.698 Y-92.717 E5.34344
G1 X-23.526 Y-92.935 E5.36076
G1 X-23.46 Y-93.016 E5.36727
G1 X-23.247 Y-93.271 E5.38799
G1 X-23.173 Y-93.357 E5.39507
G1 X-23.022 Y-93.527 E5.40925
G1 X-22.969 Y-93.586 E5.41419
G1 X-22.792 Y-93.777 E5.43043
G1 X-22.693 Y-93.88 E5.43934
G1 X-22.414 Y-94.159 E5.46395
G1 X-22.353 Y-94.218 E5.46924
G1 X-22.173 Y-94.39 E5.48477
G1 X-22.077 Y-94.478 E5.49289
G1 X-21.856 Y-94.675 E5.51135
G1 X-21.786 Y-94.736 E5.51714
G1 X-21.569 Y-94.92 E5.53489
G1 X-21.485 Y-94.99 E5.5417
G1 X-21.276 Y-95.157 E5.55839
G1 X-21.194 Y-95.22 E5.56484
G1 X-20.974 Y-95.386 E5.58202
G1 X-20.889 Y-95.448 E5.58859
G1 X-20.615 Y-95.643 E5.60956
G1 X-20.518 Y-95.71 E5.61691
G1 X-20.306 Y-95.851 E5.63279
G1 X-20.221 Y-95.906 E5.6391
G1 X-19.945 Y-96.079 E5.65942
G1 X-19.817 Y-96.156 E5.66873
G1 X-19.363 Y-96.416 E5.70136
G1 X-19.216 Y-96.496 E5.71179
G1 X-18.948 Y-96.634 E5.73059
G1 X-18.848 Y-96.683 E5.73754
G1 X-18.553 Y-96.824 E5.75793
G1 X-18.459 Y-96.868 E5.7644
G1 X-18.225 Y-96.972 E5.78037
G1 X-18.135 Y-97.01 E5.78646
G1 X-17.823 Y-97.139 E5.80752
G1 X-17.697 Y-97.189 E5.81597
G1 X-17.49 Y-97.266 E5.82974
G1 X-17.397 Y-97.299 E5.8359
G1 X-17.061 Y-97.414 E5.85805
G1 X-16.968 Y-97.445 E5.86416
G1 X-16.636 Y-97.549 E5.88586
G1 X-16.461 Y-97.599 E5.89721
G1 X-15.997 Y-97.72 E5.92711
G1 X-15.856 Y-97.754 E5.93616
G1 X-15.533 Y-97.825 E5.95678
G1 X-15.438 Y-97.844 E5.96282
G1 X-15.189 Y-97.892 E5.97864
G1 X-15.078 Y-97.912 E5.98567
G1 X-14.769 Y-97.962 E6.00519
G1 X-14.673 Y-97.976 E6.01124
G1 X-14.466 Y-98.004 E6.02427
G1 X-14.35 Y-98.018 E6.03155
G1 X-13.916 Y-98.063 E6.05876
G1 X-13.8 Y-98.073 E6.06602
G1 X-13.565 Y-98.09 E6.08072
G1 X-13.368 Y-98.099 E6.09302
G1 X-12.007 Y-98.126 E6.17791
G1 X-11.933 Y-98.127 E6.18252
G1 X11.973 Y-98.129 E7.67337
G1 X12.026 Y-98.129 E7.67667
G1 X13.021 Y-98.115 E7.73873
G1 X13.12 Y-98.112 E7.74491
G1 X13.464 Y-98.098 E7.76638
G1 X13.636 Y-98.087 E7.77713
G1 X14.109 Y-98.046 E7.80673
G1 X14.25 Y-98.031 E7.81558
G1 X14.602 Y-97.987 E7.8377
G1 X14.715 Y-97.971 E7.84482
G1 X14.978 Y-97.93 E7.86142
G1 X15.078 Y-97.913 E7.86774
G1 X15.361 Y-97.861 E7.88569
G1 X15.471 Y-97.839 E7.89268
G1 X15.741 Y-97.781 E7.9099
G1 X15.839 Y-97.759 E7.91617
G1 X16.131 Y-97.688 E7.93491
G1 X16.243 Y-97.659 E7.94212
G1 X16.54 Y-97.577 E7.96134
G1 X16.631 Y-97.551 E7.96724
G1 X16.898 Y-97.47 E7.98464
G1 X17.009 Y-97.434 E7.99192
G1 X17.231 Y-97.359 E8.00653
G1 X17.331 Y-97.323 E8.01316
G1 X17.68 Y-97.194 E8.03636
G1 X17.768 Y-97.161 E8.04222
G1 X18.024 Y-97.059 E8.05941
G1 X18.136 Y-97.012 E8.06698
G1 X18.388 Y-96.902 E8.08413
G1 X18.481 Y-96.86 E8.09049
G1 X18.677 Y-96.768 E8.104
G1 X18.776 Y-96.72 E8.11086
G1 X19.134 Y-96.539 E8.13588
G1 X19.216 Y-96.496 E8.14165
G1 X19.419 Y-96.387 E8.15602
G1 X19.528 Y-96.326 E8.16381
G1 X19.788 Y-96.175 E8.18256
G1 X19.878 Y-96.121 E8.1891
G1 X20.127 Y-95.967 E8.20736
G1 X20.216 Y-95.91 E8.21395
G1 X20.462 Y-95.748 E8.23232
G1 X20.55 Y-95.689 E8.23893
G1 X20.773 Y-95.533 E8.2559
G1 X20.854 Y-95.474 E8.26215
G1 X21.112 Y-95.283 E8.28217
G1 X21.206 Y-95.211 E8.28955
G1 X21.411 Y-95.049 E8.30585
G1 X21.493 Y-94.983 E8.31241
G1 X21.726 Y-94.788 E8.33136
G1 X21.811 Y-94.714 E8.33839
G1 X22.019 Y-94.529 E8.35575
G1 X22.083 Y-94.471 E8.36114
G1 X22.302 Y-94.267 E8.3798
G1 X22.39 Y-94.183 E8.38739
G1 X22.558 Y-94.016 E8.40216
G1 X22.627 Y-93.945 E8.40833
G1 X22.899 Y-93.66 E8.4329
G1 X22.977 Y-93.575 E8.4401
G1 X23.143 Y-93.39 E8.4556
G1 X23.209 Y-93.316 E8.46178
G1 X23.374 Y-93.122 E8.47766
G1 X23.438 Y-93.044 E8.48396
G1 X23.62 Y-92.818 E8.50205
G1 X23.696 Y-92.72 E8.50979
G1 X23.896 Y-92.454 E8.53054
G1 X23.954 Y-92.375 E8.53665
G1 X24.09 Y-92.184 E8.55127
G1 X24.154 Y-92.092 E8.55826
G1 X24.353 Y-91.794 E8.58061
G1 X24.408 Y-91.709 E8.58692
G1 X24.532 Y-91.512 E8.60144
G1 X24.589 Y-91.417 E8.60835
G1 X24.761 Y-91.125 E8.62948
G1 X24.815 Y-91.03 E8.6363
G1 X24.957 Y-90.772 E8.65466
G1 X25.011 Y-90.671 E8.66181
G1 X25.124 Y-90.45 E8.67729
G1 X25.164 Y-90.37 E8.68286
G1 X25.281 Y-90.127 E8.69968
G1 X25.329 Y-90.023 E8.70683
G1 X25.477 Y-89.69 E8.72955
G1 X25.55 Y-89.514 E8.74143
G1 X25.764 Y-88.958 E8.77859
G1 X25.811 Y-88.828 E8.78721
G1 X25.892 Y-88.592 E8.80277
G1 X25.925 Y-88.493 E8.80928
G1 X26.004 Y-88.24 E8.82581
G1 X26.034 Y-88.136 E8.83256
G1 X26.127 Y-87.805 E8.854
G1 X26.154 Y-87.704 E8.86052
G1 X26.21 Y-87.481 E8.87486
G1 X26.23 Y-87.396 E8.8803
G1 X26.285 Y-87.153 E8.89584
G1 X26.311 Y-87.028 E8.9038
G1 X26.374 Y-86.698 E8.92475
G1 X26.392 Y-86.597 E8.93115
G1 X26.439 Y-86.308 E8.94941
G1 X26.454 Y-86.209 E8.95565
G1 X26.497 Y-85.891 E8.97567
G1 X26.51 Y-85.781 E8.98257
G1 X26.535 Y-85.544 E8.99744
G1 X26.546 Y-85.423 E9.00501
G1 X26.57 Y-85.093 E9.02565
G1 X26.576 Y-84.999 E9.03152
G1 X26.591 Y-84.683 E9.05125
G1 X26.594 Y-84.575 E9.05799
G1 X26.598 Y-84.361 E9.07134
G1 X26.599 Y-84.256 E9.07788
G1 X26.596 Y-83.931 E9.09815
G1 X26.593 Y-83.822 E9.10495
G1 X26.582 Y-83.535 E9.12286
G1 X26.577 Y-83.439 E9.12886
G1 X26.561 Y-83.189 E9.14448
G1 X26.552 Y-83.073 E9.15174
G1 X26.517 Y-82.706 E9.17473
G1 X26.505 Y-82.594 E9.18175
G1 X26.446 Y-82.125 E9.21123
G1 X26.147 Y-79.42 E9.38095
G1 X25.928 Y-76.739 E9.5487
G1 X25.781 Y-73.985 E9.72069
G1 X25.712 Y-71.264 E9.89044
G1 X25.721 Y-68.541 E10.06025
G1 X25.807 Y-65.821 E10.22996
G1 X25.967 Y-63.138 E10.39758
G1 X26.211 Y-60.367 E10.57106
G1 X26.472 Y-58.145 E10.71058
G1 X26.478 Y-58.096 E10.71366
G1 X26.536 Y-57.538 E10.74864
G1 X26.546 Y-57.422 E10.7559
G1 X26.57 Y-57.092 E10.77654
G1 X26.576 Y-56.998 E10.78241
G1 X26.591 Y-56.683 E10.80208
G1 X26.594 Y-56.575 E10.80882
G1 X26.598 Y-56.362 E10.8221
G1 X26.599 Y-56.257 E10.82865
G1 X26.596 Y-55.931 E10.84898
G1 X26.593 Y-55.822 E10.85578
G1 X26.582 Y-55.535 E10.87369
G1 X26.577 Y-55.439 E10.87969
G1 X26.561 Y-55.189 E10.89531
G1 X26.552 Y-55.069 E10.90281
G1 X26.516 Y-54.696 E10.92618
G1 X26.504 Y-54.593 E10.93265
G1 X26.476 Y-54.368 E10.94679
G1 X26.46 Y-54.251 E10.95415
G1 X26.409 Y-53.925 E10.97473
G1 X26.393 Y-53.833 E10.98056
G1 X26.35 Y-53.597 E10.99552
G1 X26.328 Y-53.486 E11.00257
G1 X26.259 Y-53.163 E11.02317
G1 X26.231 Y-53.042 E11.03092
G1 X26.158 Y-52.748 E11.04981
G1 X26.139 Y-52.671 E11.05475
G1 X26.071 Y-52.42 E11.07097
G1 X26.041 Y-52.317 E11.07766
G1 X25.967 Y-52.072 E11.09362
G1 X25.929 Y-51.955 E11.10129
G1 X25.81 Y-51.603 E11.12446
G1 X25.779 Y-51.513 E11.1304
G1 X25.706 Y-51.314 E11.14362
G1 X25.665 Y-51.207 E11.15077
G1 X25.536 Y-50.886 E11.17234
G1 X25.491 Y-50.78 E11.17952
G1 X25.375 Y-50.515 E11.19756
G1 X25.332 Y-50.421 E11.20401
G1 X25.218 Y-50.179 E11.22069
G1 X25.173 Y-50.086 E11.22713
G1 X25.031 Y-49.805 E11.24677
G1 X24.982 Y-49.711 E11.25338
G1 X24.87 Y-49.504 E11.26806
G1 X24.817 Y-49.41 E11.27479
G1 X24.678 Y-49.17 E11.29208
G1 X24.631 Y-49.09 E11.29787
G1 X24.427 Y-48.757 E11.32222
G1 X24.315 Y-48.585 E11.33502
G1 X23.996 Y-48.123 E11.37003
G1 X23.919 Y-48.016 E11.37826
G1 X23.765 Y-47.809 E11.39435
G1 X23.702 Y-47.727 E11.40079
G1 X23.528 Y-47.506 E11.41834
G1 X23.46 Y-47.422 E11.42508
G1 X23.247 Y-47.167 E11.4458
G1 X23.173 Y-47.081 E11.45287
G1 X23.022 Y-46.911 E11.46705
G1 X22.965 Y-46.849 E11.4723
G1 X22.795 Y-46.666 E11.48788
G1 X22.704 Y-46.571 E11.49608
G1 X22.429 Y-46.295 E11.52038
G1 X22.358 Y-46.225 E11.5266
G1 X22.172 Y-46.048 E11.54261
G1 X22.093 Y-45.975 E11.54932
G1 X21.867 Y-45.772 E11.56826
G1 X21.791 Y-45.706 E11.57454
G1 X21.583 Y-45.529 E11.59157
G1 X21.492 Y-45.454 E11.59893
G1 X21.274 Y-45.28 E11.61632
G1 X21.196 Y-45.219 E11.6225
G1 X20.983 Y-45.058 E11.63915
G1 X20.896 Y-44.995 E11.64585
G1 X20.615 Y-44.795 E11.66736
G1 X20.518 Y-44.728 E11.67471
G1 X20.306 Y-44.587 E11.69059
G1 X20.221 Y-44.532 E11.6969
G1 X19.945 Y-44.359 E11.71721
G1 X19.817 Y-44.282 E11.72653
G1 X19.363 Y-44.022 E11.75916
G1 X19.216 Y-43.942 E11.76959
G1 X18.948 Y-43.804 E11.78839
G1 X18.848 Y-43.755 E11.79534
G1 X18.553 Y-43.614 E11.81573
G1 X18.459 Y-43.57 E11.8222
G1 X18.225 Y-43.466 E11.83817
G1 X18.135 Y-43.428 E11.84426
G1 X17.823 Y-43.299 E11.86532
G1 X17.705 Y-43.252 E11.87324
G1 X17.462 Y-43.161 E11.88942
G1 X17.363 Y-43.125 E11.89599
G1 X17.077 Y-43.027 E11.91484
G1 X16.977 Y-42.995 E11.92139
G1 X16.73 Y-42.918 E11.93753
G1 X16.628 Y-42.888 E11.94416
G1 X16.329 Y-42.804 E11.96352
G1 X16.236 Y-42.779 E11.96953
G1 X15.94 Y-42.704 E11.98857
G1 X15.82 Y-42.676 E11.99626
G1 X15.541 Y-42.615 E12.01407
G1 X15.446 Y-42.595 E12.02012
G1 X15.185 Y-42.545 E12.03669
G1 X15.078 Y-42.526 E12.04347
G1 X14.769 Y-42.476 E12.06299
G1 X14.673 Y-42.462 E12.06904
G1 X14.466 Y-42.434 E12.08207
G1 X14.35 Y-42.42 E12.08936
G1 X13.916 Y-42.375 E12.11657
G1 X13.8 Y-42.365 E12.12383
G1 X13.565 Y-42.348 E12.13852
G1 X13.368 Y-42.339 E12.15082
G1 X12.007 Y-42.312 E12.23571
G1 X11.933 Y-42.311 E12.24033
G0 F15000 X11.933 Y-42.811
G1 F1500 X-11.973 Y-42.809 E13.73117
G1 X-12.019 Y-42.809 E13.73404
G1 X-13.014 Y-42.823 E13.7961
G1 X-13.1 Y-42.826 E13.80146
G1 X-13.444 Y-42.84 E13.82293
G1 X-13.593 Y-42.849 E13.83224
G1 X-14.066 Y-42.89 E13.86185
G1 X-14.188 Y-42.903 E13.8695
G1 X-14.54 Y-42.947 E13.89162
G1 X-14.638 Y-42.961 E13.8978
G1 X-14.901 Y-43.002 E13.9144
G1 X-14.988 Y-43.017 E13.9199
G1 X-15.276 Y-43.07 E13.93816
G1 X-15.373 Y-43.089 E13.94433
G1 X-15.656 Y-43.15 E13.96238
G1 X-15.739 Y-43.169 E13.96769
G1 X-16.031 Y-43.24 E13.98643
G1 X-16.181 Y-43.28 E13.99611
G1 X-16.775 Y-43.455 E14.03473
G1 X-16.901 Y-43.495 E14.04298
G1 X-17.125 Y-43.571 E14.05773
G1 X-17.201 Y-43.598 E14.06276
G1 X-17.457 Y-43.692 E14.07976
G1 X-17.553 Y-43.729 E14.08618
G1 X-17.858 Y-43.852 E14.10669
G1 X-17.938 Y-43.886 E14.11211
G1 X-18.184 Y-43.993 E14.12884
G1 X-18.269 Y-44.031 E14.13465
G1 X-18.465 Y-44.123 E14.14815
G1 X-18.55 Y-44.165 E14.15406
G1 X-18.908 Y-44.346 E14.17908
G1 X-18.979 Y-44.382 E14.18404
G1 X-19.184 Y-44.492 E14.19855
G1 X-19.283 Y-44.548 E14.20565
G1 X-19.549 Y-44.703 E14.22484
G1 X-19.622 Y-44.747 E14.23016
G1 X-19.863 Y-44.896 E14.24783
G1 X-19.941 Y-44.946 E14.25361
G1 X-20.187 Y-45.108 E14.27198
G1 X-20.268 Y-45.162 E14.27805
G1 X-20.493 Y-45.32 E14.29519
G1 X-20.555 Y-45.365 E14.29997
G1 X-20.811 Y-45.554 E14.31982
G1 X-20.903 Y-45.624 E14.32703
G1 X-21.122 Y-45.798 E14.34447
G1 X-21.184 Y-45.849 E14.34948
G1 X-21.403 Y-46.032 E14.36727
