;FLAVOR:RepRap
;TIME:2440
;Filament used: 8.98701m, 0m
;Layer height: 0.3
;Generated with Cura_SteamEngine 3.4.1
T0
M190 S65
M104 S220
M109 S220
M82 ;absolute extrusion mode
M203 Z12000
G28 ;Home
G1 Y-250 Z20 F12000 ;Move the platform down 15mm
G92 E0
G1 E160 F5000 E3
G92 E0
G1 Z0.2
G1 X10. F3000
G1 Z50 F12000
G92 E0
G1 F3000 E-6.5
;LAYER_COUNT:17
;LAYER:0
M107
M203 Z18000
G0 F18000 X103.35 Y-87.241 Z0.3
;TYPE:SKIRT
G1 F3000 E1.24726
G1 F1800 X103.341 Y87.964 E16.54403
G1 X103.329 Y88.25 E16.56902
G1 X103.15 Y90.339 E16.75207
G1 X103.049 Y90.914 E16.80304
G1 X102.51 Y92.94 E16.98608
G1 X102.312 Y93.488 E17.03696
G1 X101.437 Y95.375 E17.21856
G1 X101.147 Y95.881 E17.26947
G1 X99.945 Y97.606 E17.45304
G1 X99.57 Y98.055 E17.50411
G1 X98.106 Y99.525 E17.68525
G1 X97.659 Y99.901 E17.73624
G1 X95.943 Y101.108 E17.91941
G1 X95.439 Y101.401 E17.97031
G1 X93.542 Y102.291 E18.15326
G1 X92.995 Y102.491 E18.20411
G1 X90.984 Y103.036 E18.38602
G1 X90.338 Y103.145 E18.44321
G1 X87.471 Y103.342 E18.69412
G1 X87.241 Y103.35 E18.71421
G1 X-87.964 Y103.341 E34.01098
G1 X-88.25 Y103.329 E34.03597
G1 X-90.339 Y103.15 E34.21903
G1 X-90.914 Y103.049 E34.27
G1 X-92.941 Y102.51 E34.45312
G1 X-93.49 Y102.312 E34.50408
G1 X-95.376 Y101.437 E34.6856
G1 X-95.881 Y101.147 E34.73644
G1 X-97.606 Y99.945 E34.92
G1 X-98.055 Y99.57 E34.97108
G1 X-99.525 Y98.106 E35.15221
G1 X-99.901 Y97.659 E35.20321
G1 X-101.108 Y95.943 E35.38638
G1 X-101.401 Y95.438 E35.43735
G1 X-102.291 Y93.54 E35.62038
G1 X-102.492 Y92.994 E35.67118
G1 X-103.036 Y90.985 E35.85289
G1 X-103.144 Y90.34 E35.90999
G1 X-103.342 Y87.472 E36.16099
G1 X-103.35 Y87.241 E36.18117
G1 X-103.341 Y-87.964 E51.47794
G1 X-103.329 Y-88.25 E51.50293
G1 X-103.15 Y-90.339 E51.68599
G1 X-103.049 Y-90.914 E51.73696
G1 X-102.51 Y-92.94 E51.91999
G1 X-102.312 Y-93.488 E51.97087
G1 X-101.437 Y-95.375 E52.15247
G1 X-101.147 Y-95.881 E52.20339
G1 X-99.945 Y-97.606 E52.38695
G1 X-99.57 Y-98.055 E52.43802
G1 X-98.106 Y-99.525 E52.61916
G1 X-97.659 Y-99.901 E52.67016
G1 X-95.943 Y-101.108 E52.85333
G1 X-95.438 Y-101.401 E52.9043
G1 X-93.54 Y-102.291 E53.08732
G1 X-92.995 Y-102.491 E53.13801
G1 X-90.985 Y-103.036 E53.31983
G1 X-90.338 Y-103.145 E53.37712
G1 X-87.471 Y-103.342 E53.62802
G1 X-87.241 Y-103.35 E53.64811
G1 X87.964 Y-103.341 E68.94489
G1 X88.25 Y-103.329 E68.96988
G1 X90.339 Y-103.15 E69.15293
G1 X90.914 Y-103.049 E69.2039
G1 X92.941 Y-102.51 E69.38703
G1 X93.49 Y-102.312 E69.43798
G1 X95.376 Y-101.437 E69.6195
G1 X95.881 Y-101.147 E69.67034
G1 X97.606 Y-99.945 E69.85391
G1 X98.055 Y-99.57 E69.90498
G1 X99.525 Y-98.106 E70.08612
G1 X99.901 Y-97.659 E70.13711
G1 X101.108 Y-95.943 E70.32028
G1 X101.401 Y-95.439 E70.37118
G1 X102.29 Y-93.544 E70.55393
G1 X102.49 Y-92.997 E70.60478
G1 X103.035 Y-90.985 E70.78678
G1 X103.144 Y-90.34 E70.84389
G1 X103.342 Y-87.472 E71.09488
G1 X103.35 Y-87.241 E71.11506
G1 F3000 E64.61506
G1 F18000 Z1.3
G0 X-92.397 Y91.368 Z1.3
;TYPE:WALL-OUTER
G1 F18000 Z0.3
G1 F3000 E72.36232
G1 F2700 X-91.368 Y92.397 E72.48937
G1 X-90.176 Y93.232 E72.61644
G1 X-88.856 Y93.848 E72.74361
G1 X-87.45 Y94.224 E72.87068
G1 X-86.015 Y94.35 E72.99645
G1 X86.015 Y94.35 E88.01602
G1 X87.45 Y94.224 E88.14179
G1 X88.856 Y93.848 E88.26886
G1 X90.176 Y93.232 E88.39604
G1 X91.368 Y92.397 E88.5231
G1 X92.397 Y91.368 E88.65015
G1 X93.232 Y90.176 E88.77722
G1 X93.848 Y88.856 E88.9044
G1 X94.224 Y87.45 E89.03146
G1 X94.35 Y86.015 E89.15723
G1 X94.35 Y-86.015 E104.1768
G1 X94.224 Y-87.45 E104.30257
G1 X93.848 Y-88.856 E104.42964
G1 X93.232 Y-90.176 E104.55682
G1 X92.397 Y-91.368 E104.68388
G1 X91.368 Y-92.397 E104.81094
G1 X90.176 Y-93.232 E104.938
G1 X88.856 Y-93.848 E105.06518
G1 X87.45 Y-94.224 E105.19225
G1 X86.015 Y-94.35 E105.31802
G1 X-86.015 Y-94.35 E120.33759
G1 X-87.45 Y-94.224 E120.46335
G1 X-88.856 Y-93.848 E120.59042
G1 X-90.176 Y-93.232 E120.7176
G1 X-91.368 Y-92.397 E120.84467
G1 X-92.397 Y-91.368 E120.97172
G1 X-93.232 Y-90.176 E121.09878
G1 X-93.848 Y-88.856 E121.22596
G1 X-94.224 Y-87.45 E121.35303
G1 X-94.35 Y-86.015 E121.4788
G1 X-94.35 Y86.015 E136.49837
G1 X-94.224 Y87.45 E136.62414
G1 X-93.848 Y88.856 E136.75121
G1 X-93.232 Y90.176 E136.87838
G1 X-92.397 Y91.368 E137.00545
G0 F18000 X-92.15 Y91.615
G1 F3000 E130.50545
G1 F18000 Z1.3
G0 X-99.472 Y90.024 Z1.3
G1 F18000 Z0.3
G1 F3000 E138.2527
G1 F2700 X-99.65 Y87.981 E138.43175
G1 X-99.65 Y-87.981 E153.79461
G1 X-99.472 Y-90.024 E153.97366
G1 X-98.946 Y-91.985 E154.15092
G1 X-98.089 Y-93.822 E154.3279
G1 X-96.92 Y-95.492 E154.50588
G1 X-95.492 Y-96.92 E154.6822
G1 X-93.822 Y-98.089 E154.86017
G1 X-91.985 Y-98.946 E155.03715
G1 X-90.024 Y-99.472 E155.21442
G1 X-87.981 Y-99.65 E155.39346
G1 X87.981 Y-99.65 E170.75633
G1 X90.024 Y-99.472 E170.93537
G1 X91.985 Y-98.946 E171.11263
G1 X93.822 Y-98.089 E171.28961
G1 X95.492 Y-96.92 E171.46759
G1 X96.92 Y-95.492 E171.64391
G1 X98.089 Y-93.822 E171.82188
G1 X98.946 Y-91.985 E171.99886
G1 X99.472 Y-90.024 E172.17613
G1 X99.65 Y-87.981 E172.35517
G1 X99.65 Y87.981 E187.71804
G1 X99.472 Y90.024 E187.89708
G1 X98.946 Y91.985 E188.07435
G1 X98.089 Y93.822 E188.25132
G1 X96.92 Y95.492 E188.4293
G1 X95.492 Y96.92 E188.60562
G1 X93.822 Y98.089 E188.7836
G1 X91.985 Y98.946 E188.96058
G1 X90.024 Y99.472 E189.13784
G1 X87.981 Y99.65 E189.31688
G1 X-87.981 Y99.65 E204.67975
G1 X-90.024 Y99.472 E204.85879
G1 X-91.985 Y98.946 E205.03606
G1 X-93.822 Y98.089 E205.21304
G1 X-95.492 Y96.92 E205.39101
G1 X-96.92 Y95.492 E205.56733
G1 X-98.089 Y93.822 E205.74531
G1 X-98.946 Y91.985 E205.92229
G1 X-99.472 Y90.024 E206.09955
G0 F18000 X-99.502 Y89.676
G1 F3000 E199.59955
G1 F18000 Z1.3
G0 X-89.901 Y98.78 Z1.3
;TYPE:WALL-INNER
G1 F18000 Z0.3
G1 F3000 E207.3468
G1 F2700 X-91.745 Y98.286 E207.51348
G1 X-93.472 Y97.48 E207.67987
G1 X-95.038 Y96.384 E207.84675
G1 X-96.384 Y95.038 E208.01295
G1 X-97.48 Y93.472 E208.17983
G1 X-98.286 Y91.745 E208.34622
G1 X-98.78 Y89.901 E208.5129
G1 X-98.95 Y87.954 E208.68353
G1 X-98.95 Y-87.954 E224.04168
G1 X-98.78 Y-89.901 E224.21232
G1 X-98.286 Y-91.745 E224.37899
G1 X-97.48 Y-93.472 E224.54538
G1 X-96.384 Y-95.038 E224.71227
G1 X-95.038 Y-96.384 E224.87846
G1 X-93.472 Y-97.48 E225.04534
G1 X-91.745 Y-98.286 E225.21174
G1 X-89.901 Y-98.78 E225.37841
G1 X-87.954 Y-98.95 E225.54904
G1 X87.954 Y-98.95 E240.90719
G1 X89.901 Y-98.78 E241.07783
G1 X91.745 Y-98.286 E241.2445
G1 X93.472 Y-97.48 E241.41089
G1 X95.038 Y-96.384 E241.57778
G1 X96.384 Y-95.038 E241.74397
G1 X97.48 Y-93.472 E241.91085
G1 X98.286 Y-91.745 E242.07725
G1 X98.78 Y-89.901 E242.24392
G1 X98.95 Y-87.954 E242.41456
G1 X98.95 Y87.954 E257.77271
G1 X98.78 Y89.901 E257.94334
G1 X98.286 Y91.745 E258.11001
G1 X97.48 Y93.472 E258.27641
G1 X96.384 Y95.038 E258.44329
G1 X95.038 Y96.384 E258.60948
G1 X93.472 Y97.48 E258.77637
G1 X91.745 Y98.286 E258.94276
G1 X89.901 Y98.78 E259.10943
G1 X87.954 Y98.95 E259.28007
G1 X-87.954 Y98.95 E274.63822
G1 X-89.901 Y98.78 E274.80885
G1 F3000 E268.30885
G1 F18000 Z1.3
G0 X-95.05 Y-86.046 Z1.3
G1 F18000 Z0.3
G1 F3000 E276.05611
G1 F2700 X-95.05 Y86.046 E291.08109
G1 X-94.916 Y87.572 E291.21484
G1 X-94.508 Y89.096 E291.35258
G1 X-93.84 Y90.527 E291.49046
G1 X-92.935 Y91.82 E291.62825
G1 X-91.82 Y92.935 E291.76592
G1 X-90.527 Y93.84 E291.90372
G1 X-89.096 Y94.508 E292.0416
G1 X-87.572 Y94.916 E292.17934
G1 X-86.046 Y95.05 E292.31308
G1 X86.046 Y95.05 E307.33807
G1 X87.572 Y94.916 E307.47181
G1 X89.096 Y94.508 E307.60955
G1 X90.527 Y93.84 E307.74743
G1 X91.82 Y92.935 E307.88523
G1 X92.935 Y91.82 E308.0229
G1 X93.84 Y90.527 E308.16069
G1 X94.508 Y89.096 E308.29857
G1 X94.916 Y87.572 E308.43631
G1 X95.05 Y86.046 E308.57006
G1 X95.05 Y-86.046 E323.59504
G1 X94.916 Y-87.572 E323.72879
G1 X94.508 Y-89.096 E323.86653
G1 X93.84 Y-90.527 E324.00441
G1 X92.935 Y-91.82 E324.1422
G1 X91.82 Y-92.935 E324.27987
G1 X90.527 Y-93.84 E324.41767
G1 X89.096 Y-94.508 E324.55555
G1 X87.572 Y-94.916 E324.69329
G1 X86.046 Y-95.05 E324.82704
G1 X-86.046 Y-95.05 E339.85202
G1 X-87.572 Y-94.916 E339.98576
G1 X-89.096 Y-94.508 E340.12351
G1 X-90.527 Y-93.84 E340.26139
G1 X-91.82 Y-92.935 E340.39918
G1 X-92.935 Y-91.82 E340.53685
G1 X-93.84 Y-90.527 E340.67464
G1 X-94.508 Y-89.096 E340.81252
G1 X-94.916 Y-87.572 E340.95027
G1 X-95.05 Y-86.046 E341.08401
G1 F3000 E334.58401
G1 F18000 Z1.3
G0 X87.694 Y-95.608 Z1.3
G1 F18000 Z0.3
G1 F3000 E342.33127
G1 F2700 X86.077 Y-95.75 E342.47299
G1 X-86.077 Y-95.75 E357.50338
G1 X-87.694 Y-95.608 E357.6451
G1 X-89.336 Y-95.168 E357.79352
G1 X-90.878 Y-94.448 E357.9421
G1 X-92.272 Y-93.473 E358.09062
G1 X-93.473 Y-92.272 E358.23891
G1 X-94.448 Y-90.878 E358.38744
G1 X-95.168 Y-89.336 E358.53602
G1 X-95.608 Y-87.694 E358.68444
G1 X-95.75 Y-86.077 E358.82616
G1 X-95.75 Y86.077 E373.85655
G1 X-95.608 Y87.694 E373.99827
G1 X-95.168 Y89.336 E374.14669
G1 X-94.448 Y90.878 E374.29527
G1 X-93.473 Y92.272 E374.44379
G1 X-92.272 Y93.473 E374.59208
G1 X-90.878 Y94.448 E374.74061
G1 X-89.336 Y95.168 E374.88919
G1 X-87.694 Y95.608 E375.0376
G1 X-86.077 Y95.75 E375.17932
G1 X86.077 Y95.75 E390.20972
G1 X87.694 Y95.608 E390.35144
G1 X89.336 Y95.168 E390.49986
G1 X90.878 Y94.448 E390.64844
G1 X92.272 Y93.473 E390.79696
G1 X93.473 Y92.272 E390.94525
G1 X94.448 Y90.878 E391.09377
G1 X95.168 Y89.336 E391.24236
G1 X95.608 Y87.694 E391.39077
G1 X95.75 Y86.077 E391.53249
G1 X95.75 Y-86.077 E406.56289
G1 X95.608 Y-87.694 E406.70461
G1 X95.168 Y-89.336 E406.85303
G1 X94.448 Y-90.878 E407.00161
G1 X93.473 Y-92.272 E407.15013
G1 X92.272 Y-93.473 E407.29842
G1 X90.878 Y-94.448 E407.44694
G1 X89.336 Y-95.168 E407.59553
G1 X87.694 Y-95.608 E407.74394
G1 F3000 E401.24394
G1 F18000 Z1.3
G0 X95.848 Y-94.584 Z1.3
G1 F18000 Z0.3
G1 F3000 E408.9912
G1 F2700 X96.871 Y-93.122 E409.14699
G1 X97.626 Y-91.505 E409.30279
G1 X98.088 Y-89.778 E409.45888
G1 X98.25 Y-87.927 E409.6211
G1 X98.25 Y87.927 E424.97454
G1 X98.088 Y89.778 E425.13676
G1 X97.626 Y91.505 E425.29284
G1 X96.871 Y93.122 E425.44865
G1 X95.848 Y94.584 E425.60444
G1 X94.584 Y95.848 E425.76051
G1 X93.122 Y96.871 E425.9163
G1 X91.505 Y97.626 E426.07211
G1 X89.778 Y98.088 E426.22819
G1 X87.927 Y98.25 E426.39041
G1 X-87.927 Y98.25 E441.74385
G1 X-89.778 Y98.088 E441.90607
G1 X-91.505 Y97.626 E442.06216
G1 X-93.122 Y96.871 E442.21796
G1 X-94.584 Y95.848 E442.37375
G1 X-95.848 Y94.584 E442.52982
G1 X-96.871 Y93.122 E442.68561
G1 X-97.626 Y91.505 E442.84142
G1 X-98.088 Y89.778 E442.9975
G1 X-98.25 Y87.927 E443.15973
G1 X-98.25 Y-87.927 E458.51316
G1 X-98.088 Y-89.778 E458.67539
G1 X-97.626 Y-91.505 E458.83147
G1 X-96.871 Y-93.122 E458.98728
G1 X-95.848 Y-94.584 E459.14307
G1 X-94.584 Y-95.848 E459.29914
G1 X-93.122 Y-96.871 E459.45492
G1 X-91.505 Y-97.626 E459.61073
G1 X-89.778 Y-98.088 E459.76682
G1 X-87.927 Y-98.25 E459.92904
G1 X87.927 Y-98.25 E475.28248
G1 X89.778 Y-98.088 E475.4447
G1 X91.505 Y-97.626 E475.60078
G1 X93.122 Y-96.871 E475.75659
G1 X94.584 Y-95.848 E475.91238
G1 X95.848 Y-94.584 E476.06845
G0 F18000 X95.31 Y-94.148
;TYPE:SKIN
G1 F2700 X96.273 Y-92.771 E476.21515
G1 X96.976 Y-91.266 E476.36018
G1 X97.404 Y-89.665 E476.50487
G1 X97.56 Y-87.888 E476.66061
G1 X97.56 Y87.888 E492.00724
G1 X97.404 Y89.665 E492.16298
G1 X96.976 Y91.266 E492.30767
G1 X96.273 Y92.771 E492.45269
G1 X95.31 Y94.148 E492.5994
G1 X94.148 Y95.31 E492.74287
G1 X92.771 Y96.273 E492.88958
G1 X91.266 Y96.976 E493.03461
G1 X89.665 Y97.404 E493.1793
G1 X87.888 Y97.56 E493.33504
G1 X-87.888 Y97.56 E508.68166
G1 X-89.665 Y97.404 E508.83741
G1 X-91.266 Y96.976 E508.9821
G1 X-92.771 Y96.273 E509.12712
G1 X-94.148 Y95.31 E509.27383
G1 X-95.31 Y94.148 E509.4173
G1 X-96.273 Y92.771 E509.56401
G1 X-96.976 Y91.266 E509.70903
G1 X-97.404 Y89.665 E509.85372
G1 X-97.56 Y87.888 E510.00947
G1 X-97.56 Y-87.888 E525.35609
G1 X-97.404 Y-89.665 E525.51183
G1 X-96.976 Y-91.266 E525.65652
G1 X-96.273 Y-92.771 E525.80155
G1 X-95.31 Y-94.148 E525.94825
G1 X-94.148 Y-95.31 E526.09173
G1 X-92.771 Y-96.273 E526.23843
G1 X-91.266 Y-96.976 E526.38346
G1 X-89.665 Y-97.404 E526.52815
G1 X-87.888 Y-97.56 E526.68389
G1 X87.888 Y-97.56 E542.03052
G1 X89.665 Y-97.404 E542.18626
G1 X91.266 Y-96.976 E542.33095
G1 X92.771 Y-96.273 E542.47598
G1 X94.148 Y-95.31 E542.62268
G1 X95.31 Y-94.148 E542.76616
G0 F18000 X94.004 Y-92.717
G1 F2700 X92.717 Y-94.004 E542.92506
G1 X91.225 Y-95.048 E543.08405
G1 X89.573 Y-95.819 E543.24322
G1 X87.814 Y-96.29 E543.4022
G1 X86.107 Y-96.44 E543.55181
G1 X-86.107 Y-96.44 E558.58745
G1 X-87.814 Y-96.29 E558.73706
G1 X-89.573 Y-95.819 E558.89604
G1 X-91.225 Y-95.048 E559.05521
G1 X-92.717 Y-94.004 E559.21419
G1 X-94.004 Y-92.717 E559.3731
G1 X-95.048 Y-91.225 E559.53209
G1 X-95.819 Y-89.573 E559.69126
G1 X-96.29 Y-87.814 E559.85024
G1 X-96.44 Y-86.107 E559.99985
G1 X-96.44 Y86.107 E575.03548
G1 X-96.29 Y87.814 E575.18509
G1 X-95.819 Y89.573 E575.34408
G1 X-95.048 Y91.225 E575.50325
G1 X-94.004 Y92.717 E575.66223
G1 X-92.717 Y94.004 E575.82114
G1 X-91.225 Y95.048 E575.98013
G1 X-89.573 Y95.819 E576.13929
G1 X-87.814 Y96.29 E576.29828
G1 X-86.107 Y96.44 E576.44789
G1 X86.107 Y96.44 E591.48352
G1 X87.814 Y96.29 E591.63313
G1 X89.573 Y95.819 E591.79212
G1 X91.225 Y95.048 E591.95128
G1 X92.717 Y94.004 E592.11027
G1 X94.004 Y92.717 E592.26918
G1 X95.048 Y91.225 E592.42817
G1 X95.819 Y89.573 E592.58733
G1 X96.29 Y87.814 E592.74632
G1 X96.44 Y86.107 E592.89593
G1 X96.44 Y-86.107 E607.93156
G1 X96.29 Y-87.814 E608.08117
G1 X95.819 Y-89.573 E608.24016
G1 X95.048 Y-91.225 E608.39932
G1 X94.004 Y-92.717 E608.55831
G1 F3000 E602.05831
G1 F18000 Z1.3
G0 X91.559 Y-95.624 Z1.3
G1 F18000 Z0.3
G1 F3000 E609.80556
G1 F2700 X93.145 Y-94.514 E609.97458
G1 X94.514 Y-93.145 E610.14361
G1 X95.624 Y-91.559 E610.31263
G1 X95.697 Y-91.402 E610.32774
G1 X96.452 Y-90.647 E610.42096
G1 X96.348 Y-91.039 E610.45637
G1 X95.73 Y-92.359 E610.58362
G1 X92.36 Y-95.73 E610.99979
G1 X92.431 Y-95.697 E611.00662
G1 X93.722 Y-94.794 E611.14417
G1 X94.794 Y-93.722 E611.27654
G1 X95.697 Y-92.431 E611.41409
G0 F18000 X95.697 Y-91.402
G1 F2700 X96.445 Y-89.801 E611.56837
G1 X96.494 Y-89.615 E611.58516
G1 X96.762 Y-89.347 E611.61825
G1 X96.858 Y-88.262 E611.71335
G1 F3000 E605.21335
G1 F18000 Z1.3
G0 X91.402 Y-95.698 Z1.3
G1 F18000 Z0.3
G1 F3000 E612.96061
G1 F2700 X90.648 Y-96.452 E613.0537
G1 X89.555 Y-96.744 E613.15248
G1 X89.348 Y-96.761 E613.17061
G1 X89.615 Y-96.495 E613.20352
G1 X88.263 Y-96.856 E613.32569
G1 F3000 E606.82569
G1 F18000 Z1.3
G0 X-88.794 Y-96.714 Z1.3
G1 F18000 Z0.3
G1 F3000 E614.57295
G1 F2700 X-89.576 Y-96.505 E614.64362
G1 X-89.759 Y-96.689 E614.66628
G1 X-90.54 Y-96.48 E614.73686
G1 X-90.281 Y-96.221 E614.76884
G1 X-90.956 Y-95.906 E614.83388
G1 X-91.283 Y-96.233 E614.87425
G1 X-91.957 Y-95.917 E614.93924
G1 X-91.621 Y-95.581 E614.98073
G1 X-92.203 Y-95.173 E615.04279
G1 X-92.605 Y-95.575 E615.09242
G1 X-93.188 Y-95.168 E615.1545
G1 X-92.786 Y-94.766 E615.20413
G1 X-93.145 Y-94.514 E615.24243
G1 X-93.335 Y-94.325 E615.26583
G1 X-93.763 Y-94.753 E615.31867
G1 X-94.258 Y-94.258 E615.37979
G1 X-93.83 Y-93.83 E615.43264
G1 X-94.325 Y-93.335 E615.49376
G1 X-94.753 Y-93.763 E615.5466
G1 X-94.794 Y-93.722 E615.55166
G1 X-95.168 Y-93.188 E615.60858
G1 X-94.765 Y-92.785 E615.65834
G1 X-95.173 Y-92.203 E615.7204
G1 X-95.576 Y-92.606 E615.77016
G1 X-95.697 Y-92.431 E615.78873
G1 X-95.918 Y-91.958 E615.83432
G1 X-95.581 Y-91.621 E615.87593
G1 X-95.624 Y-91.559 E615.88251
G1 X-95.905 Y-90.955 E615.94068
G1 X-96.234 Y-91.284 E615.9813
G1 X-96.348 Y-91.039 E616.00489
G1 X-96.481 Y-90.541 E616.04989
G1 X-96.22 Y-90.281 E616.08206
G1 X-96.445 Y-89.801 E616.12834
G1 X-96.505 Y-89.575 E616.14876
G1 X-96.689 Y-89.76 E616.17154
G1 X-96.744 Y-89.555 E616.19007
G1 X-96.803 Y-88.884 E616.24888
G1 F3000 E609.74888
G1 F18000 Z1.3
G0 X-96.858 Y88.262 Z1.3
G1 F18000 Z0.3
G1 F3000 E617.49613
G1 F2700 X-96.762 Y89.347 E617.59123
G1 X-96.494 Y89.615 E617.62432
G1 X-96.445 Y89.801 E617.64112
G1 X-95.697 Y91.402 E617.7954
G1 X-96.452 Y90.647 E617.88862
G1 X-96.348 Y91.039 E617.92403
G1 X-95.73 Y92.359 E618.05128
G1 X-92.36 Y95.73 E618.46744
G1 X-92.431 Y95.697 E618.47428
G1 X-93.722 Y94.794 E618.61183
