;FLAVOR:RepRap
;TIME:14173
;Filament used: 27.8093m, 3.55185m
;Layer height: 0.2
;MINX:-254.042
;MINY:-254.042
;MINZ:0.3
;MAXX:254.042
;MAXY:254.042
;MAXZ:3.8
;Generated with Cura_SteamEngine 4.5.0-beta
T0
M190 S65
M104 S220
M104 T1 S220
M109 S220
M109 T1 S220
M82 ;absolute extrusion mode
M203 Z10000
G28
G1 Y-250 Z20 F10000
G1 Z0.2
G92 E0
G1 X10. F3000
G1 Z50 F12000
G92 E0
G91
G1 Z1 F8000
G90
G1 X0 Y-240 F10000
T0 P0
G92 E0
G1 E145 F4000
G92 E0
G1 E15 F1000
G92 E0
M18 E1
G92 E0
G1 F3000 E-9
;LAYER_COUNT:11
;LAYER:0
M107
G1 F2700 Z1.8
G0 F9000 X253.331 Y-.808 Z1.8
;TYPE:SKIRT
G1 F2700 Z0.3
G1 F3000 E0.8315
G1 F1500 X253.342 Y0.115 E0.91209
G1 X253.335 Y0.648 E0.95863
G1 X253.042 Y12.214 E1.96876
G1 X253.003 Y13.179 E2.05308
G1 X252.104 Y25.104 E3.09718
G1 X252.022 Y26.017 E3.17721
G1 X251.964 Y26.529 E3.2222
G1 X250.529 Y37.818 E4.21575
G1 X250.405 Y38.698 E4.29334
G1 X248.338 Y50.31 E5.3231
G1 X248.172 Y51.169 E5.39948
G1 X248.065 Y51.659 E5.44327
G1 X245.552 Y62.548 E6.41895
G1 X245.332 Y63.445 E6.49959
G1 X242.164 Y74.621 E7.51379
G1 X241.915 Y75.452 E7.58953
G1 X238.238 Y86.337 E8.59263
G1 X237.909 Y87.268 E8.67884
G1 X233.724 Y97.895 E9.67602
G1 X233.374 Y98.749 E9.7566
G1 X228.679 Y109.15 E10.75292
G1 X228.295 Y109.967 E10.83173
G1 X223.132 Y120.059 E11.82145
G1 X222.676 Y120.92 E11.90652
G1 X217.066 Y130.686 E12.88983
G1 X216.421 Y131.76 E12.99921
G1 X210.508 Y140.987 E13.95603
G1 X209.971 Y141.802 E14.04124
G1 X203.489 Y150.921 E15.01804
G1 X202.901 Y151.724 E15.10494
G1 X195.959 Y160.567 E16.08648
G1 X195.391 Y161.268 E16.16525
G1 X188.038 Y169.765 E17.14631
G1 X187.404 Y170.477 E17.22955
G1 X179.669 Y178.596 E18.2086
G1 X179.006 Y179.272 E18.29127
G1 X170.908 Y187 E19.26857
G1 X170.208 Y187.649 E19.35191
G1 X161.747 Y194.983 E20.32951
G1 X161.019 Y195.597 E20.41266
G1 X152.209 Y202.528 E21.39134
G1 X151.412 Y203.136 E21.47886
G1 X142.301 Y209.621 E22.45525
G1 X141.504 Y210.17 E22.53975
G1 X132.06 Y216.23 E23.51943
G1 X131.209 Y216.759 E23.60692
G1 X121.418 Y222.394 E24.59321
G1 X120.592 Y222.854 E24.67576
G1 X110.542 Y228.006 E25.66178
G1 X109.678 Y228.434 E25.74596
G1 X99.354 Y233.107 E26.73536
G1 X98.452 Y233.499 E26.82123
G1 X87.843 Y237.688 E27.81707
G1 X86.961 Y238.022 E27.89941
G1 X76.143 Y241.686 E28.89661
G1 X75.175 Y242 E28.98546
G1 X64.052 Y245.166 E29.99516
G1 X63.196 Y245.396 E30.07255
G1 X62.691 Y245.519 E30.11793
G1 X51.845 Y248.023 E31.08978
G1 X50.92 Y248.223 E31.1724
G1 X39.347 Y250.296 E32.1989
G1 X38.462 Y250.44 E32.27718
G1 X37.93 Y250.515 E32.32409
G1 X26.704 Y251.941 E33.31208
G1 X25.783 Y252.046 E33.39301
G1 X25.259 Y252.092 E33.43894
G1 X13.86 Y252.958 E34.43703
G1 X12.891 Y253.019 E34.5218
G1 X0.808 Y253.331 E35.57709
G1 X-.115 Y253.342 E35.65768
G1 X-.648 Y253.335 E35.70422
G1 X-12.214 Y253.042 E36.71435
G1 X-13.179 Y253.003 E36.79867
G1 X-25.104 Y252.104 E37.84277
G1 X-26.017 Y252.022 E37.9228
G1 X-26.529 Y251.964 E37.96779
G1 X-37.818 Y250.529 E38.96134
G1 X-38.698 Y250.405 E39.03893
G1 X-50.31 Y248.338 E40.06868
G1 X-51.169 Y248.172 E40.14507
G1 X-51.659 Y248.065 E40.18886
G1 X-62.548 Y245.552 E41.16454
G1 X-63.445 Y245.332 E41.24518
G1 X-74.621 Y242.164 E42.25937
G1 X-75.452 Y241.915 E42.33511
G1 X-86.337 Y238.238 E43.33822
G1 X-87.268 Y237.909 E43.42443
G1 X-97.895 Y233.724 E44.4216
G1 X-98.749 Y233.374 E44.50218
G1 X-109.15 Y228.679 E45.4985
G1 X-109.967 Y228.295 E45.57732
G1 X-120.059 Y223.132 E46.56704
G1 X-120.92 Y222.676 E46.6521
G1 X-130.687 Y217.065 E47.63554
G1 X-131.759 Y216.422 E47.74468
G1 X-140.987 Y210.508 E48.70161
G1 X-141.802 Y209.971 E48.78683
G1 X-150.921 Y203.489 E49.76363
G1 X-151.724 Y202.901 E49.85053
G1 X-160.567 Y195.959 E50.83207
G1 X-161.268 Y195.391 E50.91084
G1 X-169.766 Y188.037 E51.89202
G1 X-170.477 Y187.404 E51.97514
G1 X-178.596 Y179.669 E52.95419
G1 X-179.273 Y179.005 E53.03698
G1 X-187 Y170.908 E54.01416
G1 X-187.649 Y170.208 E54.0975
G1 X-194.983 Y161.747 E55.0751
G1 X-195.597 Y161.019 E55.15824
G1 X-202.529 Y152.208 E56.13705
G1 X-203.136 Y151.412 E56.22445
G1 X-209.621 Y142.301 E57.20084
G1 X-210.17 Y141.504 E57.28533
G1 X-216.23 Y132.06 E58.26502
G1 X-216.759 Y131.209 E58.35251
G1 X-222.394 Y121.418 E59.3388
G1 X-222.854 Y120.592 E59.42135
G1 X-228.006 Y110.542 E60.40737
G1 X-228.434 Y109.678 E60.49155
G1 X-233.107 Y99.354 E61.48095
G1 X-233.499 Y98.452 E61.56682
G1 X-237.688 Y87.843 E62.56266
G1 X-238.022 Y86.961 E62.645
G1 X-241.686 Y76.143 E63.6422
G1 X-242 Y75.175 E63.73105
G1 X-245.166 Y64.052 E64.74075
G1 X-245.396 Y63.196 E64.81813
G1 X-245.519 Y62.691 E64.86351
G1 X-248.023 Y51.845 E65.83536
G1 X-248.223 Y50.92 E65.91799
G1 X-250.296 Y39.347 E66.94448
G1 X-250.44 Y38.462 E67.02277
G1 X-250.515 Y37.93 E67.06968
G1 X-251.941 Y26.704 E68.05767
G1 X-252.046 Y25.783 E68.1386
G1 X-252.092 Y25.259 E68.18453
G1 X-252.958 Y13.86 E69.18262
G1 X-253.019 Y12.891 E69.26738
G1 X-253.331 Y0.808 E70.32268
G1 X-253.342 Y-.115 E70.40327
G1 X-253.335 Y-.648 E70.44981
G1 X-253.042 Y-12.214 E71.45993
G1 X-253.003 Y-13.179 E71.54425
G1 X-252.104 Y-25.104 E72.58836
G1 X-252.022 Y-26.017 E72.66839
G1 X-251.964 Y-26.529 E72.71338
G1 X-250.529 Y-37.818 E73.70692
G1 X-250.405 Y-38.698 E73.78451
G1 X-248.338 Y-50.31 E74.81427
G1 X-248.172 Y-51.169 E74.89066
G1 X-248.065 Y-51.659 E74.93444
G1 X-245.552 Y-62.548 E75.91013
G1 X-245.332 Y-63.445 E75.99076
G1 X-242.164 Y-74.621 E77.00496
G1 X-241.915 Y-75.452 E77.0807
G1 X-238.238 Y-86.337 E78.08381
G1 X-237.909 Y-87.268 E78.17002
G1 X-233.724 Y-97.895 E79.16719
G1 X-233.374 Y-98.749 E79.24777
G1 X-228.679 Y-109.15 E80.24409
G1 X-228.295 Y-109.967 E80.32291
G1 X-223.132 Y-120.059 E81.31263
G1 X-222.676 Y-120.92 E81.39769
G1 X-217.066 Y-130.686 E82.38101
G1 X-216.421 Y-131.76 E82.49039
G1 X-210.508 Y-140.987 E83.4472
G1 X-209.971 Y-141.802 E83.53241
G1 X-203.489 Y-150.921 E84.50922
G1 X-202.901 Y-151.724 E84.59611
G1 X-195.959 Y-160.567 E85.57766
G1 X-195.391 Y-161.268 E85.65643
G1 X-188.038 Y-169.765 E86.63749
G1 X-187.404 Y-170.477 E86.72072
G1 X-179.669 Y-178.596 E87.69977
G1 X-179.006 Y-179.272 E87.78244
G1 X-170.908 Y-187 E88.75974
G1 X-170.208 Y-187.649 E88.84308
G1 X-161.747 Y-194.983 E89.82068
G1 X-161.019 Y-195.597 E89.90383
G1 X-152.209 Y-202.528 E90.88252
G1 X-151.412 Y-203.136 E90.97004
G1 X-142.301 Y-209.621 E91.94642
G1 X-141.504 Y-210.17 E92.03092
G1 X-132.06 Y-216.23 E93.01061
G1 X-131.209 Y-216.759 E93.09809
G1 X-121.418 Y-222.394 E94.08439
G1 X-120.592 Y-222.854 E94.16693
G1 X-110.542 Y-228.006 E95.15295
G1 X-109.678 Y-228.434 E95.23714
G1 X-99.354 Y-233.107 E96.22654
G1 X-98.452 Y-233.499 E96.31241
G1 X-87.843 Y-237.688 E97.30825
G1 X-86.961 Y-238.022 E97.39059
G1 X-76.143 Y-241.686 E98.38779
G1 X-75.175 Y-242 E98.47664
G1 X-64.052 Y-245.166 E99.48633
G1 X-63.196 Y-245.396 E99.56372
G1 X-62.691 Y-245.519 E99.6091
G1 X-51.845 Y-248.023 E100.58095
G1 X-50.92 Y-248.223 E100.66358
G1 X-39.347 Y-250.296 E101.69007
G1 X-38.462 Y-250.44 E101.76835
G1 X-37.93 Y-250.515 E101.81526
G1 X-26.704 Y-251.941 E102.80326
G1 X-25.783 Y-252.046 E102.88419
G1 X-25.259 Y-252.092 E102.93011
G1 X-13.86 Y-252.958 E103.9282
G1 X-12.891 Y-253.019 E104.01297
G1 X-.808 Y-253.331 E105.06826
G1 X0.115 Y-253.342 E105.14885
G1 X12.214 Y-253.042 E106.20552
G1 X13.179 Y-253.003 E106.28984
G1 X25.104 Y-252.104 E107.33394
G1 X26.017 Y-252.022 E107.41397
G1 X26.529 Y-251.964 E107.45896
G1 X37.818 Y-250.529 E108.45251
G1 X38.698 Y-250.405 E108.5301
G1 X50.31 Y-248.338 E109.55985
G1 X51.169 Y-248.172 E109.63624
G1 X51.659 Y-248.065 E109.68003
G1 X62.548 Y-245.552 E110.65571
G1 X63.445 Y-245.332 E110.73635
G1 X74.62 Y-242.164 E111.75046
G1 X75.452 Y-241.915 E111.82628
G1 X86.337 Y-238.238 E112.82939
G1 X87.268 Y-237.909 E112.9156
G1 X97.895 Y-233.724 E113.91277
G1 X98.749 Y-233.374 E113.99335
G1 X109.15 Y-228.679 E114.98967
G1 X109.967 Y-228.295 E115.06849
G1 X120.059 Y-223.132 E116.05821
G1 X120.92 Y-222.676 E116.14327
G1 X130.687 Y-217.065 E117.12671
G1 X131.759 Y-216.422 E117.23585
G1 X140.987 Y-210.508 E118.19278
G1 X141.802 Y-209.971 E118.278
G1 X150.921 Y-203.489 E119.2548
G1 X151.724 Y-202.901 E119.3417
G1 X160.567 Y-195.959 E120.32324
G1 X161.268 Y-195.391 E120.40201
G1 X169.765 Y-188.038 E121.38307
G1 X170.477 Y-187.404 E121.46631
G1 X178.596 Y-179.669 E122.44536
G1 X179.272 Y-179.006 E122.52803
G1 X187 Y-170.908 E123.50533
G1 X187.649 Y-170.208 E123.58867
G1 X194.983 Y-161.747 E124.56627
G1 X195.597 Y-161.019 E124.64941
G1 X202.528 Y-152.209 E125.6281
G1 X203.136 Y-151.412 E125.71562
G1 X209.621 Y-142.301 E126.69201
G1 X210.17 Y-141.504 E126.7765
G1 X216.23 Y-132.06 E127.75619
G1 X216.759 Y-131.209 E127.84368
G1 X222.394 Y-121.418 E128.82997
G1 X222.854 Y-120.592 E128.91252
G1 X228.006 Y-110.542 E129.89854
G1 X228.434 Y-109.678 E129.98272
G1 X233.106 Y-99.355 E130.97201
G1 X233.5 Y-98.45 E131.05818
G1 X237.688 Y-87.843 E132.05383
G1 X238.022 Y-86.961 E132.13617
G1 X241.686 Y-76.143 E133.13337
G1 X242 Y-75.175 E133.22222
G1 X245.166 Y-64.052 E134.23192
G1 X245.396 Y-63.196 E134.3093
G1 X245.519 Y-62.691 E134.35468
G1 X248.023 Y-51.845 E135.32653
G1 X248.223 Y-50.92 E135.40916
G1 X250.296 Y-39.348 E136.43557
G1 X250.441 Y-38.461 E136.51404
G1 X250.515 Y-37.93 E136.56085
G1 X251.941 Y-26.704 E137.54884
G1 X252.046 Y-25.785 E137.6296
G1 X252.092 Y-25.259 E137.6757
G1 X252.958 Y-13.86 E138.67379
G1 X253.019 Y-12.891 E138.75856
G1 X253.331 Y-.808 E139.81385
G1 F3000 E130.81385
G1 F2700 Z1.8
;MESH:Object 3
G0 F9000 X248.25 Y-0.009 Z1.8
;TYPE:WALL-INNER
G1 F2700 Z0.3
G1 F3000 E140.64535
G1 F1500 X247.924 Y12.787 E141.76291
G1 X246.967 Y25.406 E142.86781
G1 X245.393 Y37.786 E143.95738
G1 X243.208 Y50.029 E145.04318
G1 X240.435 Y62.044 E146.11976
G1 X237.094 Y73.806 E147.1873
G1 X233.186 Y85.356 E148.25186
G1 X228.742 Y96.628 E149.30972
G1 X223.774 Y107.618 E150.36272
G1 X218.288 Y118.326 E151.41316
G1 X212.307 Y128.729 E152.46084
G1 X205.847 Y138.807 E153.50597
G1 X198.935 Y148.528 E154.54737
G1 X191.559 Y157.911 E155.5894
G1 X183.779 Y166.894 E156.62694
G1 X175.538 Y175.538 E157.66965
G1 X166.907 Y183.767 E158.71081
G1 X157.911 Y191.559 E159.7499
G1 X148.531 Y198.933 E160.79161
G1 X138.807 Y205.847 E161.83332
G1 X128.729 Y212.307 E162.87845
G1 X118.326 Y218.289 E163.92617
G1 X107.618 Y223.774 E164.97658
G1 X96.628 Y228.742 E166.02958
G1 X85.356 Y233.186 E167.08743
G1 X73.814 Y237.091 E168.15125
G1 X62.045 Y240.435 E169.21945
G1 X50.044 Y243.205 E170.29478
G1 X37.786 Y245.393 E171.38192
G1 X25.406 Y246.967 E172.47149
G1 X12.787 Y247.924 E173.57639
G1 X0.00 Y248.25 E174.69316
G1 X-12.787 Y247.924 E175.80993
G1 X-25.406 Y246.967 E176.91483
G1 X-37.786 Y245.393 E178.0044
G1 X-50.044 Y243.205 E179.09153
G1 X-62.045 Y240.435 E180.16686
G1 X-73.814 Y237.091 E181.23506
G1 X-85.356 Y233.186 E182.29888
G1 X-96.628 Y228.742 E183.35674
G1 X-107.618 Y223.774 E184.40974
G1 X-118.326 Y218.288 E185.46018
G1 X-128.729 Y212.307 E186.50786
G1 X-138.807 Y205.847 E187.55299
G1 X-148.531 Y198.933 E188.5947
G1 X-157.911 Y191.559 E189.63642
G1 X-166.907 Y183.767 E190.6755
G1 X-175.538 Y175.538 E191.71667
G1 X-183.779 Y166.894 E192.75937
G1 X-191.559 Y157.911 E193.79692
G1 X-198.935 Y148.528 E194.83894
G1 X-205.847 Y138.807 E195.88034
G1 X-212.307 Y128.729 E196.92547
G1 X-218.289 Y118.326 E197.97319
G1 X-223.774 Y107.618 E199.0236
G1 X-228.742 Y96.628 E200.07659
G1 X-233.186 Y85.356 E201.13445
G1 X-237.094 Y73.806 E202.19902
G1 X-240.435 Y62.044 E203.26656
G1 X-243.208 Y50.029 E204.34314
G1 X-245.393 Y37.786 E205.42893
G1 X-246.967 Y25.406 E206.51851
G1 X-247.924 Y12.787 E207.62341
G1 X-248.25 Y0.009 E208.73939
G1 X-247.924 Y-12.793 E209.85747
G1 X-246.965 Y-25.43 E210.96395
G1 X-245.393 Y-37.786 E212.05142
G1 X-243.205 Y-50.044 E213.13856
G1 X-240.435 Y-62.044 E214.2138
G1 X-237.093 Y-73.81 E215.2817
G1 X-233.184 Y-85.362 E216.34646
G1 X-228.74 Y-96.632 E217.40415
G1 X-223.774 Y-107.618 E218.45676
G1 X-218.288 Y-118.326 E219.50721
G1 X-212.307 Y-128.729 E220.55488
G1 X-205.847 Y-138.807 E221.60002
G1 X-198.933 Y-148.531 E222.64173
G1 X-191.559 Y-157.911 E223.68344
G1 X-183.775 Y-166.899 E224.72154
G1 X-175.538 Y-175.538 E225.76369
G1 X-166.899 Y-183.775 E226.80584
G1 X-157.911 Y-191.559 E227.84394
G1 X-148.531 Y-198.933 E228.88566
G1 X-138.807 Y-205.847 E229.92737
G1 X-128.729 Y-212.307 E230.9725
G1 X-118.326 Y-218.289 E232.02022
G1 X-107.618 Y-223.774 E233.07063
G1 X-96.628 Y-228.742 E234.12362
G1 X-85.356 Y-233.186 E235.18148
G1 X-73.814 Y-237.091 E236.2453
G1 X-62.044 Y-240.435 E237.31358
G1 X-50.044 Y-243.205 E238.38883
G1 X-37.786 Y-245.393 E239.47596
G1 X-25.406 Y-246.967 E240.56553
G1 X-12.787 Y-247.924 E241.67044
G1 X0.00 Y-248.25 E242.7872
G1 X12.787 Y-247.924 E243.90397
G1 X25.406 Y-246.967 E245.00887
G1 X37.786 Y-245.393 E246.09845
G1 X50.044 Y-243.205 E247.18558
G1 X62.044 Y-240.435 E248.26083
G1 X73.814 Y-237.091 E249.32911
G1 X85.356 Y-233.186 E250.39293
G1 X96.628 Y-228.742 E251.45079
G1 X107.618 Y-223.774 E252.50378
G1 X118.326 Y-218.288 E253.55423
G1 X128.729 Y-212.307 E254.6019
G1 X138.807 Y-205.847 E255.64704
G1 X148.531 Y-198.933 E256.68875
G1 X157.911 Y-191.559 E257.73046
G1 X166.899 Y-183.775 E258.76856
G1 X175.538 Y-175.538 E259.81071
G1 X183.775 Y-166.899 E260.85286
G1 X191.559 Y-157.911 E261.89096
G1 X198.933 Y-148.531 E262.93268
G1 X205.847 Y-138.807 E263.97439
G1 X212.307 Y-128.729 E265.01952
G1 X218.289 Y-118.326 E266.06724
G1 X223.774 Y-107.618 E267.11765
G1 X228.74 Y-96.632 E268.17025
G1 X233.184 Y-85.362 E269.22795
G1 X237.086 Y-73.831 E270.29077
G1 X240.435 Y-62.044 E271.3606
G1 X243.205 Y-50.044 E272.43585
G1 X245.393 Y-37.786 E273.52298
G1 X246.965 Y-25.43 E274.61046
G1 X247.924 Y-12.793 E275.71694
G1 X248.25 Y-0.009 E276.83344
G0 F9000 X235.459 Y-13.222
G1 F1500 X234.458 Y-25.103 E277.87442
G1 X233.2 Y-35 E278.74546
G1 X231.536 Y-44.766 E279.6104
G1 X229.475 Y-54.39 E280.4697
G1 X227.027 Y-63.865 E281.32411
G1 X224.203 Y-73.183 E282.17418
G1 X221.006 Y-82.33 E283.02016
G1 X217.449 Y-91.306 E283.86313
G1 X213.541 Y-100.095 E284.70291
G1 X209.289 Y-108.69 E285.54013
G1 X204.7 Y-117.082 E286.37521
G1 X199.786 Y-125.268 E287.20879
G1 X194.555 Y-133.228 E288.0404
G1 X189.016 Y-140.963 E288.87102
G1 X183.178 Y-148.461 E289.70068
G1 X175.84 Y-157.139 E290.6929
G1 X104.901 Y-86.197 E299.45206
G1 X73.034 Y-54.335 E303.38644
G1 X44.264 Y-25.321 E306.95382
G1 X47.024 Y-19.545 E307.51273
G1 X49.198 Y-13.52 E308.07195
G1 X90.049 Y-13.222 E311.63866
G1 X235.459 Y-13.222 E324.33409
G0 F9000 X215.247 Y13.222
G1 F1500 X90.042 Y13.222 E335.26547
G1 X49.395 Y13.27 E338.81428
G1 X47.199 Y19.583 E339.39785
G1 X44.387 Y25.563 E339.97479
G1 X73.002 Y54.301 E343.51554
G1 X85.974 Y67.265 E345.11673
G1 X144.292 Y125.589 E352.31774
G1 X161.553 Y142.851 E354.44905
G1 X168.223 Y134.865 E355.35749
G1 X173.433 Y128.108 E356.10243
G1 X178.375 Y121.143 E356.84806
G1 X183.047 Y113.975 E357.59508
G1 X187.436 Y106.615 E358.34324
G1 X191.541 Y99.071 E359.09309
G1 X195.349 Y91.348 E359.84488
G1 X198.855 Y83.454 E360.59901
G1 X202.048 Y75.398 E361.35559
G1 X204.923 Y67.187 E362.11515
G1 X207.475 Y58.829 E362.87813
G1 X209.692 Y50.331 E363.6449
G1 X211.568 Y41.701 E364.41596
G1 X213.096 Y32.945 E365.19198
G1 X214.268 Y24.073 E365.97331
G1 X215.247 Y13.222 E366.92453
G0 F9000 X212.443 Y32.845
G0 X210.92 Y41.573
G0 X209.049 Y50.177
G0 X206.839 Y58.648
G0 X204.296 Y66.981
G0 X201.429 Y75.166
G0 X198.245 Y83.198
G0 X194.751 Y91.067
G0 X190.954 Y98.767
G0 X186.862 Y106.287
G0 X182.486 Y113.625
G0 X177.829 Y120.771
G0 X172.902 Y127.715
G0 X167.708 Y134.452
G0 X161.507 Y141.854
G0 X142.85 Y161.551
G1 F1500 X83.178 Y101.875 E374.2926
G1 X54.289 Y72.99 E377.85933
G1 X25.514 Y44.572 E381.39027
G1 X19.655 Y47.392 E381.95797
G1 X13.52 Y49.589 E382.52692
G1 X13.222 Y90.789 E386.12409
G1 X13.222 Y215.247 E396.99026
G1 X24.073 Y214.268 E397.94148
G1 X32.945 Y213.096 E398.72281
G1 X41.701 Y211.568 E399.49883
G1 X50.331 Y209.692 E400.26989
G1 X58.829 Y207.475 E401.03666
G1 X67.187 Y204.923 E401.79964
G1 X75.398 Y202.048 E402.5592
G1 X83.454 Y198.855 E403.31578
G1 X91.348 Y195.349 E404.06991
G1 X99.071 Y191.541 E404.8217
G1 X106.615 Y187.436 E405.57155
