;FLAVOR:RepRap
;TIME:11372
;Filament used: 41.4508m, 4.34259m
;Layer height: 0.35
;MINX:-254.492
;MINY:-254.492
;MINZ:0.35
;MAXX:254.492
;MAXY:254.492
;MAXZ:4.65
;Generated with Cura_SteamEngine 4.5.0-beta
T0
M190 S65
M104 S220
M104 T1 S220
M109 S220
M109 T1 S220
M82 ;absolute extrusion mode
M203 Z10000
G28
G1 Y-250 Z20 F10000
G1 Z0.2
G92 E0
G1 X10. F3000
G1 Z50 F12000
G92 E0
G91
G1 Z1 F8000
G90
G1 X0 Y-240 F10000
T0 P0
G92 E0
G1 E145 F4000
G92 E0
G1 E15 F1000
G92 E0
M18 E1
G92 E0
G1 F3000 E-9
;LAYER_COUNT:9
;LAYER:0
M107
G1 F2700 Z1.85
G0 F9000 X253.481 Y-.812 Z1.85
;TYPE:SKIRT
G1 F2700 Z0.35
G1 F3000 E0.8315
G1 F1500 X253.492 Y0.113 E0.96611
G1 X253.486 Y0.614 E1.03902
G1 X253.192 Y12.218 E2.7281
G1 X253.153 Y13.185 E2.86892
G1 X252.254 Y25.116 E4.60996
G1 X252.172 Y26.03 E4.74349
G1 X252.113 Y26.548 E4.81936
G1 X250.678 Y37.837 E6.47527
G1 X250.553 Y38.719 E6.6049
G1 X248.486 Y50.336 E8.32187
G1 X248.319 Y51.197 E8.44949
G1 X248.211 Y51.693 E8.52336
G1 X245.698 Y62.582 E10.1495
G1 X245.478 Y63.481 E10.28418
G1 X242.308 Y74.662 E11.97528
G1 X242.058 Y75.495 E12.10184
G1 X241.903 Y75.972 E12.17482
G1 X238.38 Y86.385 E13.77442
G1 X238.05 Y87.318 E13.91842
G1 X233.864 Y97.95 E15.58111
G1 X233.513 Y98.806 E15.71574
G1 X228.815 Y109.212 E17.37711
G1 X228.43 Y110.031 E17.5088
G1 X223.265 Y120.128 E19.15911
G1 X222.809 Y120.99 E19.30102
G1 X217.196 Y130.76 E20.9406
G1 X216.55 Y131.837 E21.12335
G1 X210.635 Y141.068 E22.71868
G1 X210.096 Y141.884 E22.86098
G1 X203.611 Y151.008 E24.48984
G1 X203.022 Y151.813 E24.63498
G1 X196.077 Y160.66 E26.27162
G1 X195.508 Y161.363 E26.40322
G1 X188.151 Y169.864 E28.03914
G1 X187.516 Y170.577 E28.17808
G1 X179.778 Y178.699 E29.81044
G1 X179.113 Y179.377 E29.94863
G1 X171.011 Y187.109 E31.57829
G1 X170.31 Y187.759 E31.7174
G1 X161.845 Y195.097 E33.34755
G1 X161.116 Y195.712 E33.48634
G1 X152.302 Y202.646 E35.11821
G1 X151.503 Y203.255 E35.26439
G1 X142.388 Y209.743 E36.89243
G1 X141.589 Y210.293 E37.03358
G1 X132.141 Y216.357 E38.6672
G1 X131.288 Y216.887 E38.81333
G1 X121.492 Y222.524 E40.45793
G1 X120.665 Y222.985 E40.59571
G1 X110.61 Y228.14 E42.23992
G1 X109.744 Y228.568 E42.38048
G1 X99.416 Y233.243 E44.03014
G1 X98.511 Y233.637 E44.17377
G1 X87.898 Y237.828 E45.83415
G1 X87.014 Y238.163 E45.97171
G1 X76.192 Y241.828 E47.63431
G1 X75.222 Y242.142 E47.78267
G1 X64.093 Y245.31 E49.46641
G1 X63.235 Y245.541 E49.59571
G1 X62.724 Y245.665 E49.67223
G1 X51.878 Y248.169 E51.29198
G1 X50.951 Y248.369 E51.42997
G1 X39.373 Y250.443 E53.14154
G1 X38.486 Y250.588 E53.27232
G1 X37.949 Y250.664 E53.35124
G1 X26.723 Y252.09 E54.9979
G1 X25.8 Y252.196 E55.13309
G1 X25.27 Y252.242 E55.2105
G1 X13.871 Y253.108 E56.87398
G1 X12.9 Y253.168 E57.01555
G1 X0.812 Y253.481 E58.7751
G1 X-.113 Y253.492 E58.90971
G1 X-.614 Y253.486 E58.98261
G1 X-12.218 Y253.192 E60.67169
G1 X-13.185 Y253.153 E60.81252
G1 X-25.116 Y252.254 E62.55355
G1 X-26.03 Y252.172 E62.68709
G1 X-26.548 Y252.113 E62.76295
G1 X-37.837 Y250.678 E64.41887
G1 X-38.719 Y250.553 E64.54849
G1 X-50.336 Y248.486 E66.26547
G1 X-51.197 Y248.319 E66.39309
G1 X-51.693 Y248.211 E66.46695
G1 X-62.582 Y245.698 E68.09309
G1 X-63.481 Y245.478 E68.22777
G1 X-74.662 Y242.308 E69.91888
G1 X-75.495 Y242.058 E70.04543
G1 X-75.972 Y241.903 E70.11841
G1 X-86.385 Y238.38 E71.71801
G1 X-87.318 Y238.05 E71.86202
G1 X-97.95 Y233.864 E73.52471
G1 X-98.806 Y233.513 E73.65933
G1 X-109.212 Y228.815 E75.3207
G1 X-110.031 Y228.43 E75.45239
G1 X-120.128 Y223.265 E77.10271
G1 X-120.99 Y222.809 E77.24461
G1 X-130.762 Y217.195 E78.88452
G1 X-131.836 Y216.55 E79.06682
G1 X-141.068 Y210.635 E80.66227
G1 X-141.884 Y210.096 E80.80458
G1 X-151.008 Y203.611 E82.43343
G1 X-151.813 Y203.022 E82.57858
G1 X-160.66 Y196.077 E84.21521
G1 X-161.363 Y195.508 E84.34681
G1 X-169.865 Y188.15 E85.98294
G1 X-170.576 Y187.516 E86.12156
G1 X-178.699 Y179.778 E87.75403
G1 X-179.378 Y179.112 E87.89243
G1 X-187.109 Y171.011 E89.52188
G1 X-187.759 Y170.31 E89.66099
G1 X-195.097 Y161.845 E91.29114
G1 X-195.712 Y161.116 E91.42993
G1 X-202.647 Y152.301 E93.062
G1 X-203.256 Y151.503 E93.20807
G1 X-209.743 Y142.388 E94.83603
G1 X-210.294 Y141.589 E94.97726
G1 X-216.357 Y132.141 E96.6108
G1 X-216.887 Y131.288 E96.75693
G1 X-222.524 Y121.492 E98.40153
G1 X-222.985 Y120.665 E98.5393
G1 X-228.14 Y110.61 E100.18352
G1 X-228.568 Y109.744 E100.32408
G1 X-233.243 Y99.416 E101.97374
G1 X-233.637 Y98.511 E102.11736
G1 X-237.828 Y87.898 E103.77775
G1 X-238.163 Y87.014 E103.91531
G1 X-241.828 Y76.192 E105.5779
G1 X-242.142 Y75.222 E105.72626
G1 X-245.31 Y64.093 E107.41001
G1 X-245.541 Y63.235 E107.53931
G1 X-245.665 Y62.724 E107.61582
G1 X-248.169 Y51.878 E109.23557
G1 X-248.369 Y50.951 E109.37357
G1 X-250.443 Y39.373 E111.08513
G1 X-250.588 Y38.486 E111.21592
G1 X-250.664 Y37.949 E111.29484
G1 X-252.09 Y26.723 E112.94149
G1 X-252.196 Y25.8 E113.07668
G1 X-252.242 Y25.27 E113.1541
G1 X-253.108 Y13.871 E114.81758
G1 X-253.168 Y12.9 E114.95914
G1 X-253.481 Y0.812 E116.71869
G1 X-253.492 Y-.113 E116.8533
G1 X-253.486 Y-.614 E116.92621
G1 X-253.192 Y-12.218 E118.61529
G1 X-253.153 Y-13.185 E118.75611
G1 X-252.254 Y-25.116 E120.49715
G1 X-252.172 Y-26.03 E120.63068
G1 X-252.113 Y-26.548 E120.70655
G1 X-250.678 Y-37.837 E122.36246
G1 X-250.553 Y-38.719 E122.49209
G1 X-248.486 Y-50.336 E124.20906
G1 X-248.319 Y-51.197 E124.33668
G1 X-248.211 Y-51.693 E124.41055
G1 X-245.698 Y-62.582 E126.03669
G1 X-245.478 Y-63.481 E126.17137
G1 X-242.308 Y-74.662 E127.86247
G1 X-242.058 Y-75.495 E127.98903
G1 X-241.903 Y-75.972 E128.06201
G1 X-238.38 Y-86.385 E129.66161
G1 X-238.05 Y-87.318 E129.80562
G1 X-233.864 Y-97.95 E131.4683
G1 X-233.513 Y-98.806 E131.60293
G1 X-228.815 Y-109.212 E133.2643
G1 X-228.43 Y-110.031 E133.39599
G1 X-223.265 Y-120.128 E135.04631
G1 X-222.809 Y-120.99 E135.18821
G1 X-217.196 Y-130.76 E136.82779
G1 X-216.55 Y-131.837 E137.01054
G1 X-210.635 Y-141.068 E138.60587
G1 X-210.096 Y-141.884 E138.74818
G1 X-203.611 Y-151.008 E140.37703
G1 X-203.022 Y-151.813 E140.52217
G1 X-196.077 Y-160.66 E142.15881
G1 X-195.508 Y-161.363 E142.29041
G1 X-188.151 Y-169.864 E143.92633
G1 X-187.516 Y-170.577 E144.06527
G1 X-179.778 Y-178.699 E145.69763
G1 X-179.113 Y-179.377 E145.83583
G1 X-171.011 Y-187.109 E147.46548
G1 X-170.31 Y-187.759 E147.60459
G1 X-161.845 Y-195.097 E149.23474
G1 X-161.116 Y-195.712 E149.37353
G1 X-152.302 Y-202.646 E151.0054
G1 X-151.503 Y-203.255 E151.15158
G1 X-142.388 Y-209.743 E152.77962
G1 X-141.589 Y-210.293 E152.92077
G1 X-132.141 Y-216.357 E154.55439
G1 X-131.288 Y-216.887 E154.70052
G1 X-121.492 Y-222.524 E156.34512
G1 X-120.665 Y-222.985 E156.4829
G1 X-110.61 Y-228.14 E158.12711
G1 X-109.744 Y-228.568 E158.26768
G1 X-99.416 Y-233.243 E159.91733
G1 X-98.511 Y-233.637 E160.06096
G1 X-87.898 Y-237.828 E161.72134
G1 X-87.014 Y-238.163 E161.8589
G1 X-76.192 Y-241.828 E163.5215
G1 X-75.222 Y-242.142 E163.66986
G1 X-64.093 Y-245.31 E165.35361
G1 X-63.235 Y-245.541 E165.4829
G1 X-62.724 Y-245.665 E165.55942
G1 X-51.878 Y-248.169 E167.17917
G1 X-50.951 Y-248.369 E167.31716
G1 X-39.373 Y-250.443 E169.02873
G1 X-38.486 Y-250.588 E169.15951
G1 X-37.949 Y-250.664 E169.23843
G1 X-26.723 Y-252.09 E170.88509
G1 X-25.8 Y-252.196 E171.02028
G1 X-25.27 Y-252.242 E171.09769
G1 X-13.871 Y-253.108 E172.76117
G1 X-12.9 Y-253.168 E172.90274
G1 X-.812 Y-253.481 E174.66229
G1 X0.113 Y-253.492 E174.7969
G1 X0.615 Y-253.486 E174.86995
G1 X12.218 Y-253.192 E176.55888
G1 X13.185 Y-253.153 E176.69971
G1 X25.116 Y-252.254 E178.44074
G1 X26.03 Y-252.172 E178.57428
G1 X26.548 Y-252.113 E178.65014
G1 X37.837 Y-250.678 E180.30606
G1 X38.719 Y-250.553 E180.43568
G1 X50.336 Y-248.486 E182.15266
G1 X51.197 Y-248.319 E182.28028
G1 X51.693 Y-248.211 E182.35414
G1 X62.582 Y-245.698 E183.98028
G1 X63.481 Y-245.478 E184.11496
G1 X74.661 Y-242.308 E185.80593
G1 X75.495 Y-242.058 E185.93262
G1 X75.972 Y-241.903 E186.0056
G1 X86.385 Y-238.38 E187.6052
G1 X87.318 Y-238.05 E187.74921
G1 X97.95 Y-233.864 E189.4119
G1 X98.806 Y-233.513 E189.54652
G1 X109.212 Y-228.815 E191.2079
G1 X110.031 Y-228.43 E191.33958
G1 X120.128 Y-223.265 E192.9899
G1 X120.99 Y-222.809 E193.1318
G1 X130.762 Y-217.195 E194.77171
G1 X131.836 Y-216.55 E194.95401
G1 X141.068 Y-210.635 E196.54946
G1 X141.884 Y-210.096 E196.69177
G1 X151.008 Y-203.611 E198.32062
G1 X151.813 Y-203.022 E198.46577
G1 X160.66 Y-196.077 E200.1024
G1 X161.363 Y-195.508 E200.234
G1 X169.864 Y-188.151 E201.86993
G1 X170.577 Y-187.516 E202.00886
G1 X178.699 Y-179.778 E203.64122
G1 X179.377 Y-179.113 E203.77942
G1 X187.109 Y-171.011 E205.40907
G1 X187.759 Y-170.31 E205.54818
G1 X195.097 Y-161.845 E207.17833
G1 X195.712 Y-161.116 E207.31712
G1 X202.646 Y-152.302 E208.94899
G1 X203.255 Y-151.503 E209.09518
G1 X209.743 Y-142.388 E210.72321
G1 X210.293 Y-141.589 E210.86436
G1 X216.357 Y-132.141 E212.49798
G1 X216.887 Y-131.288 E212.64411
G1 X222.524 Y-121.492 E214.28872
G1 X222.985 Y-120.665 E214.42649
G1 X228.14 Y-110.61 E216.0707
G1 X228.568 Y-109.744 E216.21127
G1 X233.243 Y-99.417 E217.86079
G1 X233.637 Y-98.51 E218.00468
G1 X237.828 Y-87.898 E219.66493
G1 X238.163 Y-87.014 E219.80249
G1 X241.828 Y-76.192 E221.46509
G1 X242.142 Y-75.222 E221.61345
G1 X245.31 Y-64.093 E223.2972
G1 X245.541 Y-63.235 E223.42649
G1 X245.665 Y-62.724 E223.50301
G1 X248.169 Y-51.878 E225.12276
G1 X248.369 Y-50.951 E225.26075
G1 X250.443 Y-39.374 E226.97218
G1 X250.589 Y-38.485 E227.10327
G1 X250.664 Y-37.949 E227.18202
G1 X252.09 Y-26.723 E228.82868
G1 X252.195 Y-25.802 E228.96357
G1 X252.239 Y-25.301 E229.03675
G1 X253.108 Y-13.871 E230.70476
G1 X253.168 Y-12.9 E230.84633
G1 X253.481 Y-.812 E232.60588
G1 F3000 E223.60588
G1 F2700 Z1.85
;MESH:Object 3
G0 F9000 X247.498 Y0.00 Z1.85
;TYPE:WALL-INNER
G1 F2700 Z0.35
G1 F3000 E233.43738
G1 F1500 X247.175 Y12.742 E235.29211
G1 X246.221 Y25.317 E237.12719
G1 X244.645 Y37.712 E238.94535
G1 X242.472 Y49.884 E240.74454
G1 X239.715 Y61.829 E242.52839
G1 X236.373 Y73.596 E244.30836
G1 X232.478 Y85.109 E246.07693
G1 X228.056 Y96.324 E247.83113
G1 X223.096 Y107.298 E249.58352
G1 X217.62 Y117.987 E251.33114
G1 X211.685 Y128.31 E253.06384
G1 X205.227 Y138.383 E254.80496
G1 X198.327 Y148.085 E256.53736
G1 X190.993 Y157.419 E258.26469
G1 X183.208 Y166.407 E259.99495
G1 X175.008 Y175.008 E261.72415
G1 X166.412 Y183.204 E263.45242
G1 X157.418 Y190.993 E265.18373
G1 X148.092 Y198.322 E266.90969
G1 X138.386 Y205.225 E268.64281
G1 X128.31 Y211.685 E270.38446
G1 X117.988 Y217.619 E272.11696
G1 X107.298 Y223.096 E273.86477
G1 X96.324 Y228.056 E275.61717
G1 X85.11 Y232.478 E277.37124
G1 X73.605 Y236.37 E279.13856
G1 X61.833 Y239.714 E280.91931
G1 X49.884 Y242.472 E282.70376
G1 X37.712 Y244.645 E284.50295
G1 X25.317 Y246.221 E286.32111
G1 X12.749 Y247.174 E288.15517
G1 X0.00 Y247.498 E290.01091
G1 X-12.749 Y247.174 E291.86666
G1 X-25.317 Y246.221 E293.70072
G1 X-37.712 Y244.645 E295.51887
G1 X-49.884 Y242.472 E297.31806
G1 X-61.833 Y239.714 E299.10251
G1 X-73.605 Y236.37 E300.88326
G1 X-85.11 Y232.478 E302.65059
G1 X-96.324 Y228.056 E304.40466
G1 X-107.298 Y223.096 E306.15705
G1 X-117.988 Y217.619 E307.90487
G1 X-128.31 Y211.685 E309.63736
G1 X-138.386 Y205.225 E311.37901
G1 X-148.092 Y198.322 E313.11213
G1 X-157.418 Y190.993 E314.8381
G1 X-166.412 Y183.204 E316.5694
G1 X-175.008 Y175.008 E318.29767
G1 X-183.208 Y166.407 E320.02688
G1 X-190.993 Y157.419 E321.75714
G1 X-198.327 Y148.085 E323.48447
G1 X-205.227 Y138.383 E325.21686
G1 X-211.685 Y128.31 E326.95798
G1 X-217.62 Y117.987 E328.69068
G1 X-223.096 Y107.298 E330.4383
G1 X-228.056 Y96.324 E332.19069
G1 X-232.478 Y85.109 E333.9449
G1 X-236.373 Y73.596 E335.71347
G1 X-239.715 Y61.829 E337.49344
G1 X-242.472 Y49.884 E339.27729
G1 X-244.645 Y37.712 E341.07648
G1 X-246.221 Y25.317 E342.89463
G1 X-247.175 Y12.742 E344.72972
G1 X-247.498 Y0.00 E346.58444
G1 X-247.175 Y-12.742 E348.43917
G1 X-246.221 Y-25.32 E350.27469
G1 X-244.644 Y-37.721 E352.09373
G1 X-242.472 Y-49.884 E353.8916
G1 X-239.715 Y-61.829 E355.67545
G1 X-236.373 Y-73.596 E357.45542
G1 X-232.478 Y-85.11 E359.22413
G1 X-228.056 Y-96.324 E360.9782
G1 X-223.094 Y-107.302 E362.73124
G1 X-217.619 Y-117.988 E364.47841
G1 X-211.685 Y-128.31 E366.21091
G1 X-205.225 Y-138.386 E367.95255
G1 X-198.327 Y-148.085 E369.68442
G1 X-190.993 Y-157.419 E371.41175
G1 X-183.208 Y-166.407 E373.14201
G1 X-175.008 Y-175.008 E374.87121
G1 X-166.407 Y-183.208 E376.60042
G1 X-157.418 Y-190.993 E378.33079
G1 X-148.092 Y-198.322 E380.05675
G1 X-138.386 Y-205.225 E381.78987
G1 X-128.31 Y-211.685 E383.53152
G1 X-117.988 Y-217.619 E385.26402
G1 X-107.298 Y-223.096 E387.01184
G1 X-96.324 Y-228.056 E388.76423
G1 X-85.11 Y-232.478 E390.5183
G1 X-73.605 Y-236.37 E392.28562
G1 X-61.833 Y-239.714 E394.06637
G1 X-49.884 Y-242.472 E395.85083
G1 X-37.712 Y-244.645 E397.65001
G1 X-25.317 Y-246.221 E399.46817
G1 X-12.749 Y-247.174 E401.30223
G1 X0.00 Y-247.498 E403.15797
G1 X12.749 Y-247.174 E405.01372
G1 X25.317 Y-246.221 E406.84778
G1 X37.712 Y-244.645 E408.66593
G1 X49.884 Y-242.472 E410.46512
G1 X61.833 Y-239.714 E412.24957
G1 X73.605 Y-236.37 E414.03032
G1 X85.11 Y-232.478 E415.79765
G1 X96.324 Y-228.056 E417.55172
G1 X107.298 Y-223.096 E419.30411
G1 X117.988 Y-217.619 E421.05193
G1 X128.31 Y-211.685 E422.78443
G1 X138.386 Y-205.225 E424.52607
G1 X148.092 Y-198.322 E426.2592
G1 X157.418 Y-190.993 E427.98516
G1 X166.407 Y-183.208 E429.71553
G1 X175.008 Y-175.008 E431.44473
G1 X183.208 Y-166.407 E433.17394
G1 X190.993 Y-157.419 E434.9042
G1 X198.327 Y-148.085 E436.63153
G1 X205.225 Y-138.386 E438.36339
G1 X211.685 Y-128.31 E440.10504
G1 X217.619 Y-117.988 E441.83754
G1 X223.094 Y-107.302 E443.58471
G1 X228.056 Y-96.324 E445.33775
G1 X232.478 Y-85.11 E447.09182
G1 X236.373 Y-73.596 E448.86052
G1 X239.715 Y-61.829 E450.6405
G1 X242.472 Y-49.884 E452.42435
G1 X244.644 Y-37.721 E454.22222
G1 X246.221 Y-25.32 E456.04126
G1 X247.175 Y-12.742 E457.87678
G1 X247.498 Y0.00 E459.73151
G0 F9000 X236.276 Y-12.472
G1 F1500 X235.205 Y-25.181 E461.58739
G1 X233.941 Y-35.11 E463.04385
G1 X232.271 Y-44.908 E464.49014
G1 X230.205 Y-54.563 E465.92688
G1 X227.75 Y-64.067 E467.35523
G1 X224.915 Y-73.415 E468.77666
G1 X221.709 Y-82.593 E470.19132
G1 X218.141 Y-91.598 E471.60077
G1 X214.219 Y-100.413 E473.0047
G1 X209.954 Y-109.037 E474.40468
G1 X205.352 Y-117.455 E475.80071
G1 X200.421 Y-125.666 E477.19441
G1 X195.174 Y-133.653 E478.58498
G1 X189.617 Y-141.413 E479.97383
G1 X183.76 Y-148.933 E481.36083
G1 X175.887 Y-158.246 E483.13535
G1 X100.152 Y-82.51 E498.7207
G1 X72.502 Y-54.865 E504.41019
G1 X43.359 Y-25.474 E510.433
G1 X46.32 Y-19.281 E511.43187
G1 X48.67 Y-12.773 E512.43871
G1 X90.046 Y-12.472 E518.45962
G1 X236.276 Y-12.472 E539.738
G0 F9000 X216.067 Y12.472
G1 F1500 X90.04 Y12.472 E558.07658
G1 X48.863 Y12.522 E564.06838
G1 X46.509 Y19.289 E565.11094
G1 X43.484 Y25.72 E566.14509
G1 X72.47 Y54.829 E572.12269
G1 X85.445 Y67.796 E574.79195
G1 X147.297 Y129.655 E587.52098
G1 X161.601 Y143.96 E590.46465
G1 X168.808 Y135.335 E592.10018
G1 X174.036 Y128.555 E593.346
G1 X178.996 Y121.565 E594.59319
G1 X183.684 Y114.371 E595.84267
G1 X188.088 Y106.986 E597.09385
G1 X192.206 Y99.416 E598.34783
G1 X196.029 Y91.666 E599.6053
G1 X199.545 Y83.744 E600.86649
G1 X202.751 Y75.661 E602.13181
G1 X205.637 Y67.42 E603.40239
G1 X208.195 Y59.032 E604.67845
G1 X210.422 Y50.506 E605.96072
G1 X212.305 Y41.844 E607.25059
G1 X213.838 Y33.058 E608.54838
G1 X215.013 Y24.155 E609.85512
G1 X216.067 Y12.472 E611.56205
G0 F9000 X210.874 Y41.551
G0 X209.005 Y50.145
G0 X206.784 Y58.653
G0 X204.255 Y66.947
G0 X201.39 Y75.13
G0 X198.194 Y83.188
G0 X194.705 Y91.049
G0 X190.906 Y98.75
G0 X186.822 Y106.256
G0 X182.445 Y113.595
G0 X177.8 Y120.726
G0 X172.858 Y127.69
G0 X167.658 Y134.435
G0 X162.119 Y141.044
G0 X143.96 Y161.601
G1 F1500 X80.174 Y97.809 E624.68897
G1 X54.818 Y72.459 E629.90628
G1 X25.665 Y43.667 E635.86855
G1 X19.368 Y46.697 E636.8854
G1 X12.773 Y49.059 E637.90476
G1 X12.472 Y90.786 E643.97674
G1 X12.472 Y216.067 E662.20676
G1 X24.155 Y215.013 E663.9137
G1 X33.058 Y213.838 E665.22043
G1 X41.844 Y212.305 E666.51823
G1 X50.506 Y210.422 E667.8081
