;FLAVOR:RepRap
;TIME:1902
;Filament used: 1.29529m, 1.47552m
;Layer height: 0.2
;Generated with Cura_SteamEngine 3.4.1
T0
M190 S60
M104 S205
M104 T1 S205
M109 S205
M109 T1 S205
M82 ;absolute extrusion mode
M203 Z14000
G28 ;Home
G1 X0 Y-130 Z0.3 F8000 ;Move the platform down 15mm
G92 E0
G1 E160 F5000
G92 E0
G1 Z5
G1 F200 E3
G92 E0
G92 E0
G1 F4800 E-5
;LAYER_COUNT:20
;LAYER:0
M107
M203 Z21000
G0 F21000 X13.84 Y18.816 Z0.3
;TYPE:SKIRT
G1 F4800 E0.08315
G1 F2100 X9.797 Y22.528 E0.42543
G1 X6.359 Y26.041 E0.73197
G1 X6.063 Y26.308 E0.75683
G1 X5.28 Y26.933 E0.81931
G1 X4.684 Y27.311 E0.86332
G1 X3.406 Y27.938 E0.9521
G1 X2.949 Y28.12 E0.98277
G1 X2.354 Y28.307 E1.02167
G1 X1.906 Y28.414 E1.05039
G1 X0.997 Y28.563 E1.10784
G1 X0.452 Y28.606 E1.14193
G1 X-.55 Y28.6 E1.20442
G1 X-1.1 Y28.55 E1.23886
G1 X-2.079 Y28.376 E1.30087
G1 X-2.594 Y28.24 E1.33409
G1 X-3.49 Y27.923 E1.39336
G1 X-3.982 Y27.701 E1.42702
G1 X-4.835 Y27.228 E1.48785
G1 X-5.275 Y26.935 E1.52081
G1 X-6.04 Y26.33 E1.58164
G1 X-6.376 Y26.024 E1.60998
G1 X-7.984 Y24.339 E1.75523
G1 X-11.942 Y20.509 E2.09871
G1 X-17.632 Y15.577 E2.5683
G1 X-17.856 Y15.363 E2.58762
G1 X-19.301 Y13.847 E2.71823
G1 X-19.517 Y13.595 E2.73892
G1 X-20.934 Y11.766 E2.88321
G1 X-21.124 Y11.494 E2.9039
G1 X-22.334 Y9.551 E3.04665
G1 X-22.489 Y9.272 E3.06655
G1 X-23.443 Y7.34 E3.20093
G1 X-23.574 Y7.036 E3.22157
G1 X-24.388 Y4.853 E3.36686
G1 X-24.485 Y4.55 E3.3867
G1 X-24.906 Y2.961 E3.48922
G1 X-24.962 Y2.71 E3.50526
G1 X-25.374 Y0.443 E3.64895
G1 X-25.417 Y0.108 E3.67001
G1 X-25.594 Y-2.228 E3.81611
G1 X-25.603 Y-2.468 E3.83109
G1 X-25.605 Y-3.644 E3.90442
G1 X-25.597 Y-3.879 E3.91909
G1 X-25.454 Y-5.904 E4.04569
G1 X-25.417 Y-6.212 E4.06503
G1 X-25.061 Y-8.335 E4.19928
G1 X-24.976 Y-8.709 E4.2232
G1 X-24.176 Y-11.447 E4.40108
G1 X-24.115 Y-11.633 E4.41329
G1 X-22.235 Y-16.875 E4.76059
G1 X-20.683 Y-22.119 E5.10164
G1 X-19.42 Y-27.477 E5.44493
G1 X-18.918 Y-30.119 E5.61265
G1 X-18.118 Y-35.541 E5.95444
G1 X-17.627 Y-41.001 E6.29631
G1 X-17.445 Y-46.464 E6.63719
G1 X-17.573 Y-51.921 E6.9776
G1 X-18.229 Y-59.733 E7.46649
G1 X-18.224 Y-60.325 E7.50341
G1 X-17.935 Y-63.248 E7.68658
G1 X-17.811 Y-63.872 E7.72626
G1 X-16.958 Y-66.682 E7.90939
G1 X-16.714 Y-67.27 E7.94909
G1 X-15.333 Y-69.853 E8.13176
G1 X-14.98 Y-70.382 E8.17142
G1 X-13.118 Y-72.653 E8.35456
G1 X-12.662 Y-73.108 E8.39473
G1 X-10.34 Y-75.006 E8.58176
G1 X-9.813 Y-75.358 E8.62128
G1 X-7.267 Y-76.716 E8.80123
G1 X-6.679 Y-76.958 E8.84088
G1 X-3.86 Y-77.812 E9.02457
G1 X-3.238 Y-77.936 E9.06413
G1 X-.341 Y-78.223 E9.24568
G1 X0.304 Y-78.223 E9.2859
G1 X3.306 Y-77.921 E9.47406
G1 X3.93 Y-77.795 E9.51376
G1 X6.704 Y-76.948 E9.69464
G1 X7.29 Y-76.705 E9.7342
G1 X9.871 Y-75.322 E9.91681
G1 X10.4 Y-74.968 E9.9565
G1 X12.664 Y-73.107 E10.13927
G1 X13.111 Y-72.659 E10.17874
G1 X14.976 Y-70.389 E10.36195
G1 X15.331 Y-69.859 E10.40173
G1 X16.713 Y-67.275 E10.58448
G1 X16.962 Y-66.67 E10.62528
G1 X17.829 Y-63.759 E10.8147
G1 X17.949 Y-63.147 E10.85359
G1 X18.225 Y-60.318 E11.03085
G1 X18.225 Y-59.694 E11.06977
G1 X17.786 Y-55.083 E11.35862
G1 X17.48 Y-49.582 E11.70221
G1 X17.486 Y-44.116 E12.04308
G1 X17.802 Y-38.641 E12.38509
G1 X18.424 Y-33.211 E12.72593
G1 X19.359 Y-27.788 E13.06912
G1 X19.922 Y-25.181 E13.23544
G1 X21.314 Y-19.855 E13.57874
G1 X23.004 Y-14.619 E13.92186
G1 X23.786 Y-12.517 E14.06173
G1 X23.806 Y-12.463 E14.06532
G1 X24.443 Y-10.653 E14.18498
G1 X24.522 Y-10.392 E14.20199
G1 X25.053 Y-8.35 E14.33357
G1 X25.117 Y-8.049 E14.35276
G1 X25.444 Y-6.018 E14.48105
G1 X25.478 Y-5.715 E14.50006
G1 X25.584 Y-4.107 E14.60056
G1 X25.591 Y-3.855 E14.61628
G1 X25.564 Y-1.57 E14.75879
G1 X25.536 Y-1.185 E14.78286
G1 X25.111 Y2.055 E14.98665
G1 X25.027 Y2.479 E15.0136
G1 X24.398 Y4.81 E15.16417
G1 X24.3 Y5.113 E15.18403
G1 X23.564 Y7.058 E15.31372
G1 X23.435 Y7.353 E15.3338
G1 X22.399 Y9.44 E15.4791
G1 X22.23 Y9.739 E15.50052
G1 X20.979 Y11.706 E15.6459
G1 X20.785 Y11.979 E15.66678
G1 X19.347 Y13.796 E15.81129
G1 X19.125 Y14.049 E15.83228
G1 X17.507 Y15.707 E15.97675
G1 X17.275 Y15.923 E15.99652
G1 X13.84 Y18.816 E16.27659
G1 F4800 E11.27659
G1 F21000 Z1.6
G0 X-2.868 Y-.291 Z1.6
;TYPE:WALL-INNER
G1 F21000 Z0.3
G1 F4800 E16.35974
G1 F1800 X-2.181 Y-.363 E16.40282
G1 X-1.776 Y-.476 E16.42904
G1 X-1.518 Y-.548 E16.44574
G1 X-1.195 Y-.703 E16.46809
G1 X-1.297 Y-.457 E16.47083
G1 X-1.4 Y-.21 E16.4836
G1 X-1.514 Y0.06 E16.50188
G1 X-2.129 Y1.186 E16.58189
G1 X-2.798 Y2.121 E16.65359
G1 X-3.508 Y2.85 E16.71705
G1 X-4.105 Y3.289 E16.76326
G1 X-4.615 Y3.54 E16.79871
G1 X-5.034 Y3.662 E16.82593
G1 X-5.449 Y3.706 E16.85195
G1 X-5.929 Y3.651 E16.88208
G1 X-6.317 Y3.533 E16.90737
G1 X-6.77 Y3.301 E16.93911
G1 X-7.326 Y2.881 E16.98257
G1 X-8.005 Y2.144 E17.04506
G1 X-8.606 Y1.243 E17.1126
G1 X-9.164 Y0.128 E17.19036
G1 X-9.648 Y-1.173 E17.27692
G1 X-10.044 Y-2.653 E17.37247
G1 X-10.316 Y-4.183 E17.46938
G1 X-10.486 Y-5.879 E17.57568
G1 X-10.528 Y-7.562 E17.68067
G1 X-10.448 Y-9.288 E17.78842
G1 X-10.256 Y-10.898 E17.88953
G1 X-9.925 Y-12.576 E17.9962
G1 X-9.498 Y-14.091 E18.09436
G1 X-8.965 Y-15.486 E18.18749
G1 X-8.375 Y-16.673 E18.27015
G1 X-7.72 Y-17.676 E18.34486
G1 X-7.032 Y-18.467 E18.41023
G1 X-6.368 Y-19.019 E18.46408
G1 X-5.845 Y-19.317 E18.50162
G1 X-5.381 Y-19.481 E18.53231
G1 X-4.994 Y-19.547 E18.5568
G1 X-4.62 Y-19.543 E18.58012
G1 X-4.234 Y-19.47 E18.60462
G1 X-3.797 Y-19.304 E18.63377
G1 X-3.327 Y-19.025 E18.66786
G1 X-2.727 Y-18.506 E18.71733
G1 X-2.088 Y-17.73 E18.78002
G1 X-1.49 Y-16.748 E18.85172
G1 X-.969 Y-15.6 E18.93034
G1 X-.949 Y-15.556 E18.93336
G1 X-.847 Y-15.246 E18.95371
G1 X-.728 Y-14.889 E18.97718
G1 X-1.151 Y-15.144 E18.99064
G1 X-1.196 Y-15.161 E18.99364
G1 X-1.838 Y-15.407 E19.03652
G1 X-2.524 Y-15.539 E19.08008
G1 X-3.213 Y-15.544 E19.12305
G1 X-3.873 Y-15.439 E19.16473
G1 X-4.558 Y-15.199 E19.20999
G1 X-5.261 Y-14.803 E19.26031
G1 X-5.965 Y-14.219 E19.31735
G1 X-6.644 Y-13.431 E19.38222
G1 X-7.301 Y-12.324 E19.4625
G1 X-7.797 Y-11.047 E19.54793
G1 X-8.101 Y-9.737 E19.6318
G1 X-8.109 Y-9.705 E19.63386
G1 X-8.248 Y-8.29 E19.72252
G1 X-8.203 Y-6.858 E19.81187
G1 X-7.965 Y-5.421 E19.90271
G1 X-7.568 Y-4.141 E19.98628
G1 X-6.979 Y-2.935 E20.06998
G1 X-6.317 Y-2.004 E20.14123
G1 X-5.617 Y-1.313 E20.20257
G1 X-4.91 Y-.827 E20.25607
G1 X-4.213 Y-.516 E20.30367
G1 X-3.553 Y-.344 E20.3462
G1 X-2.868 Y-.291 E20.38905
G0 F21000 X-2.875 Y-.793
G1 F1800 X-2.275 Y-.856 E20.42667
G1 X-1.694 Y-1.018 E20.46428
G1 X-1.082 Y-1.311 E20.5066
G1 X-.857 Y-1.474 E20.52393
G1 X-.451 Y-1.767 E20.55515
G1 X-.192 Y-2.035 E20.57839
G1 X-.291 Y-1.718 E20.58131
G1 X-.441 Y-1.24 E20.60268
G1 X-.484 Y-1.106 E20.61146
G1 X-1.065 Y0.282 E20.70529
G1 X-1.705 Y1.453 E20.78852
G1 X-2.412 Y2.441 E20.86428
G1 X-3.179 Y3.229 E20.93286
G1 X-3.847 Y3.72 E20.98456
G1 X-4.431 Y4.007 E21.02514
G1 X-4.936 Y4.154 E21.05794
G1 X-5.428 Y4.207 E21.0888
G1 X-5.533 Y4.205 E21.09535
G1 X-6.034 Y4.142 E21.12684
G1 X-6.506 Y3.998 E21.15761
G1 X-7.039 Y3.725 E21.19496
G1 X-7.663 Y3.253 E21.24375
G1 X-8.397 Y2.457 E21.31128
G1 X-9.04 Y1.493 E21.38354
G1 X-9.624 Y0.326 E21.46492
G1 X-10.124 Y-1.018 E21.55435
G1 X-10.532 Y-2.543 E21.6528
G1 X-10.813 Y-4.123 E21.75288
G1 X-10.985 Y-5.843 E21.86068
G1 X-11.028 Y-7.558 E21.96766
G1 X-10.946 Y-9.329 E22.07822
G1 X-10.747 Y-10.995 E22.18286
G1 X-10.414 Y-12.685 E22.29028
G1 X-9.972 Y-14.251 E22.39175
G1 X-9.422 Y-15.69 E22.48783
G1 X-8.811 Y-16.919 E22.57342
G1 X-8.121 Y-17.976 E22.65214
G1 X-7.382 Y-18.826 E22.72238
G1 X-6.656 Y-19.43 E22.78128
G1 X-6.093 Y-19.75 E22.82166
G1 X-6.052 Y-19.774 E22.82462
G1 X-5.506 Y-19.967 E22.86074
G1 X-5.077 Y-20.039 E22.88787
G1 X-5.033 Y-20.047 E22.89065
G1 X-4.568 Y-20.042 E22.91965
G1 X-4.102 Y-19.955 E22.94922
G1 X-3.578 Y-19.755 E22.9842
G1 X-3.034 Y-19.432 E23.02365
G1 X-2.367 Y-18.855 E23.07865
G1 X-1.68 Y-18.022 E23.14599
G1 X-1.048 Y-16.983 E23.22183
G1 X-1.036 Y-16.955 E23.22373
G1 X-.481 Y-15.735 E23.30731
G1 X-0.018 Y-14.339 E23.39903
G1 X-0.002 Y-14.29 E23.40225
G1 X0.106 Y-13.828 E23.43184
G1 X0.219 Y-13.35 E23.46247
G1 X-.123 Y-13.773 E23.47229
G1 X-.309 Y-13.934 E23.48134
G1 X-.348 Y-13.968 E23.48447
G1 X-.765 Y-14.328 E23.51883
G1 X-1.371 Y-14.693 E23.56295
G1 X-1.975 Y-14.924 E23.60327
G1 X-2.574 Y-15.039 E23.64131
G1 X-3.175 Y-15.044 E23.67879
G1 X-3.75 Y-14.952 E23.71511
G1 X-4.351 Y-14.742 E23.75481
G1 X-4.976 Y-14.389 E23.79957
G1 X-5.614 Y-13.861 E23.85122
G1 X-6.236 Y-13.138 E23.9107
G1 X-6.85 Y-12.104 E23.98569
G1 X-7.318 Y-10.899 E24.06631
G1 X-7.615 Y-9.624 E24.14795
G1 X-7.747 Y-8.273 E24.2326
G1 X-7.704 Y-6.907 E24.31783
G1 X-7.477 Y-5.536 E24.4045
G1 X-7.102 Y-4.326 E24.48349
G1 X-6.548 Y-3.191 E24.56226
G1 X-5.935 Y-2.329 E24.62822
G1 X-5.297 Y-1.7 E24.68409
G1 X-4.664 Y-1.265 E24.73199
G1 X-4.047 Y-.989 E24.77414
G1 X-3.47 Y-.839 E24.81132
G1 X-2.875 Y-.793 E24.84854
G0 F21000 X-2.882 Y-1.295
;TYPE:WALL-OUTER
G1 F1800 X-2.369 Y-1.349 E24.88071
G1 X-1.87 Y-1.488 E24.91301
G1 X-1.338 Y-1.743 E24.9498
G1 X-.78 Y-2.146 E24.99273
G1 X-.195 Y-2.752 E25.04526
G1 X0.132 Y-3.232 E25.08148
G1 X0.373 Y-3.586 E25.10818
G1 X0.688 Y-4.251 E25.15407
G1 X0.856 Y-4.192 E25.16518
G1 X0.703 Y-3.513 E25.18706
G1 X0.609 Y-3.095 E25.2095
G1 X0.462 Y-2.45 E25.25076
G1 X-0.013 Y-.937 E25.34965
G1 X-.616 Y0.504 E25.44707
G1 X-1.277 Y1.714 E25.53305
G1 X-2.03 Y2.765 E25.61368
G1 X-2.85 Y3.608 E25.68702
G1 X-3.589 Y4.151 E25.74421
G1 X-4.246 Y4.474 E25.78987
G1 X-4.84 Y4.646 E25.82843
G1 X-5.405 Y4.707 E25.86387
G1 X-5.566 Y4.705 E25.87391
G1 X-6.139 Y4.633 E25.90993
G1 X-6.696 Y4.463 E25.94625
G1 X-7.308 Y4.149 E25.98914
G1 X-8 Y3.625 E26.04328
G1 X-8.791 Y2.767 E26.11605
G1 X-9.472 Y1.747 E26.19254
G1 X-10.084 Y0.524 E26.27782
G1 X-10.6 Y-.863 E26.37011
G1 X-11.02 Y-2.433 E26.47146
G1 X-11.31 Y-4.063 E26.57471
G1 X-11.484 Y-5.807 E26.68401
G1 X-11.528 Y-7.554 E26.79299
G1 X-11.444 Y-9.37 E26.90637
G1 X-11.238 Y-11.092 E27.01452
G1 X-10.903 Y-12.794 E27.1227
G1 X-10.447 Y-14.408 E27.22729
G1 X-9.878 Y-15.897 E27.3267
G1 X-9.247 Y-17.165 E27.41502
G1 X-8.523 Y-18.276 E27.49772
G1 X-7.733 Y-19.184 E27.57278
G1 X-6.942 Y-19.842 E27.63695
G1 X-6.258 Y-20.232 E27.68605
G1 X-5.634 Y-20.452 E27.72731
G1 X-5.072 Y-20.547 E27.76286
G1 X-4.522 Y-20.542 E27.79716
G1 X-3.962 Y-20.437 E27.83269
G1 X-3.361 Y-20.207 E27.87282
G1 X-2.741 Y-19.84 E27.91775
G1 X-2.007 Y-19.204 E27.97832
G1 X-1.272 Y-18.314 E28.0503
G1 X-.605 Y-17.218 E28.13031
G1 X-0.013 Y-15.914 E28.21962
G1 X0.48 Y-14.425 E28.31744
G1 X0.845 Y-12.877 E28.41662
G1 X0.954 Y-12.141 E28.46302
G1 X1.01 Y-11.762 E28.48691
G1 X1.081 Y-11.29 E28.51668
G1 X0.854 Y-11.194 E28.53205
G1 X0.653 Y-11.709 E28.55394
G1 X0.467 Y-12.044 E28.57455
G1 X0.102 Y-12.7 E28.62136
G1 X-.484 Y-13.424 E28.67945
G1 X-1.06 Y-13.922 E28.72693
G1 X-1.591 Y-14.242 E28.7656
G1 X-2.112 Y-14.441 E28.80038
G1 X-2.624 Y-14.539 E28.83289
G1 X-3.137 Y-14.544 E28.86488
G1 X-3.627 Y-14.465 E28.89583
G1 X-4.144 Y-14.285 E28.92997
G1 X-4.691 Y-13.976 E28.96915
G1 X-5.262 Y-13.503 E29.01539
G1 X-5.828 Y-12.845 E29.06952
G1 X-6.399 Y-11.884 E29.13923
G1 X-6.839 Y-10.751 E29.21503
G1 X-7.121 Y-9.543 E29.29239
G1 X-7.246 Y-8.257 E29.37296
G1 X-7.205 Y-6.956 E29.45414
G1 X-6.989 Y-5.651 E29.53663
G1 X-6.636 Y-4.511 E29.61105
G1 X-6.117 Y-3.447 E29.68488
G1 X-5.553 Y-2.654 E29.74557
G1 X-4.978 Y-2.087 E29.79593
G1 X-4.418 Y-1.703 E29.83827
G1 X-3.881 Y-1.462 E29.87498
G1 X-3.387 Y-1.334 E29.9068
G1 X-2.882 Y-1.295 E29.93839
G0 F21000 X-2.633 Y-1.321
G0 X-2.576 Y-.774
G0 X-2.106 Y0.122
;TYPE:SKIN
G1 F1800 X-2.547 Y0.929 E29.99574
G1 X-3.172 Y1.803 E30.06275
G1 X-3.835 Y2.483 E30.12197
G1 X-4.359 Y2.869 E30.16256
G1 X-4.791 Y3.081 E30.19257
G1 X-5.123 Y3.178 E30.21414
G1 X-5.454 Y3.214 E30.23491
G1 X-5.822 Y3.171 E30.25801
G1 X-6.131 Y3.077 E30.27815
G1 X-6.514 Y2.881 E30.30498
G1 X-6.995 Y2.517 E30.3426
G1 X-7.617 Y1.844 E30.39975
G1 X-8.18 Y0.998 E30.46313
G1 X-8.716 Y-0.075 E30.53793
G1 X-9.177 Y-1.313 E30.62031
G1 X-9.57 Y-2.78 E30.71502
G1 X-9.828 Y-4.239 E30.80742
G1 X-9.996 Y-5.914 E30.9124
G1 X-10.038 Y-7.539 E31.01378
G1 X-9.958 Y-9.265 E31.12153
G1 X-9.772 Y-10.826 E31.21957
G1 X-9.453 Y-12.443 E31.32235
G1 X-9.032 Y-13.938 E31.41921
G1 X-8.515 Y-15.29 E31.50948
G1 X-7.947 Y-16.431 E31.58896
G1 X-7.328 Y-17.38 E31.65962
G1 X-6.689 Y-18.115 E31.72036
G1 X-6.09 Y-18.613 E31.76894
G1 X-5.638 Y-18.87 E31.80136
G1 X-5.258 Y-19.005 E31.82651
G1 X-4.955 Y-19.057 E31.84568
G1 X-4.671 Y-19.053 E31.8634
G1 X-4.365 Y-18.995 E31.88282
G1 X-4.011 Y-18.861 E31.90643
G1 X-3.617 Y-18.627 E31.935
G1 X-3.077 Y-18.16 E31.97953
G1 X-2.49 Y-17.448 E32.03707
G1 X-1.925 Y-16.518 E32.10493
G1 X-1.62 Y-15.848 E32.15084
G1 X-1.703 Y-15.88 E32.15639
G1 X-2.475 Y-16.029 E32.20542
G1 X-3.25 Y-16.034 E32.25375
G1 X-3.993 Y-15.916 E32.30067
G1 X-4.76 Y-15.648 E32.35134
G1 X-5.54 Y-15.209 E32.40716
G1 X-6.31 Y-14.57 E32.46956
G1 X-7.044 Y-13.719 E32.53964
G1 X-7.744 Y-12.539 E32.6252
G1 X-8.266 Y-11.192 E32.71529
G1 X-8.593 Y-9.785 E32.80538
G1 X-8.738 Y-8.306 E32.89805
G1 X-8.691 Y-6.811 E32.99133
G1 X-8.443 Y-5.308 E33.08633
G1 X-8.025 Y-3.96 E33.17434
G1 X-7.402 Y-2.684 E33.2629
G1 X-6.691 Y-1.685 E33.33937
G1 X-5.93 Y-.934 E33.40604
G1 X-5.151 Y-.398 E33.46501
G1 X-4.376 Y-0.052 E33.51794
G1 X-3.634 Y0.142 E33.56577
G1 X-2.862 Y0.201 E33.61405
G1 X-2.106 Y0.122 E33.66146
G1 F4800 E28.66146
G1 F21000 Z1.6
G0 X-5.503 Y2.981 Z1.6
G1 F21000 Z0.3
G1 F4800 E33.74461
G1 F1800 X-8.366 Y0.118 E33.99711
G1 X-8.454 Y0.03
G0 F21000 X-8.845 Y-1.067
G1 F1800 X-4.9 Y2.877 E34.34499
G1 X-4.812 Y2.965
G0 F21000 X-4.429 Y2.641
G1 F1800 X-9.149 Y-2.078 E34.76122
G1 X-9.237 Y-2.166
G0 F21000 X-9.383 Y-3.019
G1 F1800 X-4.022 Y2.341 E35.23399
G1 X-3.934 Y2.429
G0 F21000 X-3.667 Y1.989
G1 F1800 X-9.534 Y-3.877 E35.75138
G1 X-9.622 Y-3.965
G0 F21000 X-9.647 Y-4.697
G1 F1800 X-7.669 Y-2.719 E35.92583
G1 X-7.581 Y-2.631
G0 F21000 X-8.285 Y-4.042
G1 F1800 X-9.725 Y-5.482 E36.05283
G1 X-9.813 Y-5.57
G0 F21000 X-9.778 Y-6.243
G1 F1800 X-8.603 Y-5.067 E36.1565
G1 X-8.515 Y-4.979
G0 F21000 X-8.774 Y-5.946
G1 F1800 X-9.798 Y-6.969 E36.24677
G1 X-9.886 Y-7.057
G0 F21000 X-9.805 Y-7.684
G1 F1800 X-8.913 Y-6.792 E36.32543
G1 X-8.825 Y-6.704
G0 F21000 X-8.937 Y-7.522
G1 F1800 X-9.774 Y-8.36 E36.3993
G1 X-9.862 Y-8.448
G0 F21000 X-9.742 Y-9.035
G1 F1800 X-8.96 Y-8.253 E36.46827
G1 X-8.872 Y-8.165
G0 F21000 X-8.904 Y-8.904
G1 F1800 X-9.681 Y-9.681 E36.53679
G1 X-9.769 Y-9.769
G0 F21000 X-9.606 Y-10.313
G1 F1800 X-8.84 Y-9.548 E36.60431
G1 X-8.752 Y-9.46
G0 F21000 X-8.738 Y-10.152
G1 F1800 X-9.521 Y-10.936 E36.67341
G1 X-9.609 Y-11.024
G0 F21000 X-9.405 Y-11.526
G1 F1800 X-8.605 Y-10.726 E36.74396
G1 X-8.517 Y-10.638
G0 F21000 X-8.467 Y-11.296
G1 F1800 X-9.288 Y-12.116 E36.81632
G1 X-9.376 Y-12.204
G0 F21000 X-9.15 Y-12.686
G1 F1800 X-8.269 Y-11.805 E36.89402
G1 X-8.181 Y-11.717
G0 F21000 X-8.072 Y-12.314
G1 F1800 X-8.995 Y-13.238 E36.97547
G1 X-9.083 Y-13.326
G0 F21000 X-8.84 Y-13.789
G1 F1800 X-7.85 Y-12.8 E37.06274
G1 X-7.762 Y-12.712
G0 F21000 X-7.587 Y-13.244
G1 F1800 X-8.65 Y-14.306 E37.15645
G1 X-8.738 Y-14.394
G0 F21000 X-8.454 Y-14.818
G1 F1800 X-7.323 Y-13.687 E37.25619
G1 X-7.235 Y-13.599
G0 F21000 X-7.02 Y-14.091
G1 F1800 X-8.249 Y-15.32 E37.36458
G1 X-8.337 Y-15.408
G0 F21000 X-8.014 Y-15.792
G1 F1800 X-6.692 Y-14.47 E37.48118
G1 X-6.604 Y-14.382
G0 F21000 X-6.346 Y-14.832
G1 F1800 X-7.778 Y-16.264 E37.60747
G1 X-7.866 Y-16.352
G0 F21000 X-7.505 Y-16.697
G1 F1800 X-5.96 Y-15.152 E37.74373
G1 X-5.872 Y-15.064
G0 F21000 X-5.557 Y-15.457
G1 F1800 X-7.225 Y-17.125 E37.89084
G1 X-7.313 Y-17.213
G0 F21000 X-6.91 Y-17.517
G1 F1800 X-5.105 Y-15.711 E38.05007
G1 X-5.017 Y-15.623
G0 F21000 X-4.62 Y-15.933
G1 F1800 X-6.581 Y-17.895 E38.22307
G1 X-6.669 Y-17.983
G0 F21000 X-6.204 Y-18.224
G1 F1800 X-4.096 Y-16.117 E38.40894
G1 X-4.008 Y-16.029
G0 F21000 X-3.494 Y-16.222
G1 F1800 X-5.793 Y-18.521 E38.61169
G1 X-5.881 Y-18.609
G0 F21000 X-5.31 Y-18.745
G1 F1800 X-2.821 Y-16.256 E38.83121
G1 X-2.733 Y-16.168
G0 F21000 X-2.04 Y-16.182
G1 F1800 X-4.681 Y-18.823 E39.06413
G1 X-4.769 Y-18.911
G1 F4800 E34.06413
