;FLAVOR:Repetier
;TIME:727
;MINX:-67.242
;MINY:-67.219
;MINZ:0.3
;MAXX:67.237
;MAXY:67.219
;MAXZ:1.5
;Generated with Cura_SteamEngine 4.6.2
M190 S60
M104 S205
M109 S205
M82 ;absolute extrusion mode
G28 ;Home
G1 X0 Y-80 Z0.3 F8000 ;Move the platform down 15mm
G1 Z5
G1 F200 E3
G92 E0
G92 E0
G92 E0
G1 F3000 E-6.5
;LAYER_COUNT:2
;LAYER:0
M107
G1 F3600 Z1.3
G0 F12000 X7.683 Y-66.27 Z1.3
;TYPE:SKIRT
G1 F3600 Z0.3
G1 F3000 E0
G1 F1800 X8.446 Y-66.2 E0.04778
G1 X9.007 Y-66.121 E0.08311
G1 X14.443 Y-65.132 E0.42768
G1 X15.22 Y-64.979 E0.47707
G1 X15.747 Y-64.848 E0.51093
G1 X21.094 Y-63.293 E0.8582
G1 X21.804 Y-63.076 E0.9045
G1 X22.333 Y-62.884 E0.9396
G1 X27.473 Y-60.795 E1.2856
G1 X28.171 Y-60.501 E1.33284
G1 X28.69 Y-60.25 E1.36879
G1 X33.381 Y-57.753 E1.7002
G1 X33.877 Y-57.479 E1.73553
G1 X35.076 Y-56.724 E1.8239
G1 X39.31 Y-53.902 E2.14121
G1 X39.956 Y-53.455 E2.1902
G1 X40.405 Y-53.11 E2.22552
G1 X44.664 Y-49.558 E2.57137
G1 X45.233 Y-49.07 E2.61812
G1 X45.613 Y-48.712 E2.65067
G1 X49.53 Y-44.695 E3.00057
G1 X50.04 Y-44.158 E3.04675
G1 X50.41 Y-43.728 E3.08213
G1 X53.888 Y-39.333 E3.43165
G1 X54.31 Y-38.783 E3.47489
G1 X54.613 Y-38.349 E3.50789
G1 X57.618 Y-33.629 E3.85684
G1 X58.018 Y-32.98 E3.90438
G1 X58.29 Y-32.488 E3.93944
G1 X60.786 Y-27.498 E4.28739
G1 X61.103 Y-26.841 E4.33288
G1 X61.388 Y-26.148 E4.37961
G1 X63.282 Y-21.122 E4.71456
G1 X63.537 Y-20.417 E4.76132
G1 X63.7 Y-19.886 E4.79596
G1 X65.104 Y-14.562 E5.13933
G1 X65.304 Y-13.753 E5.1913
G1 X65.402 Y-13.261 E5.22258
G1 X66.261 Y-7.759 E5.56986
G1 X66.371 Y-6.985 E5.61861
G1 X66.431 Y-6.255 E5.66429
G1 X66.709 Y-.891 E5.99925
G1 X66.738 Y-.122 E6.04724
G1 X66.731 Y0.416 E6.0808
G1 X66.445 Y6.004 E6.42974
G1 X66.397 Y6.733 E6.4753
G1 X66.333 Y7.28 E6.50964
G1 X65.472 Y12.818 E6.85916
G1 X65.357 Y13.506 E6.90266
G1 X65.246 Y14.009 E6.93478
G1 X63.817 Y19.448 E7.28548
G1 X63.618 Y20.166 E7.33195
G1 X63.46 Y20.645 E7.3634
G1 X61.468 Y25.936 E7.71598
G1 X61.207 Y26.602 E7.76058
G1 X60.972 Y27.121 E7.79611
G1 X58.495 Y32.082 E8.14192
G1 X58.139 Y32.769 E8.19017
G1 X57.866 Y33.238 E8.22401
G1 X54.875 Y37.943 E8.5717
G1 X54.466 Y38.564 E8.61807
G1 X54.118 Y39.041 E8.65489
G1 X50.689 Y43.376 E8.99959
G1 X50.206 Y43.969 E9.04728
G1 X49.841 Y44.375 E9.08133
G1 X45.978 Y48.341 E9.42659
G1 X45.424 Y48.894 E9.47541
G1 X45.005 Y49.271 E9.51056
G1 X40.732 Y52.839 E9.85772
G1 X40.172 Y53.294 E9.90272
G1 X39.694 Y53.642 E9.93959
G1 X35.098 Y56.736 E10.28511
G1 X34.452 Y57.157 E10.33319
G1 X33.991 Y57.425 E10.36645
G1 X29.098 Y60.032 E10.7122
G1 X28.403 Y60.391 E10.76098
G1 X27.946 Y60.6 E10.79232
G1 X22.779 Y62.704 E11.14024
G1 X22.027 Y62.998 E11.19059
G1 X21.401 Y63.203 E11.23167
G1 X16.156 Y64.73 E11.57234
G1 X15.443 Y64.925 E11.61844
G1 X14.718 Y65.081 E11.66469
G1 X9.425 Y66.045 E12.0002
G1 X8.703 Y66.167 E12.04587
G1 X8.021 Y66.243 E12.08866
G1 X2.627 Y66.662 E12.42606
G1 X1.839 Y66.712 E12.4753
G1 X1.262 Y66.719 E12.51129
G1 X-4.285 Y66.578 E12.85733
G1 X-5.031 Y66.548 E12.90389
G1 X-5.589 Y66.498 E12.93882
G1 X-11.127 Y65.781 E13.28707
G1 X-11.834 Y65.68 E13.33161
G1 X-12.352 Y65.58 E13.36451
G1 X-17.833 Y64.289 E13.71567
G1 X-18.532 Y64.114 E13.76061
G1 X-19.056 Y63.954 E13.79478
G1 X-24.342 Y62.117 E14.14377
G1 X-25.017 Y61.872 E14.18855
G1 X-25.533 Y61.655 E14.22346
G1 X-30.564 Y59.302 E14.56982
G1 X-31.261 Y58.964 E14.61813
G1 X-31.747 Y58.696 E14.65274
G1 X-36.504 Y55.841 E14.99873
G1 X-37.147 Y55.443 E15.04589
G1 X-37.634 Y55.105 E15.08286
G1 X-42.052 Y51.792 E15.42724
G1 X-42.656 Y51.326 E15.47481
G1 X-43.094 Y50.951 E15.51077
G1 X-47.165 Y47.185 E15.85662
G1 X-47.709 Y46.665 E15.90355
G1 X-48.063 Y46.294 E15.93553
G1 X-51.752 Y42.102 E16.28377
G1 X-52.251 Y41.518 E16.33167
G1 X-52.562 Y41.116 E16.36337
G1 X-55.813 Y36.549 E16.71297
G1 X-56.248 Y35.918 E16.76077
G1 X-56.538 Y35.449 E16.79515
G1 X-59.295 Y30.58 E17.1441
G1 X-59.64 Y29.952 E17.18878
G1 X-59.935 Y29.331 E17.23166
G1 X-62.096 Y24.386 E17.5682
G1 X-62.403 Y23.659 E17.61741
G1 X-62.578 Y23.18 E17.64922
G1 X-64.273 Y17.877 E17.99641
G1 X-64.51 Y17.098 E18.04719
G1 X-64.638 Y16.587 E18.08004
G1 X-65.781 Y11.128 E18.42786
G1 X-65.925 Y10.393 E18.47457
G1 X-66.001 Y9.856 E18.50839
G1 X-66.577 Y4.3 E18.85674
G1 X-66.643 Y3.556 E18.90332
G1 X-66.676 Y2.901 E18.94422
G1 X-66.731 Y0.771 E19.07709
G1 X-66.742 Y-0.072 E19.12967
G1 X-66.735 Y-.635 E19.16478
G1 X-66.683 Y-2.653 E19.29067
G1 X-66.653 Y-3.406 E19.33767
G1 X-66.602 Y-4.047 E19.37777
G1 X-66.051 Y-9.386 E19.71249
G1 X-65.962 Y-10.149 E19.7604
G1 X-65.835 Y-10.867 E19.80587
G1 X-64.733 Y-16.14 E20.14181
G1 X-64.571 Y-16.868 E20.18832
G1 X-64.415 Y-17.425 E20.2244
G1 X-62.739 Y-22.683 E20.56855
G1 X-62.488 Y-23.433 E20.61788
G1 X-62.302 Y-23.911 E20.64986
G1 X-60.067 Y-29.031 E20.99826
G1 X-59.746 Y-29.738 E21.04668
G1 X-59.498 Y-30.219 E21.08043
G1 X-56.742 Y-35.092 E21.42956
G1 X-56.373 Y-35.722 E21.47509
G1 X-55.959 Y-36.342 E21.52158
G1 X-52.871 Y-40.687 E21.85401
G1 X-52.4 Y-41.331 E21.90376
G1 X-52.058 Y-41.751 E21.93754
G1 X-48.395 Y-45.92 E22.28363
G1 X-47.889 Y-46.482 E22.33079
G1 X-47.363 Y-47.001 E22.37687
G1 X-43.42 Y-50.651 E22.71195
G1 X-42.845 Y-51.168 E22.76017
G1 X-42.407 Y-51.524 E22.79537
G1 X-37.944 Y-54.874 E23.14338
G1 X-37.358 Y-55.301 E23.1886
G1 X-36.933 Y-55.58 E23.22031
G1 X-32.114 Y-58.478 E23.57099
G1 X-31.483 Y-58.845 E23.61651
G1 X-30.985 Y-59.103 E23.65149
G1 X-25.96 Y-61.457 E23.99754
G1 X-25.244 Y-61.779 E24.0465
G1 X-24.569 Y-62.038 E24.09159
G1 X-19.476 Y-63.81 E24.42788
G1 X-18.783 Y-64.04 E24.47341
G1 X-18.293 Y-64.178 E24.50516
G1 X-12.784 Y-65.48 E24.85818
G1 X-12.099 Y-65.633 E24.90195
G1 X-11.388 Y-65.747 E24.94686
G1 X-6.023 Y-66.443 E25.28424
G1 X-5.274 Y-66.529 E25.33125
G1 X-4.702 Y-66.566 E25.367
G1 X0.879 Y-66.711 E25.71516
G1 X1.598 Y-66.719 E25.76001
G1 X7.683 Y-66.27 E26.14051
G0 F12000 X7.722 Y-66.769
G1 F1800 X8.492 Y-66.698 E26.18874
G1 X9.096 Y-66.612 E26.22678
G1 X14.532 Y-65.623 E26.57135
G1 X15.317 Y-65.469 E26.62124
G1 X15.886 Y-65.328 E26.6578
G1 X21.233 Y-63.773 E27.00507
G1 X21.95 Y-63.554 E27.05182
G1 X22.521 Y-63.347 E27.0897
G1 X27.661 Y-61.258 E27.4357
G1 X28.365 Y-60.962 E27.48333
G1 X28.819 Y-60.746 E27.51468
G1 X33.616 Y-58.194 E27.85354
G1 X34.119 Y-57.917 E27.88935
G1 X35.345 Y-57.146 E27.97967
G1 X39.587 Y-54.318 E28.29761
G1 X40.241 Y-53.866 E28.34719
G1 X40.725 Y-53.494 E28.38525
G1 X44.984 Y-49.942 E28.73111
G1 X45.559 Y-49.45 E28.7783
G1 X45.968 Y-49.064 E28.81337
G1 X49.888 Y-45.044 E29.16353
G1 X50.403 Y-44.502 E29.21016
G1 X50.802 Y-44.038 E29.24832
G1 X54.28 Y-39.643 E29.59784
G1 X54.707 Y-39.087 E29.64156
G1 X55.032 Y-38.622 E29.67694
G1 X58.04 Y-33.898 E30.0262
G1 X58.444 Y-33.242 E30.07424
G1 X58.737 Y-32.712 E30.11201
G1 X61.233 Y-27.722 E30.45996
G1 X61.553 Y-27.058 E30.50593
G1 X61.757 Y-26.578 E30.53845
G1 X63.75 Y-21.298 E30.8904
G1 X64.008 Y-20.587 E30.93757
G1 X64.183 Y-20.013 E30.97499
G1 X65.587 Y-14.689 E31.31836
G1 X65.789 Y-13.873 E31.37079
G1 X65.896 Y-13.341 E31.40463
G1 X66.755 Y-7.836 E31.75209
G1 X66.866 Y-7.055 E31.80129
G1 X66.916 Y-6.519 E31.83486
G1 X67.208 Y-.917 E32.18469
G1 X67.237 Y-.141 E32.23312
G1 X67.23 Y0.442 E32.26948
G1 X66.944 Y6.03 E32.61841
G1 X66.896 Y6.766 E32.66441
G1 X66.827 Y7.357 E32.70152
G1 X65.966 Y12.895 E33.05103
G1 X65.85 Y13.589 E33.09491
G1 X65.731 Y14.131 E33.12952
G1 X64.3 Y19.575 E33.48055
G1 X64.1 Y20.299 E33.5274
G1 X63.933 Y20.807 E33.56074
G1 X61.936 Y26.112 E33.91424
G1 X61.673 Y26.785 E33.9593
G1 X61.467 Y27.244 E33.99068
G1 X58.942 Y32.305 E34.3434
G1 X58.583 Y32.999 E34.39212
G1 X58.288 Y33.506 E34.4287
G1 X55.297 Y38.211 E34.77639
G1 X54.884 Y38.839 E34.82326
G1 X54.591 Y39.246 E34.85454
G1 X51.081 Y43.686 E35.2075
G1 X50.594 Y44.285 E35.25565
G1 X50.199 Y44.724 E35.29247
G1 X46.336 Y48.69 E35.63774
G1 X45.777 Y49.248 E35.687
G1 X45.405 Y49.586 E35.71834
G1 X41.053 Y53.222 E36.072
G1 X40.487 Y53.682 E36.11749
G1 X40.067 Y53.992 E36.15004
G1 X35.377 Y57.151 E36.50268
G1 X34.724 Y57.576 E36.55127
G1 X34.226 Y57.867 E36.58724
G1 X29.333 Y60.474 E36.93299
G1 X28.633 Y60.836 E36.98214
G1 X28.139 Y61.061 E37.01599
G1 X22.967 Y63.167 E37.36424
G1 X22.21 Y63.464 E37.41495
G1 X21.551 Y63.68 E37.4582
G1 X16.296 Y65.21 E37.79953
G1 X15.575 Y65.408 E37.84615
G1 X15.053 Y65.526 E37.87953
G1 X9.514 Y66.537 E38.23066
G1 X8.786 Y66.66 E38.27671
G1 X8.071 Y66.741 E38.32158
G1 X2.666 Y67.161 E38.65967
G1 X1.87 Y67.211 E38.70941
G1 X1.25 Y67.219 E38.74808
G1 X-4.297 Y67.078 E39.09411
G1 X-5.051 Y67.048 E39.14117
G1 X-5.653 Y66.994 E39.17887
G1 X-11.191 Y66.277 E39.52711
G1 X-11.905 Y66.175 E39.57209
G1 X-12.463 Y66.068 E39.60752
G1 X-17.948 Y64.776 E39.95895
G1 X-18.654 Y64.599 E40.00434
G1 X-19.22 Y64.426 E40.04125
G1 X-24.506 Y62.589 E40.39023
G1 X-25.188 Y62.342 E40.43547
G1 X-25.745 Y62.108 E40.47315
G1 X-30.776 Y59.755 E40.81951
G1 X-31.48 Y59.413 E40.86832
G1 X-32.005 Y59.124 E40.90569
G1 X-36.762 Y56.269 E41.25168
G1 X-37.41 Y55.868 E41.2992
G1 X-37.846 Y55.569 E41.33217
G1 X-42.352 Y52.192 E41.68334
G1 X-42.961 Y51.722 E41.73131
G1 X-43.343 Y51.398 E41.76255
G1 X-47.505 Y47.552 E42.11596
G1 X-48.055 Y47.026 E42.16342
G1 X-48.435 Y46.629 E42.19769
G1 X-52.128 Y42.432 E42.54632
G1 X-52.631 Y41.843 E42.59463
G1 X-52.967 Y41.41 E42.62881
G1 X-56.22 Y36.839 E42.97868
G1 X-56.659 Y36.202 E43.02693
G1 X-56.973 Y35.696 E43.06406
G1 X-59.73 Y30.827 E43.41301
G1 X-60.078 Y30.192 E43.45817
G1 X-60.389 Y29.541 E43.50316
G1 X-62.554 Y24.586 E43.84037
G1 X-62.864 Y23.854 E43.88995
G1 X-63.052 Y23.336 E43.92431
G1 X-64.749 Y18.029 E44.27178
G1 X-64.988 Y17.243 E44.32302
G1 X-65.127 Y16.69 E44.35857
G1 X-66.27 Y11.231 E44.7064
G1 X-66.416 Y10.489 E44.75356
G1 X-66.498 Y9.908 E44.79015
G1 X-67.074 Y4.352 E45.13849
G1 X-67.141 Y3.6 E45.18557
G1 X-67.176 Y2.919 E45.2281
G1 X-67.231 Y0.784 E45.36129
G1 X-67.242 Y-0.066 E45.4143
G1 X-67.235 Y-.642 E45.45022
G1 X-67.183 Y-2.665 E45.57643
G1 X-67.153 Y-3.426 E45.62392
G1 X-67.101 Y-4.09 E45.66546
G1 X-66.548 Y-9.438 E46.00075
G1 X-66.459 Y-10.207 E46.04903
G1 X-66.371 Y-10.738 E46.08259
G1 X-65.223 Y-16.242 E46.43323
G1 X-65.059 Y-16.977 E46.48019
G1 X-64.922 Y-17.479 E46.51264
G1 X-63.216 Y-22.835 E46.86319
G1 X-62.962 Y-23.592 E46.91299
G1 X-62.762 Y-24.108 E46.9475
G1 X-60.525 Y-29.231 E47.29611
G1 X-60.201 Y-29.945 E47.34501
G1 X-59.933 Y-30.465 E47.38149
G1 X-57.177 Y-35.338 E47.73062
G1 X-56.804 Y-35.975 E47.77665
G1 X-56.53 Y-36.397 E47.80803
G1 X-53.278 Y-40.977 E48.15833
G1 X-52.803 Y-41.626 E48.20849
G1 X-52.434 Y-42.081 E48.24502
G1 X-48.771 Y-46.25 E48.59111
G1 X-48.261 Y-46.817 E48.63867
G1 X-47.71 Y-47.361 E48.68695
G1 X-43.759 Y-51.018 E49.0227
G1 X-43.18 Y-51.54 E49.07131
G1 X-42.707 Y-51.924 E49.10931
G1 X-38.244 Y-55.274 E49.45732
G1 X-37.652 Y-55.705 E49.50298
G1 X-37.194 Y-56.007 E49.53719
G1 X-32.371 Y-58.906 E49.88812
G1 X-31.734 Y-59.277 E49.93409
G1 X-31.197 Y-59.556 E49.97183
G1 X-26.172 Y-61.91 E50.31789
G1 X-25.449 Y-62.235 E50.36732
G1 X-24.95 Y-62.433 E50.4008
G1 X-19.64 Y-64.282 E50.75145
G1 X-18.941 Y-64.515 E50.7974
G1 X-18.413 Y-64.663 E50.8316
G1 X-12.899 Y-65.967 E51.18495
G1 X-12.208 Y-66.121 E51.2291
G1 X-11.461 Y-66.242 E51.27629
G1 X-6.087 Y-66.939 E51.61423
G1 X-5.331 Y-67.026 E51.66169
G1 X-4.715 Y-67.066 E51.70019
G1 X0.866 Y-67.211 E52.04835
G1 X1.593 Y-67.219 E52.09369
G1 X7.722 Y-66.769 E52.47694
G1 F3000 E45.97694
G1 F3600 Z1.3
;MESH:Orion Calibration Print.STL
G0 F12000 X-1 Y0.00 Z1.3
;TYPE:WALL-INNER
G1 F3600 Z0.3
G1 F3000 E52.47694
G1 F1500 X-27.378 Y-15.23 E54.37645
G1 X-27.975 Y-14.63 E54.42924
G1 X-28.532 Y-14.071 E54.47845
G1 X-28.562 Y-14.041 E54.48109
G1 X-28.596 Y-14.017 E54.48369
G1 X-28.653 Y-13.977 E54.48803
G1 X-29.42 Y-13.433 E54.54667
G1 X-29.98 Y-13.164 E54.58542
G1 X-30.096 Y-13.108 E54.59345
G1 X-30.114 Y-13.099 E54.59471
G1 X-30.136 Y-13.091 E54.59616
G1 X-30.599 Y-12.915 E54.62705
G1 X-30.667 Y-12.896 E54.63146
G1 X-30.836 Y-12.848 E54.64241
G1 X-31.316 Y-12.712 E54.67353
G1 X-31.359 Y-12.7 E54.67631
G1 X-31.398 Y-12.696 E54.67876
G1 X-31.698 Y-12.664 E54.69757
G1 X-32.352 Y-12.595 E54.73858
G1 X-32.395 Y-12.59 E54.74128
G1 X-32.434 Y-12.592 E54.74372
G1 X-32.508 Y-12.597 E54.74834
G1 X-34.107 Y-12.7 E54.84827
G1 X-35.567 Y-7.466 E55.18713
G1 X-35.606 Y-7.326 E55.1962
G1 X-35.692 Y-6.682 E55.23672
G1 X-36.217 Y-2.784 E55.482
G1 X-36.276 Y-2.347 E55.5095
G1 X-36.273 Y-1.497 E55.56251
G1 X-36.257 Y1.994 E55.78022
G1 X-36.253 Y2.675 E55.82269
G1 X-36.152 Y3.38 E55.8671
G1 X-35.657 Y6.826 E56.08421
G1 X-35.539 Y7.646 E56.13588
G1 X-35.409 Y8.096 E56.16509
G1 X-34.346 Y11.777 E56.40402
G1 X-34.145 Y12.472 E56.44914
G1 X-34.068 Y12.646 E56.46101
G1 X-31.782 Y17.772 E56.81103
G1 X-1 Y0.00 E59.02765
G0 F12000 X-2 Y0.00
;TYPE:WALL-OUTER
G1 F1500 X-2.374 Y-.216 E59.05458
G1 X-27.295 Y-14.605 E60.84918
G1 X-28.239 Y-13.657 E60.93261
G1 X-29.166 Y-13 E61.00347
G1 X-29.914 Y-12.641 E61.05521
G1 X-30.443 Y-12.44 E61.0905
G1 X-31.264 Y-12.208 E61.14371
G1 X-32.386 Y-12.088 E61.21408
G1 X-33.734 Y-12.175 E61.29832
G1 X-35.115 Y-7.225 E61.6188
G1 X-35.776 Y-2.315 E61.92776
G1 X-35.753 Y2.638 E62.23665
G1 X-35.049 Y7.541 E62.54555
G1 X-33.674 Y12.3 E62.85447
G1 X-31.663 Y16.808 E63.16231
G1 X-31.662 Y16.809 E63.1624
G1 X-31.551 Y17.061 E63.17957
G1 X-31.312 Y16.923 E63.19037
G1 X-2.374 Y0.216 E65.27419
G1 X-2 Y0.00 E65.28944
G0 F12000 X-2.216 Y-.125
G0 X-1.94 Y-.6
G1 F3000 E58.78944
G1 F3600 Z1.3
G0 F12000 X1 Y0.00 Z1.3
;TYPE:WALL-INNER
G1 F3600 Z0.3
G1 F3000 E65.28944
G1 F1500 X31.782 Y17.772 E67.50606
G1 X34.077 Y12.622 E67.85767
G1 X34.151 Y12.456 E67.86901
G1 X34.344 Y11.784 E67.91261
G1 X35.414 Y8.069 E68.15371
G1 X35.546 Y7.613 E68.18331
G1 X35.664 Y6.784 E68.23553
G1 X36.155 Y3.338 E68.4526
G1 X36.257 Y2.624 E68.49758
G1 X36.258 Y1.936 E68.54049
G1 X36.268 Y-1.593 E68.76057
G1 X36.271 Y-2.416 E68.81189
G1 X36.214 Y-2.836 E68.83832
G1 X35.681 Y-6.738 E69.08392
G1 X35.589 Y-7.408 E69.1261
G1 X35.548 Y-7.556 E69.13568
G1 X34.072 Y-12.796 E69.47517
G1 X33.025 Y-12.724 E69.54062
G1 X32.474 Y-12.686 E69.57506
G1 X31.821 Y-12.738 E69.61592
G1 X31.629 Y-12.754 E69.62793
G1 X31.603 Y-12.757 E69.62956
G1 X31.582 Y-12.76 E69.63089
G1 X31.145 Y-12.839 E69.65858
G1 X31.126 Y-12.843 E69.65979
G1 X31.102 Y-12.849 E69.66133
G1 X31.083 Y-12.854 E69.66256
G1 X31.024 Y-12.87 E69.66637
G1 X30.506 Y-13.014 E69.6999
G1 X30.469 Y-13.024 E69.70229
G1 X30.437 Y-13.038 E69.70447
G1 X30.289 Y-13.104 E69.71457
G1 X29.878 Y-13.287 E69.74263
G1 X29.802 Y-13.321 E69.74782
G1 X29.426 Y-13.49 E69.77353
G1 X28.794 Y-13.926 E69.82141
G1 X28.388 Y-14.261 E69.85424
G1 X28.265 Y-14.381 E69.86496
G1 X27.388 Y-15.235 E69.9413
G1 X1 Y0.00 E71.8415
G0 F12000 X2 Y0.00
;TYPE:WALL-OUTER
G1 F1500 X2.374 Y0.216 E71.86843
G1 X31.312 Y16.923 E73.95226
G1 X31.551 Y17.061 E73.96947
G1 X31.662 Y16.809 E73.98024
G1 X31.663 Y16.808 E73.98033
G1 X33.68 Y12.284 E74.28923
G1 X35.056 Y7.508 E74.59919
G1 X35.757 Y2.588 E74.90911
G1 X35.771 Y-2.383 E75.21912
G1 X35.098 Y-7.306 E75.52898
G1 X33.701 Y-12.269 E75.85052
G1 X32.475 Y-12.185 E75.92715
G1 X31.534 Y-12.261 E75.98603
G1 X31.015 Y-12.355 E76.01892
G1 X30.303 Y-12.551 E76.06497
G1 X29.414 Y-12.944 E76.12559
G1 X29.178 Y-13.054 E76.14183
G1 X28.487 Y-13.531 E76.19419
G1 X28.055 Y-13.887 E76.2291
G1 X27.31 Y-14.613 E76.29397
G1 X2.374 Y-.216 E78.08963
G1 X2 Y0.00 E78.10488
G0 F12000 X2.216 Y0.125
G0 X1.94 Y0.6
G1 F3000 E71.60488
G1 F3600 Z1.3
G0 F12000 X53.263 Y-31.329 Z1.3
;TYPE:WALL-INNER
G1 F3600 Z0.3
G1 F3000 E78.10488
G1 F1500 X51.865 Y-33.397 E78.26055
G1 X49.684 Y-36.624 E78.50344
G1 X49.356 Y-37.11 E78.54001
G1 X48.215 Y-38.479 E78.65115
G1 X45.72 Y-41.472 E78.89415
G1 X45.379 Y-41.881 E78.92736
G1 X44.072 Y-43.161 E79.04144
G1 X41.263 Y-45.913 E79.28668
G1 X40.942 Y-46.227 E79.31468
G1 X39.541 Y-47.347 E79.42654
G1 X36.394 Y-49.863 E79.67781
G1 X36.091 Y-50.106 E79.70203
G1 X34.074 Y-51.41 E79.85181
G1 X31.151 Y-53.3 E80.06889
G1 X30.875 Y-53.479 E80.0894
G1 X29.254 Y-54.308 E80.20294
G1 X25.559 Y-56.2 E80.46183
G1 X25.347 Y-56.309 E80.47669
G1 X23.781 Y-56.921 E80.58154
G1 X19.728 Y-58.505 E80.85292
