;FLAVOR:RepRap
;TIME:1770
;Filament used: 3.57081m, 0m
;Layer height: 0.2
;Generated with Cura_SteamEngine 3.4.1
T0
M190 S60
M104 S200
M109 S200
M82 ;absolute extrusion mode
M203 Z24000
G28 ;Home
G1 X0 Y-130 Z0.3 F8000 ;Move the platform down 15mm
G92 E0
G1 E160 F5000
G92 E0
G1 Z5
G1 F200 E3
G92 E0
G92 E0
G1 F4200 E-7
;LAYER_COUNT:25
;LAYER:0
M107
M203 Z18000
G0 F18000 X78.15 Y-61.381 Z0.3
;TYPE:SKIRT
G1 F4200 E0.08315
G1 F2100 X78.14 Y62.085 E7.78283
G1 X78.127 Y62.391 E7.80193
G1 X77.984 Y64.137 E7.91118
G1 X77.893 Y64.71 E7.94736
G1 X77.367 Y66.892 E8.08734
G1 X77.212 Y67.383 E8.11944
G1 X76.804 Y68.423 E8.18911
G1 X76.608 Y68.844 E8.21808
G1 X75.73 Y70.459 E8.33271
G1 X75.48 Y70.856 E8.36197
G1 X74.694 Y71.95 E8.44598
G1 X74.354 Y72.359 E8.47915
G1 X72.819 Y73.958 E8.61738
G1 X72.451 Y74.293 E8.64841
G1 X71.613 Y74.961 E8.71524
G1 X71.317 Y75.175 E8.73802
G1 X70.235 Y75.877 E8.81846
G1 X69.868 Y76.087 E8.84482
G1 X68.545 Y76.747 E8.93703
G1 X68.187 Y76.903 E8.96138
G1 X67.125 Y77.301 E9.03211
G1 X66.679 Y77.437 E9.06119
G1 X64.872 Y77.868 E9.17704
G1 X64.407 Y77.948 E9.20646
G1 X63.083 Y78.092 E9.28952
G1 X62.679 Y78.114 E9.31475
G1 X-62.084 Y78.14 E17.09531
G1 X-62.391 Y78.127 E17.11448
G1 X-64.137 Y77.984 E17.22373
G1 X-64.71 Y77.893 E17.25991
G1 X-66.892 Y77.367 E17.39988
G1 X-67.381 Y77.213 E17.43185
G1 X-68.425 Y76.804 E17.50178
G1 X-68.848 Y76.607 E17.53088
G1 X-70.461 Y75.73 E17.64537
G1 X-70.861 Y75.478 E17.67486
G1 X-71.954 Y74.691 E17.75885
G1 X-72.36 Y74.353 E17.7918
G1 X-73.958 Y72.819 E17.92994
G1 X-74.294 Y72.451 E17.96101
G1 X-74.972 Y71.6 E18.02887
G1 X-75.187 Y71.3 E18.05189
G1 X-75.88 Y70.229 E18.13144
G1 X-76.088 Y69.866 E18.15753
G1 X-76.747 Y68.545 E18.24959
G1 X-76.903 Y68.187 E18.27395
G1 X-77.301 Y67.125 E18.34467
G1 X-77.412 Y66.776 E18.36751
G1 X-77.74 Y65.547 E18.44684
G1 X-77.82 Y65.171 E18.47081
G1 X-78.025 Y63.887 E18.5519
G1 X-78.067 Y63.489 E18.57686
G1 X-78.139 Y62.089 E18.66428
G1 X-78.144 Y61.895 E18.67638
G1 X-78.119 Y-62.595 E26.43992
G1 X-78.1 Y-62.97 E26.46334
G1 X-77.97 Y-64.259 E26.54413
G1 X-77.91 Y-64.647 E26.56862
G1 X-77.645 Y-65.921 E26.64977
G1 X-77.505 Y-66.419 E26.68203
G1 X-76.773 Y-68.468 E26.81772
G1 X-76.57 Y-68.933 E26.84936
G1 X-76.05 Y-69.935 E26.91976
G1 X-75.866 Y-70.252 E26.94262
G1 X-75.167 Y-71.327 E27.02259
G1 X-74.869 Y-71.725 E27.05359
G1 X-73.624 Y-73.176 E27.17282
G1 X-73.203 Y-73.595 E27.20987
G1 X-71.544 Y-75.001 E27.34548
G1 X-71.109 Y-75.318 E27.37905
G1 X-70.02 Y-76 E27.45918
G1 X-69.623 Y-76.217 E27.4874
G1 X-68.127 Y-76.919 E27.59045
G1 X-67.627 Y-77.111 E27.62385
G1 X-65.678 Y-77.705 E27.75092
G1 X-65.065 Y-77.837 E27.79002
G1 X-63.158 Y-78.083 E27.90993
G1 X-62.679 Y-78.114 E27.93987
G1 X62.085 Y-78.14 E35.7205
G1 X62.392 Y-78.127 E35.73966
G1 X64.137 Y-77.984 E35.84885
G1 X64.71 Y-77.893 E35.88503
G1 X66.892 Y-77.367 E36.025
G1 X67.382 Y-77.212 E36.05705
G1 X68.42 Y-76.805 E36.12658
G1 X68.841 Y-76.609 E36.15554
G1 X70.459 Y-75.73 E36.27037
G1 X70.858 Y-75.48 E36.29974
G1 X71.951 Y-74.694 E36.38369
G1 X72.265 Y-74.442 E36.4088
G1 X73.237 Y-73.571 E36.4902
G1 X73.596 Y-73.202 E36.5223
G1 X75.001 Y-71.543 E36.65788
G1 X75.316 Y-71.111 E36.69122
G1 X75.999 Y-70.022 E36.77139
G1 X76.217 Y-69.623 E36.79974
G1 X76.919 Y-68.127 E36.9028
G1 X77.06 Y-67.782 E36.92604
G1 X77.388 Y-66.853 E36.98748
G1 X77.493 Y-66.503 E37.01027
G1 X77.806 Y-65.234 E37.09178
G1 X77.879 Y-64.855 E37.11585
G1 X78.055 Y-63.595 E37.19519
G1 X78.089 Y-63.206 E37.21954
G1 X78.148 Y-61.511 E37.32531
G1 X78.15 Y-61.381 E37.33342
G0 F18000 X77.65 Y-61.381
G1 F2100 X77.64 Y62.085 E45.03309
G1 X77.629 Y62.35 E45.04964
G1 X77.486 Y64.096 E45.15889
G1 X77.406 Y64.593 E45.19028
G1 X76.88 Y66.775 E45.33025
G1 X76.747 Y67.2 E45.35802
G1 X76.339 Y68.24 E45.42769
G1 X76.168 Y68.605 E45.45283
G1 X75.29 Y70.22 E45.56747
G1 X75.074 Y70.564 E45.5928
G1 X74.288 Y71.658 E45.67681
G1 X73.994 Y72.013 E45.70555
G1 X72.459 Y73.612 E45.84378
G1 X72.14 Y73.902 E45.87067
G1 X71.302 Y74.57 E45.9375
G1 X71.045 Y74.755 E45.95725
G1 X69.963 Y75.457 E46.03768
G1 X69.645 Y75.639 E46.06053
G1 X68.322 Y76.299 E46.15273
G1 X68.012 Y76.434 E46.17382
G1 X66.95 Y76.832 E46.24455
G1 X66.563 Y76.95 E46.26978
G1 X64.756 Y77.381 E46.38563
G1 X64.353 Y77.451 E46.41114
G1 X63.029 Y77.595 E46.49419
G1 X62.679 Y77.614 E46.51605
G1 X-62.084 Y77.64 E54.29662
G1 X-62.35 Y77.629 E54.31322
G1 X-64.096 Y77.486 E54.42247
G1 X-64.593 Y77.406 E54.45386
G1 X-66.775 Y76.88 E54.59383
G1 X-67.198 Y76.747 E54.62149
G1 X-68.242 Y76.338 E54.69141
G1 X-68.609 Y76.167 E54.71666
G1 X-70.222 Y75.29 E54.83116
G1 X-70.569 Y75.072 E54.85672
G1 X-71.662 Y74.285 E54.94071
G1 X-72.014 Y73.993 E54.96923
G1 X-73.612 Y72.459 E55.10737
G1 X-73.903 Y72.139 E55.13435
G1 X-74.581 Y71.288 E55.2022
G1 X-74.768 Y71.029 E55.22212
G1 X-75.461 Y69.958 E55.30168
G1 X-75.64 Y69.643 E55.32427
G1 X-76.299 Y68.322 E55.41633
G1 X-76.434 Y68.012 E55.43742
G1 X-76.832 Y66.95 E55.50815
G1 X-76.929 Y66.647 E55.52799
G1 X-77.257 Y65.418 E55.60731
G1 X-77.326 Y65.092 E55.62809
G1 X-77.531 Y63.808 E55.70918
G1 X-77.568 Y63.463 E55.73082
G1 X-77.64 Y62.063 E55.81824
G1 X-77.644 Y61.895 E55.82872
G1 X-77.619 Y-62.595 E63.59226
G1 X-77.603 Y-62.92 E63.61256
G1 X-77.473 Y-64.209 E63.69335
G1 X-77.421 Y-64.545 E63.71455
G1 X-77.156 Y-65.819 E63.7957
G1 X-77.035 Y-66.25 E63.82362
G1 X-76.303 Y-68.299 E63.95931
G1 X-76.127 Y-68.703 E63.98679
G1 X-75.607 Y-69.705 E64.05719
G1 X-75.447 Y-69.98 E64.07703
G1 X-74.748 Y-71.055 E64.157
G1 X-74.49 Y-71.399 E64.18382
G1 X-73.245 Y-72.85 E64.30305
G1 X-72.879 Y-73.213 E64.3352
G1 X-71.22 Y-74.619 E64.47081
G1 X-70.844 Y-74.894 E64.49986
G1 X-69.755 Y-75.576 E64.58
G1 X-69.411 Y-75.764 E64.60444
G1 X-67.915 Y-76.466 E64.7075
G1 X-67.481 Y-76.633 E64.7365
G1 X-65.532 Y-77.227 E64.86356
G1 X-65.001 Y-77.341 E64.89743
G1 X-63.094 Y-77.587 E65.01734
G1 X-62.679 Y-77.614 E65.04328
G1 X62.085 Y-77.64 E72.82391
G1 X62.351 Y-77.629 E72.84051
G1 X64.096 Y-77.486 E72.9497
G1 X64.593 Y-77.406 E72.98109
G1 X66.775 Y-76.88 E73.12106
G1 X67.199 Y-76.747 E73.14878
G1 X68.237 Y-76.34 E73.21831
G1 X68.602 Y-76.17 E73.24342
G1 X70.22 Y-75.291 E73.35825
G1 X70.566 Y-75.074 E73.38372
G1 X71.659 Y-74.288 E73.46768
G1 X71.931 Y-74.069 E73.48945
G1 X72.903 Y-73.198 E73.57085
G1 X73.214 Y-72.878 E73.59867
G1 X74.619 Y-71.219 E73.73425
G1 X74.892 Y-70.846 E73.76308
G1 X75.575 Y-69.757 E73.84324
G1 X75.764 Y-69.411 E73.86783
G1 X76.466 Y-67.915 E73.97088
G1 X76.589 Y-67.616 E73.99105
G1 X76.917 Y-66.687 E74.05249
G1 X77.007 Y-66.383 E74.07226
G1 X77.32 Y-65.114 E74.15377
G1 X77.384 Y-64.786 E74.17461
G1 X77.56 Y-63.526 E74.25395
G1 X77.589 Y-63.189 E74.27504
G1 X77.648 Y-61.494 E74.38081
G1 X77.65 Y-61.381 E74.38786
G1 F4200 E67.38786
G1 F18000 Z1.3
G0 X63.27 Y-73.279 Z1.3
;TYPE:WALL-INNER
G1 F18000 Z0.3
G1 F4200 E74.47101
G1 F1800 X62.021 Y-73.349 E74.54902
G1 X-62.021 Y-73.349 E82.28462
G1 X-63.27 Y-73.279 E82.36264
G1 X-64.525 Y-73.065 E82.44203
G1 X-65.748 Y-72.713 E82.5214
G1 X-66.924 Y-72.226 E82.60078
G1 X-68.038 Y-71.611 E82.68013
G1 X-69.076 Y-70.875 E82.75949
G1 X-70.026 Y-70.026 E82.83894
G1 X-70.875 Y-69.076 E82.9184
G1 X-71.611 Y-68.038 E82.99775
G1 X-72.226 Y-66.924 E83.07711
G1 X-72.713 Y-65.748 E83.15649
G1 X-73.065 Y-64.525 E83.23585
G1 X-73.279 Y-63.27 E83.31525
G1 X-73.349 Y-62.021 E83.39326
G1 X-73.349 Y62.021 E91.12886
G1 X-73.279 Y63.27 E91.20687
G1 X-73.065 Y64.525 E91.28627
G1 X-72.713 Y65.748 E91.36563
G1 X-72.226 Y66.924 E91.44501
G1 X-71.611 Y68.038 E91.52437
G1 X-70.875 Y69.076 E91.60372
G1 X-70.026 Y70.026 E91.68318
G1 X-69.076 Y70.875 E91.76263
G1 X-68.038 Y71.611 E91.84199
G1 X-66.924 Y72.226 E91.92134
G1 X-65.748 Y72.713 E92.00072
G1 X-64.525 Y73.065 E92.08009
G1 X-63.27 Y73.279 E92.15948
G1 X-62.021 Y73.349 E92.2375
G1 X62.021 Y73.349 E99.9731
G1 X63.27 Y73.279 E100.05111
G1 X64.525 Y73.065 E100.1305
G1 X65.748 Y72.713 E100.20987
G1 X66.924 Y72.226 E100.28925
G1 X68.038 Y71.611 E100.3686
G1 X69.076 Y70.875 E100.44796
G1 X70.026 Y70.026 E100.52741
G1 X70.875 Y69.076 E100.60687
G1 X71.611 Y68.038 E100.68622
G1 X72.226 Y66.924 E100.76558
G1 X72.713 Y65.748 E100.84496
G1 X73.065 Y64.525 E100.92432
G1 X73.279 Y63.27 E101.00372
G1 X73.349 Y62.021 E101.08173
G1 X73.349 Y-62.021 E108.81733
G1 X73.279 Y-63.27 E108.89535
G1 X73.065 Y-64.525 E108.97474
G1 X72.713 Y-65.748 E109.05411
G1 X72.226 Y-66.924 E109.13348
G1 X71.611 Y-68.038 E109.21284
G1 X70.875 Y-69.076 E109.29219
G1 X70.026 Y-70.026 E109.37165
G1 X69.076 Y-70.875 E109.45111
G1 X68.038 Y-71.611 E109.53046
G1 X66.924 Y-72.226 E109.60981
G1 X65.748 Y-72.713 E109.68919
G1 X64.525 Y-73.065 E109.76856
G1 X63.27 Y-73.279 E109.84795
G0 F18000 X63.214 Y-72.781
;TYPE:WALL-OUTER
G1 F1800 X62.007 Y-72.849 E109.92334
G1 X-62.007 Y-72.849 E117.6572
G1 X-63.214 Y-72.781 E117.73259
G1 X-64.414 Y-72.577 E117.8085
G1 X-65.583 Y-72.24 E117.88437
G1 X-66.707 Y-71.775 E117.96023
G1 X-67.772 Y-71.187 E118.03609
G1 X-68.764 Y-70.483 E118.11195
G1 X-69.672 Y-69.672 E118.18788
G1 X-70.483 Y-68.764 E118.2638
G1 X-71.187 Y-67.772 E118.33966
G1 X-71.775 Y-66.707 E118.41553
G1 X-72.24 Y-65.583 E118.49138
G1 X-72.577 Y-64.414 E118.56726
G1 X-72.781 Y-63.214 E118.64316
G1 X-72.849 Y-62.007 E118.71856
G1 X-72.849 Y62.007 E126.45241
G1 X-72.781 Y63.214 E126.5278
G1 X-72.577 Y64.414 E126.60371
G1 X-72.24 Y65.583 E126.67958
G1 X-71.775 Y66.707 E126.75544
G1 X-71.187 Y67.772 E126.83131
G1 X-70.483 Y68.764 E126.90716
G1 X-69.672 Y69.672 E126.98309
G1 X-68.764 Y70.483 E127.05901
G1 X-67.772 Y71.187 E127.13487
G1 X-66.707 Y71.775 E127.21074
G1 X-65.583 Y72.24 E127.2866
G1 X-64.414 Y72.577 E127.36247
G1 X-63.214 Y72.781 E127.43837
G1 X-62.007 Y72.849 E127.51377
G1 X62.007 Y72.849 E135.24762
G1 X63.214 Y72.781 E135.32301
G1 X64.414 Y72.577 E135.39892
G1 X65.583 Y72.24 E135.47479
G1 X66.707 Y71.775 E135.55065
G1 X67.772 Y71.187 E135.62652
G1 X68.764 Y70.483 E135.70238
G1 X69.672 Y69.672 E135.7783
G1 X70.483 Y68.764 E135.85422
G1 X71.187 Y67.772 E135.93008
G1 X71.775 Y66.707 E136.00595
G1 X72.24 Y65.583 E136.08181
G1 X72.577 Y64.414 E136.15768
G1 X72.781 Y63.214 E136.23359
G1 X72.849 Y62.007 E136.30898
G1 X72.849 Y-62.007 E144.04283
G1 X72.781 Y-63.214 E144.11822
G1 X72.577 Y-64.414 E144.19413
G1 X72.24 Y-65.583 E144.27
G1 X71.775 Y-66.707 E144.34586
G1 X71.187 Y-67.772 E144.42173
G1 X70.483 Y-68.764 E144.49759
G1 X69.672 Y-69.672 E144.57351
G1 X68.764 Y-70.483 E144.64943
G1 X67.772 Y-71.187 E144.72529
G1 X66.707 Y-71.775 E144.80116
G1 X65.583 Y-72.24 E144.87702
G1 X64.414 Y-72.577 E144.95289
G1 X63.214 Y-72.781 E145.0288
G0 F18000 X62.965 Y-72.795
G0 X62.996 Y-73.344
G0 X63.215 Y-73.586
;TYPE:WALL-INNER
G1 F1800 X64.429 Y-73.393 E145.10546
G1 X65.596 Y-73.08 E145.1808
G1 X66.733 Y-72.644 E145.25675
G1 X67.83 Y-72.085 E145.33353
G1 X68.851 Y-71.422 E145.40945
G1 X69.783 Y-70.667 E145.48425
G1 X70.667 Y-69.783 E145.56221
G1 X71.422 Y-68.851 E145.63701
G1 X72.085 Y-67.83 E145.71293
G1 X72.644 Y-66.733 E145.78971
G1 X73.08 Y-65.596 E145.86565
G1 X73.393 Y-64.429 E145.941
G1 X73.586 Y-63.215 E146.01766
G1 X73.65 Y-61.987 E146.09435
G1 X73.651 Y61.987 E153.82571
G1 X73.586 Y63.215 E153.9024
G1 X73.393 Y64.429 E153.97905
G1 X73.08 Y65.596 E154.0544
G1 X72.644 Y66.733 E154.13035
G1 X72.085 Y67.83 E154.20713
G1 X71.422 Y68.851 E154.28305
G1 X70.667 Y69.783 E154.35785
G1 X69.783 Y70.667 E154.43581
G1 X68.851 Y71.422 E154.51061
G1 X67.83 Y72.085 E154.58653
G1 X66.733 Y72.644 E154.66331
G1 X65.596 Y73.08 E154.73925
G1 X64.429 Y73.393 E154.8146
G1 X63.215 Y73.586 E154.89126
G1 X61.98 Y73.65 E154.96838
G1 X-61.98 Y73.651 E162.69887
G1 X-63.215 Y73.586 E162.77599
G1 X-64.429 Y73.393 E162.85265
G1 X-65.596 Y73.08 E162.928
G1 X-66.733 Y72.644 E163.00394
G1 X-67.83 Y72.085 E163.08073
G1 X-68.851 Y71.422 E163.15664
G1 X-69.783 Y70.667 E163.23144
G1 X-70.667 Y69.783 E163.30941
G1 X-71.422 Y68.851 E163.38421
G1 X-72.085 Y67.83 E163.46013
G1 X-72.644 Y66.733 E163.53691
G1 X-73.08 Y65.596 E163.61285
G1 X-73.393 Y64.429 E163.6882
G1 X-73.586 Y63.215 E163.76486
G1 X-73.65 Y61.987 E163.84154
G1 X-73.651 Y-61.987 E171.5729
G1 X-73.586 Y-63.215 E171.64959
G1 X-73.393 Y-64.429 E171.72625
G1 X-73.08 Y-65.596 E171.8016
G1 X-72.644 Y-66.733 E171.87754
G1 X-72.085 Y-67.83 E171.95433
G1 X-71.422 Y-68.851 E172.03024
G1 X-70.667 Y-69.783 E172.10504
G1 X-69.783 Y-70.667 E172.18301
G1 X-68.851 Y-71.422 E172.25781
G1 X-67.83 Y-72.085 E172.33373
G1 X-66.733 Y-72.644 E172.41051
G1 X-65.596 Y-73.08 E172.48645
G1 X-64.429 Y-73.393 E172.5618
G1 X-63.215 Y-73.586 E172.63846
G1 X-61.98 Y-73.65 E172.71558
G1 X61.98 Y-73.651 E180.44607
G1 X63.215 Y-73.586 E180.52319
G0 F18000 X63.272 Y-74.083
;TYPE:WALL-OUTER
G1 F1800 X64.531 Y-73.883 E180.60269
G1 X65.753 Y-73.556 E180.68158
G1 X66.94 Y-73.1 E180.76088
G1 X68.073 Y-72.523 E180.84017
G1 X69.147 Y-71.826 E180.92002
G1 X70.124 Y-71.034 E180.99845
G1 X71.034 Y-70.124 E181.07871
G1 X71.826 Y-69.147 E181.15714
G1 X72.523 Y-68.073 E181.23699
G1 X73.1 Y-66.94 E181.31628
G1 X73.556 Y-65.753 E181.39558
G1 X73.883 Y-64.531 E181.47446
G1 X74.083 Y-63.272 E181.55396
G1 X74.15 Y-61.987 E181.63421
G1 X74.151 Y61.987 E189.36557
G1 X74.083 Y63.272 E189.44582
G1 X73.883 Y64.531 E189.52532
G1 X73.556 Y65.753 E189.60421
G1 X73.1 Y66.94 E189.6835
G1 X72.523 Y68.073 E189.7628
G1 X71.826 Y69.147 E189.84264
G1 X71.034 Y70.124 E189.92108
G1 X70.124 Y71.034 E190.00133
G1 X69.147 Y71.826 E190.07977
G1 X68.073 Y72.523 E190.15961
G1 X66.94 Y73.1 E190.2389
G1 X65.753 Y73.556 E190.3182
G1 X64.531 Y73.883 E190.39709
G1 X63.272 Y74.083 E190.47659
G1 X61.987 Y74.15 E190.55683
G1 X-61.987 Y74.151 E198.28819
G1 X-63.272 Y74.083 E198.36844
G1 X-64.531 Y73.883 E198.44794
G1 X-65.753 Y73.556 E198.52683
G1 X-66.94 Y73.1 E198.60613
G1 X-68.073 Y72.523 E198.68542
G1 X-69.147 Y71.826 E198.76527
G1 X-70.124 Y71.034 E198.8437
G1 X-71.034 Y70.124 E198.92396
G1 X-71.826 Y69.147 E199.00239
G1 X-72.523 Y68.073 E199.08224
G1 X-73.1 Y66.94 E199.16153
G1 X-73.556 Y65.753 E199.24083
G1 X-73.883 Y64.531 E199.31972
G1 X-74.083 Y63.272 E199.39922
G1 X-74.15 Y61.987 E199.47946
G1 X-74.151 Y-61.987 E207.21082
G1 X-74.083 Y-63.272 E207.29107
G1 X-73.883 Y-64.531 E207.37057
G1 X-73.556 Y-65.753 E207.44946
G1 X-73.1 Y-66.94 E207.52876
G1 X-72.523 Y-68.073 E207.60805
G1 X-71.826 Y-69.147 E207.68789
G1 X-71.034 Y-70.124 E207.76633
G1 X-70.124 Y-71.034 E207.84658
G1 X-69.147 Y-71.826 E207.92502
G1 X-68.073 Y-72.523 E208.00486
G1 X-66.94 Y-73.1 E208.08415
G1 X-65.753 Y-73.556 E208.16345
G1 X-64.531 Y-73.883 E208.24234
G1 X-63.272 Y-74.083 E208.32184
G1 X-61.987 Y-74.15 E208.40209
G1 X61.987 Y-74.151 E216.13345
G1 X63.272 Y-74.083 E216.21369
G0 F18000 X63.519 Y-74.044
G0 X63.433 Y-73.501
G0 X63.248 Y-73.081
;TIME_ELAPSED:117.236058
;LAYER:1
M140 S65
M106 S255
G0 X63.248 Y-73.081 Z0.5
;TYPE:WALL-INNER
G1 F2400 X62.021 Y-73.149 E216.26479
G1 X-62.021 Y-73.149 E221.42185
G1 X-63.248 Y-73.081 E221.47294
G1 X-64.48 Y-72.87 E221.52491
G1 X-65.682 Y-72.525 E221.5769
G1 X-66.838 Y-72.046 E221.62892
G1 X-67.931 Y-71.441 E221.68086
G1 X-68.952 Y-70.718 E221.73288
G1 X-69.884 Y-69.884 E221.78487
G1 X-70.718 Y-68.952 E221.83687
G1 X-71.441 Y-67.931 E221.88888
G1 X-72.046 Y-66.838 E221.94082
G1 X-72.525 Y-65.682 E221.99285
G1 X-72.87 Y-64.48 E222.04484
G1 X-73.081 Y-63.248 E222.0968
G1 X-73.149 Y-62.021 E222.14789
G1 X-73.149 Y62.021 E227.30496
G1 X-73.081 Y63.248 E227.35605
G1 X-72.87 Y64.48 E227.40802
G1 X-72.525 Y65.682 E227.46001
G1 X-72.046 Y66.838 E227.51203
G1 X-71.441 Y67.931 E227.56397
G1 X-70.718 Y68.952 E227.61598
G1 X-69.884 Y69.884 E227.66798
G1 X-68.952 Y70.718 E227.71998
G1 X-67.931 Y71.441 E227.77199
G1 X-66.838 Y72.046 E227.82393
G1 X-65.682 Y72.525 E227.87595
G1 X-64.48 Y72.87 E227.92794
G1 X-63.248 Y73.081 E227.97991
G1 X-62.021 Y73.149 E228.031
G1 X62.021 Y73.149 E233.18807
G1 X63.248 Y73.081 E233.23916
G1 X64.48 Y72.87 E233.29113
G1 X65.682 Y72.525 E233.34312
G1 X66.838 Y72.046 E233.39514
G1 X67.931 Y71.441 E233.44708
G1 X68.952 Y70.718 E233.49909
G1 X69.884 Y69.884 E233.55109
G1 X70.718 Y68.952 E233.60309
G1 X71.441 Y67.931 E233.6551
