;FLAVOR:RepRap
;TIME:2004
;Filament used: 3.58126m, 0m
;Layer height: 0.2
;Generated with Cura_SteamEngine 3.4.1
T0
M190 S80
M104 S245
M109 S245
M82 ;absolute extrusion mode
M203 Z14000
G28 ;Home
G1 X0 Y-130 Z0.3 F8000 ;Move the platform down 15mm
G92 E0
G1 E160 F5000
G92 E0
G1 Z5
G1 F200 E3
G92 E0
G92 E0
G1 F4200 E-5.5
;LAYER_COUNT:25
;LAYER:0
M107
M203 Z21000
G0 F15000 X78.15 Y-61.381 Z0.3
;TYPE:SKIRT
G1 F4200 E0.12473
G1 F1500 X78.14 Y62.085 E7.82441
G1 X78.127 Y62.391 E7.84351
G1 X77.984 Y64.137 E7.95276
G1 X77.893 Y64.71 E7.98894
G1 X77.367 Y66.892 E8.12891
G1 X77.212 Y67.383 E8.16102
G1 X76.804 Y68.423 E8.23069
G1 X76.608 Y68.844 E8.25965
G1 X75.73 Y70.459 E8.37429
G1 X75.48 Y70.856 E8.40355
G1 X74.694 Y71.95 E8.48755
G1 X74.354 Y72.359 E8.52072
G1 X72.819 Y73.958 E8.65895
G1 X72.451 Y74.293 E8.68999
G1 X71.613 Y74.961 E8.75682
G1 X71.317 Y75.175 E8.7796
G1 X70.235 Y75.877 E8.86003
G1 X69.868 Y76.087 E8.8864
G1 X68.545 Y76.747 E8.9786
G1 X68.187 Y76.903 E9.00296
G1 X67.125 Y77.301 E9.07368
G1 X66.679 Y77.437 E9.10276
G1 X64.872 Y77.868 E9.21861
G1 X64.407 Y77.948 E9.24804
G1 X63.083 Y78.092 E9.33109
G1 X62.679 Y78.114 E9.35632
G1 X-62.084 Y78.14 E17.13689
G1 X-62.391 Y78.127 E17.15605
G1 X-64.137 Y77.984 E17.2653
G1 X-64.71 Y77.893 E17.30148
G1 X-66.892 Y77.367 E17.44146
G1 X-67.381 Y77.213 E17.47343
G1 X-68.425 Y76.804 E17.54335
G1 X-68.848 Y76.607 E17.57245
G1 X-70.461 Y75.73 E17.68695
G1 X-70.861 Y75.478 E17.71643
G1 X-71.954 Y74.691 E17.80043
G1 X-72.36 Y74.353 E17.83337
G1 X-73.958 Y72.819 E17.97151
G1 X-74.294 Y72.451 E18.00259
G1 X-74.972 Y71.6 E18.07044
G1 X-75.187 Y71.3 E18.09346
G1 X-75.88 Y70.229 E18.17301
G1 X-76.088 Y69.866 E18.1991
G1 X-76.747 Y68.545 E18.29117
G1 X-76.903 Y68.187 E18.31552
G1 X-77.301 Y67.125 E18.38625
G1 X-77.412 Y66.776 E18.40909
G1 X-77.74 Y65.547 E18.48841
G1 X-77.82 Y65.171 E18.51239
G1 X-78.025 Y63.887 E18.59348
G1 X-78.067 Y63.489 E18.61843
G1 X-78.139 Y62.089 E18.70586
G1 X-78.144 Y61.895 E18.71796
G1 X-78.119 Y-62.595 E26.4815
G1 X-78.1 Y-62.97 E26.50491
G1 X-77.97 Y-64.259 E26.58571
G1 X-77.91 Y-64.647 E26.61019
G1 X-77.645 Y-65.921 E26.69134
G1 X-77.505 Y-66.419 E26.7236
G1 X-76.773 Y-68.468 E26.85929
G1 X-76.57 Y-68.933 E26.89094
G1 X-76.05 Y-69.935 E26.96134
G1 X-75.866 Y-70.252 E26.98419
G1 X-75.167 Y-71.327 E27.06416
G1 X-74.869 Y-71.725 E27.09517
G1 X-73.624 Y-73.176 E27.2144
G1 X-73.203 Y-73.595 E27.25144
G1 X-71.544 Y-75.001 E27.38706
G1 X-71.109 Y-75.318 E27.42063
G1 X-70.02 Y-76 E27.50076
G1 X-69.623 Y-76.217 E27.52897
G1 X-68.127 Y-76.919 E27.63203
G1 X-67.627 Y-77.111 E27.66543
G1 X-65.678 Y-77.705 E27.79249
G1 X-65.065 Y-77.837 E27.8316
G1 X-63.158 Y-78.083 E27.95151
G1 X-62.679 Y-78.114 E27.98144
G1 X62.085 Y-78.14 E35.76207
G1 X62.392 Y-78.127 E35.78123
G1 X64.137 Y-77.984 E35.89042
G1 X64.71 Y-77.893 E35.9266
G1 X66.892 Y-77.367 E36.06658
G1 X67.382 Y-77.212 E36.09863
G1 X68.42 Y-76.805 E36.16816
G1 X68.841 Y-76.609 E36.19712
G1 X70.459 Y-75.73 E36.31195
G1 X70.858 Y-75.48 E36.34131
G1 X71.951 Y-74.694 E36.42527
G1 X72.265 Y-74.442 E36.45038
G1 X73.237 Y-73.571 E36.53177
G1 X73.596 Y-73.202 E36.56388
G1 X75.001 Y-71.543 E36.69945
G1 X75.316 Y-71.111 E36.7328
G1 X75.999 Y-70.022 E36.81296
G1 X76.217 Y-69.623 E36.84132
G1 X76.919 Y-68.127 E36.94437
G1 X77.06 Y-67.782 E36.96761
G1 X77.388 Y-66.853 E37.02905
G1 X77.493 Y-66.503 E37.05184
G1 X77.806 Y-65.234 E37.13335
G1 X77.879 Y-64.855 E37.15742
G1 X78.055 Y-63.595 E37.23676
G1 X78.089 Y-63.206 E37.26111
G1 X78.148 Y-61.511 E37.36688
G1 X78.15 Y-61.381 E37.37499
G0 F15000 X77.65 Y-61.381
G1 F1500 X77.64 Y62.085 E45.07467
G1 X77.629 Y62.35 E45.09121
G1 X77.486 Y64.096 E45.20046
G1 X77.406 Y64.593 E45.23185
G1 X76.88 Y66.775 E45.37183
G1 X76.747 Y67.2 E45.3996
G1 X76.339 Y68.24 E45.46927
G1 X76.168 Y68.605 E45.49441
G1 X75.29 Y70.22 E45.60904
G1 X75.074 Y70.564 E45.63437
G1 X74.288 Y71.658 E45.71838
G1 X73.994 Y72.013 E45.74713
G1 X72.459 Y73.612 E45.88536
G1 X72.14 Y73.902 E45.91224
G1 X71.302 Y74.57 E45.97907
G1 X71.045 Y74.755 E45.99882
G1 X69.963 Y75.457 E46.07926
G1 X69.645 Y75.639 E46.10211
G1 X68.322 Y76.299 E46.19431
G1 X68.012 Y76.434 E46.21539
G1 X66.95 Y76.832 E46.28612
G1 X66.563 Y76.95 E46.31135
G1 X64.756 Y77.381 E46.4272
G1 X64.353 Y77.451 E46.45271
G1 X63.029 Y77.595 E46.53577
G1 X62.679 Y77.614 E46.55763
G1 X-62.084 Y77.64 E54.33819
G1 X-62.35 Y77.629 E54.35479
G1 X-64.096 Y77.486 E54.46404
G1 X-64.593 Y77.406 E54.49544
G1 X-66.775 Y76.88 E54.63541
G1 X-67.198 Y76.747 E54.66306
G1 X-68.242 Y76.338 E54.73299
G1 X-68.609 Y76.167 E54.75824
G1 X-70.222 Y75.29 E54.87273
G1 X-70.569 Y75.072 E54.89829
G1 X-71.662 Y74.285 E54.98228
G1 X-72.014 Y73.993 E55.01081
G1 X-73.612 Y72.459 E55.14895
G1 X-73.903 Y72.139 E55.17592
G1 X-74.581 Y71.288 E55.24378
G1 X-74.768 Y71.029 E55.2637
G1 X-75.461 Y69.958 E55.34325
G1 X-75.64 Y69.643 E55.36584
G1 X-76.299 Y68.322 E55.45791
G1 X-76.434 Y68.012 E55.47899
G1 X-76.832 Y66.95 E55.54972
G1 X-76.929 Y66.647 E55.56956
G1 X-77.257 Y65.418 E55.64889
G1 X-77.326 Y65.092 E55.66967
G1 X-77.531 Y63.808 E55.75076
G1 X-77.568 Y63.463 E55.7724
G1 X-77.64 Y62.063 E55.85982
G1 X-77.644 Y61.895 E55.8703
G1 X-77.619 Y-62.595 E63.63384
G1 X-77.603 Y-62.92 E63.65413
G1 X-77.473 Y-64.209 E63.73492
G1 X-77.421 Y-64.545 E63.75613
G1 X-77.156 Y-65.819 E63.83728
G1 X-77.035 Y-66.25 E63.8652
G1 X-76.303 Y-68.299 E64.00089
G1 X-76.127 Y-68.703 E64.02837
G1 X-75.607 Y-69.705 E64.09877
G1 X-75.447 Y-69.98 E64.11861
G1 X-74.748 Y-71.055 E64.19858
G1 X-74.49 Y-71.399 E64.22539
G1 X-73.245 Y-72.85 E64.34462
G1 X-72.879 Y-73.213 E64.37677
G1 X-71.22 Y-74.619 E64.51239
G1 X-70.844 Y-74.894 E64.54144
G1 X-69.755 Y-75.576 E64.62157
G1 X-69.411 Y-75.764 E64.64602
G1 X-67.915 Y-76.466 E64.74907
G1 X-67.481 Y-76.633 E64.77807
G1 X-65.532 Y-77.227 E64.90514
G1 X-65.001 Y-77.341 E64.93901
G1 X-63.094 Y-77.587 E65.05892
G1 X-62.679 Y-77.614 E65.08485
G1 X62.085 Y-77.64 E72.86548
G1 X62.351 Y-77.629 E72.88208
G1 X64.096 Y-77.486 E72.99127
G1 X64.593 Y-77.406 E73.02266
G1 X66.775 Y-76.88 E73.16264
G1 X67.199 Y-76.747 E73.19035
G1 X68.237 Y-76.34 E73.25988
G1 X68.602 Y-76.17 E73.28499
G1 X70.22 Y-75.291 E73.39982
G1 X70.566 Y-75.074 E73.42529
G1 X71.659 Y-74.288 E73.50925
G1 X71.931 Y-74.069 E73.53103
G1 X72.903 Y-73.198 E73.61242
G1 X73.214 Y-72.878 E73.64025
G1 X74.619 Y-71.219 E73.77583
G1 X74.892 Y-70.846 E73.80465
G1 X75.575 Y-69.757 E73.88482
G1 X75.764 Y-69.411 E73.9094
G1 X76.466 Y-67.915 E74.01246
G1 X76.589 Y-67.616 E74.03262
G1 X76.917 Y-66.687 E74.09406
G1 X77.007 Y-66.383 E74.11383
G1 X77.32 Y-65.114 E74.19534
G1 X77.384 Y-64.786 E74.21618
G1 X77.56 Y-63.526 E74.29552
G1 X77.589 Y-63.189 E74.31662
G1 X77.648 Y-61.494 E74.42239
G1 X77.65 Y-61.381 E74.42944
G1 F4200 E68.92944
G1 F21000 Z1.3
G0 F15000 X73.65 Y-61.987 Z1.3
;TYPE:WALL-INNER
G1 F21000 Z0.3
G1 F4200 E74.55416
G1 F1500 X73.651 Y61.987 E82.28552
G1 X73.586 Y63.215 E82.36221
G1 X73.393 Y64.429 E82.43887
G1 X73.08 Y65.596 E82.51422
G1 X72.644 Y66.733 E82.59016
G1 X72.085 Y67.83 E82.66694
G1 X71.422 Y68.851 E82.74286
G1 X70.667 Y69.783 E82.81766
G1 X69.783 Y70.667 E82.89562
G1 X68.851 Y71.422 E82.97042
G1 X67.83 Y72.085 E83.04634
G1 X66.733 Y72.644 E83.12313
G1 X65.596 Y73.08 E83.19907
G1 X64.429 Y73.393 E83.27442
G1 X63.215 Y73.586 E83.35107
G1 X61.98 Y73.65 E83.4282
G1 X-61.98 Y73.651 E91.15868
G1 X-63.215 Y73.586 E91.23581
G1 X-64.429 Y73.393 E91.31247
G1 X-65.596 Y73.08 E91.38782
G1 X-66.733 Y72.644 E91.46376
G1 X-67.83 Y72.085 E91.54054
G1 X-68.851 Y71.422 E91.61646
G1 X-69.783 Y70.667 E91.69126
G1 X-70.667 Y69.783 E91.76922
G1 X-71.422 Y68.851 E91.84402
G1 X-72.085 Y67.83 E91.91994
G1 X-72.644 Y66.733 E91.99672
G1 X-73.08 Y65.596 E92.07266
G1 X-73.393 Y64.429 E92.14801
G1 X-73.586 Y63.215 E92.22467
G1 X-73.65 Y61.987 E92.30136
G1 X-73.651 Y-61.987 E100.03272
G1 X-73.586 Y-63.215 E100.10941
G1 X-73.393 Y-64.429 E100.18607
G1 X-73.08 Y-65.596 E100.26142
G1 X-72.644 Y-66.733 E100.33736
G1 X-72.085 Y-67.83 E100.41414
G1 X-71.422 Y-68.851 E100.49006
G1 X-70.667 Y-69.783 E100.56486
G1 X-69.783 Y-70.667 E100.64282
G1 X-68.851 Y-71.422 E100.71762
G1 X-67.83 Y-72.085 E100.79354
G1 X-66.733 Y-72.644 E100.87032
G1 X-65.596 Y-73.08 E100.94626
G1 X-64.429 Y-73.393 E101.02161
G1 X-63.215 Y-73.586 E101.09827
G1 X-61.98 Y-73.65 E101.17539
G1 X61.98 Y-73.651 E108.90588
G1 X63.215 Y-73.586 E108.98301
G1 X64.429 Y-73.393 E109.05966
G1 X65.596 Y-73.08 E109.13501
G1 X66.733 Y-72.644 E109.21095
G1 X67.83 Y-72.085 E109.28774
G1 X68.851 Y-71.422 E109.36366
G1 X69.783 Y-70.667 E109.43846
G1 X70.667 Y-69.783 E109.51642
G1 X71.422 Y-68.851 E109.59122
G1 X72.085 Y-67.83 E109.66714
G1 X72.644 Y-66.733 E109.74392
G1 X73.08 Y-65.596 E109.81986
G1 X73.393 Y-64.429 E109.89521
G1 X73.586 Y-63.215 E109.97187
G1 X73.65 Y-61.987 E110.04856
G0 F15000 X73.349 Y-62.021
G1 F1500 X73.279 Y-63.27 E110.12657
G1 X73.065 Y-64.525 E110.20596
G1 X72.713 Y-65.748 E110.28533
G1 X72.226 Y-66.924 E110.36471
G1 X71.611 Y-68.038 E110.44406
G1 X70.875 Y-69.076 E110.52342
G1 X70.026 Y-70.026 E110.60287
G1 X69.076 Y-70.875 E110.68233
G1 X68.038 Y-71.611 E110.76168
G1 X66.924 Y-72.226 E110.84104
G1 X65.748 Y-72.713 E110.92042
G1 X64.525 Y-73.065 E110.99978
G1 X63.27 Y-73.279 E111.07918
G1 X62.021 Y-73.349 E111.15719
G1 X-62.021 Y-73.349 E118.89279
G1 X-63.27 Y-73.279 E118.97081
G1 X-64.525 Y-73.065 E119.0502
G1 X-65.748 Y-72.713 E119.12957
G1 X-66.924 Y-72.226 E119.20894
G1 X-68.038 Y-71.611 E119.2883
G1 X-69.076 Y-70.875 E119.36765
G1 X-70.026 Y-70.026 E119.44711
G1 X-70.875 Y-69.076 E119.52657
G1 X-71.611 Y-68.038 E119.60592
G1 X-72.226 Y-66.924 E119.68527
G1 X-72.713 Y-65.748 E119.76465
G1 X-73.065 Y-64.525 E119.84402
G1 X-73.279 Y-63.27 E119.92341
G1 X-73.349 Y-62.021 E120.00143
G1 X-73.349 Y62.021 E127.73703
G1 X-73.279 Y63.27 E127.81504
G1 X-73.065 Y64.525 E127.89444
G1 X-72.713 Y65.748 E127.9738
G1 X-72.226 Y66.924 E128.05318
G1 X-71.611 Y68.038 E128.13254
G1 X-70.875 Y69.076 E128.21189
G1 X-70.026 Y70.026 E128.29135
G1 X-69.076 Y70.875 E128.3708
G1 X-68.038 Y71.611 E128.45015
G1 X-66.924 Y72.226 E128.52951
G1 X-65.748 Y72.713 E128.60889
G1 X-64.525 Y73.065 E128.68825
G1 X-63.27 Y73.279 E128.76765
G1 X-62.021 Y73.349 E128.84566
G1 X62.021 Y73.349 E136.58126
G1 X63.27 Y73.279 E136.65928
G1 X64.525 Y73.065 E136.73867
G1 X65.748 Y72.713 E136.81804
G1 X66.924 Y72.226 E136.89742
G1 X68.038 Y71.611 E136.97677
G1 X69.076 Y70.875 E137.05613
G1 X70.026 Y70.026 E137.13558
G1 X70.875 Y69.076 E137.21504
G1 X71.611 Y68.038 E137.29439
G1 X72.226 Y66.924 E137.37375
G1 X72.713 Y65.748 E137.45312
G1 X73.065 Y64.525 E137.53249
G1 X73.279 Y63.27 E137.61189
G1 X73.349 Y62.021 E137.6899
G1 X73.349 Y-62.021 E145.4255
G0 F15000 X72.849 Y-62.007
;TYPE:WALL-OUTER
G1 F1500 X72.781 Y-63.214 E145.50089
G1 X72.577 Y-64.414 E145.5768
G1 X72.24 Y-65.583 E145.65267
G1 X71.775 Y-66.707 E145.72853
G1 X71.187 Y-67.772 E145.80439
G1 X70.483 Y-68.764 E145.88025
G1 X69.672 Y-69.672 E145.95618
G1 X68.764 Y-70.483 E146.0321
G1 X67.772 Y-71.187 E146.10796
G1 X66.707 Y-71.775 E146.18383
G1 X65.583 Y-72.24 E146.25968
G1 X64.414 Y-72.577 E146.33556
G1 X63.214 Y-72.781 E146.41146
G1 X62.007 Y-72.849 E146.48686
G1 X-62.007 Y-72.849 E154.22071
G1 X-63.214 Y-72.781 E154.2961
G1 X-64.414 Y-72.577 E154.37201
G1 X-65.583 Y-72.24 E154.44788
G1 X-66.707 Y-71.775 E154.52374
G1 X-67.772 Y-71.187 E154.59961
G1 X-68.764 Y-70.483 E154.67546
G1 X-69.672 Y-69.672 E154.75139
G1 X-70.483 Y-68.764 E154.82731
G1 X-71.187 Y-67.772 E154.90317
G1 X-71.775 Y-66.707 E154.97904
G1 X-72.24 Y-65.583 E155.0549
G1 X-72.577 Y-64.414 E155.13077
G1 X-72.781 Y-63.214 E155.20668
G1 X-72.849 Y-62.007 E155.28207
G1 X-72.849 Y62.007 E163.01592
G1 X-72.781 Y63.214 E163.09131
G1 X-72.577 Y64.414 E163.16722
G1 X-72.24 Y65.583 E163.24309
G1 X-71.775 Y66.707 E163.31895
G1 X-71.187 Y67.772 E163.39482
G1 X-70.483 Y68.764 E163.47068
G1 X-69.672 Y69.672 E163.5466
G1 X-68.764 Y70.483 E163.62252
G1 X-67.772 Y71.187 E163.69838
G1 X-66.707 Y71.775 E163.77425
G1 X-65.583 Y72.24 E163.85011
G1 X-64.414 Y72.577 E163.92598
G1 X-63.214 Y72.781 E164.00189
G1 X-62.007 Y72.849 E164.07728
G1 X62.007 Y72.849 E171.81113
G1 X63.214 Y72.781 E171.88652
G1 X64.414 Y72.577 E171.96243
G1 X65.583 Y72.24 E172.0383
G1 X66.707 Y71.775 E172.11416
G1 X67.772 Y71.187 E172.19003
G1 X68.764 Y70.483 E172.26589
G1 X69.672 Y69.672 E172.34181
G1 X70.483 Y68.764 E172.41773
G1 X71.187 Y67.772 E172.49359
G1 X71.775 Y66.707 E172.56946
G1 X72.24 Y65.583 E172.64532
G1 X72.577 Y64.414 E172.72119
G1 X72.781 Y63.214 E172.7971
G1 X72.849 Y62.007 E172.87249
G1 X72.849 Y-62.007 E180.60634
G0 F15000 X72.835 Y-62.256
G0 X74.15 Y-61.987
G1 F1500 X74.151 Y61.987 E188.3377
G1 X74.083 Y63.272 E188.41795
G1 X73.883 Y64.531 E188.49745
G1 X73.556 Y65.753 E188.57634
G1 X73.1 Y66.94 E188.65564
G1 X72.523 Y68.073 E188.73493
G1 X71.826 Y69.147 E188.81477
G1 X71.034 Y70.124 E188.89321
G1 X70.124 Y71.034 E188.97346
G1 X69.147 Y71.826 E189.0519
G1 X68.073 Y72.523 E189.13174
G1 X66.94 Y73.1 E189.21104
G1 X65.753 Y73.556 E189.29033
G1 X64.531 Y73.883 E189.36922
G1 X63.272 Y74.083 E189.44872
G1 X61.987 Y74.15 E189.52897
G1 X-61.987 Y74.151 E197.26033
G1 X-63.272 Y74.083 E197.34058
G1 X-64.531 Y73.883 E197.42008
G1 X-65.753 Y73.556 E197.49896
G1 X-66.94 Y73.1 E197.57826
G1 X-68.073 Y72.523 E197.65755
G1 X-69.147 Y71.826 E197.7374
G1 X-70.124 Y71.034 E197.81583
G1 X-71.034 Y70.124 E197.89609
G1 X-71.826 Y69.147 E197.97452
G1 X-72.523 Y68.073 E198.05437
G1 X-73.1 Y66.94 E198.13366
G1 X-73.556 Y65.753 E198.21296
G1 X-73.883 Y64.531 E198.29185
G1 X-74.083 Y63.272 E198.37135
G1 X-74.15 Y61.987 E198.45159
G1 X-74.151 Y-61.987 E206.18295
G1 X-74.083 Y-63.272 E206.2632
G1 X-73.883 Y-64.531 E206.3427
G1 X-73.556 Y-65.753 E206.42159
G1 X-73.1 Y-66.94 E206.50089
G1 X-72.523 Y-68.073 E206.58018
G1 X-71.826 Y-69.147 E206.66003
G1 X-71.034 Y-70.124 E206.73846
G1 X-70.124 Y-71.034 E206.81872
G1 X-69.147 Y-71.826 E206.89715
G1 X-68.073 Y-72.523 E206.977
G1 X-66.94 Y-73.1 E207.05629
G1 X-65.753 Y-73.556 E207.13559
G1 X-64.531 Y-73.883 E207.21447
G1 X-63.272 Y-74.083 E207.29397
G1 X-61.987 Y-74.15 E207.37422
G1 X61.987 Y-74.151 E215.10558
G1 X63.272 Y-74.083 E215.18583
G1 X64.531 Y-73.883 E215.26533
G1 X65.753 Y-73.556 E215.34421
G1 X66.94 Y-73.1 E215.42351
G1 X68.073 Y-72.523 E215.50281
G1 X69.147 Y-71.826 E215.58265
G1 X70.124 Y-71.034 E215.66108
G1 X71.034 Y-70.124 E215.74134
G1 X71.826 Y-69.147 E215.81977
G1 X72.523 Y-68.073 E215.89962
G1 X73.1 Y-66.94 E215.97891
G1 X73.556 Y-65.753 E216.05821
G1 X73.883 Y-64.531 E216.1371
G1 X74.083 Y-63.272 E216.2166
G1 X74.15 Y-61.987 E216.29684
G0 F15000 X74.15 Y-61.737
G0 X73.55 Y-61.737
G0 X73.103 Y-64.533
G0 X72.75 Y-65.761
G0 X72.262 Y-66.941
G0 X71.644 Y-68.059
G0 X70.906 Y-69.1
G0 X70.054 Y-70.054
G0 X69.1 Y-70.906
G0 X68.059 Y-71.644
G0 X66.941 Y-72.262
G0 X65.761 Y-72.75
G0 X64.533 Y-73.103
G0 X63.274 Y-73.318
G0 X62.565 Y-73.357
G0 X-62.023 Y-73.448
G0 X-62.021 Y-73.149
;TIME_ELAPSED:146.161337
;LAYER:1
M140 S80
G0 F21000 X-62.021 Y-73.149 Z0.5
;TYPE:WALL-INNER
G1 F2700 X-63.248 Y-73.081 E216.34794
G1 X-64.48 Y-72.87 E216.3999
G1 X-65.682 Y-72.525 E216.45189
G1 X-66.838 Y-72.046 E216.50392
G1 X-67.931 Y-71.441 E216.55585
G1 X-68.952 Y-70.718 E216.60787
G1 X-69.884 Y-69.884 E216.65987
G1 X-70.718 Y-68.952 E216.71186
G1 X-71.441 Y-67.931 E216.76388
G1 X-72.046 Y-66.838 E216.81581
G1 X-72.525 Y-65.682 E216.86784
G1 X-72.87 Y-64.48 E216.91983
G1 X-73.081 Y-63.248 E216.97179
G1 X-73.149 Y-62.021 E217.02289
G1 X-73.149 Y62.021 E222.17995
G1 X-73.081 Y63.248 E222.23104
G1 X-72.87 Y64.48 E222.28301
G1 X-72.525 Y65.682 E222.335
G1 X-72.046 Y66.838 E222.38702
G1 X-71.441 Y67.931 E222.43896
G1 X-70.718 Y68.952 E222.49098
G1 X-69.884 Y69.884 E222.54297
G1 X-68.952 Y70.718 E222.59497
G1 X-67.931 Y71.441 E222.64698
G1 X-66.838 Y72.046 E222.69892
G1 X-65.682 Y72.525 E222.75095
G1 X-64.48 Y72.87 E222.80294
G1 X-63.248 Y73.081 E222.8549
G1 X-62.021 Y73.149 E222.90599
G1 X62.021 Y73.149 E228.06306
G1 X63.248 Y73.081 E228.11415
G1 X64.48 Y72.87 E228.16612
G1 X65.682 Y72.525 E228.21811
