;FLAVOR:RepRap
;TIME:1646
;Filament used: 3.57493m
;Layer height: 0.2
;Generated with Cura_SteamEngine 3.4.1
T0
M190 S65
M104 S200
M109 S200
M82 ;absolute extrusion mode
M203 Z14000
G28 ;Home
G1 Z15.0 F6000 ;Move the platform down 15mm
G92 E0
G1 F200 E3
G92 E0
G92 E0
G1 F3000 E-3.2
;LAYER_COUNT:25
;LAYER:0
M107
M203 Z24000
G0 F24000 X78.65 Y-61.381 Z0.3
;TYPE:SKIRT
G1 F3000 E0
G1 F1800 X78.64 Y62.085 E7.69968
G1 X78.626 Y62.432 E7.72134
G1 X78.483 Y64.178 E7.83059
G1 X78.379 Y64.827 E7.87158
G1 X77.853 Y67.009 E8.01155
G1 X77.677 Y67.565 E8.04792
G1 X77.269 Y68.605 E8.11759
G1 X77.047 Y69.083 E8.15046
G1 X76.169 Y70.698 E8.26509
G1 X75.887 Y71.148 E8.29821
G1 X75.101 Y72.242 E8.38222
G1 X74.715 Y72.705 E8.41981
G1 X73.18 Y74.304 E8.55804
G1 X72.763 Y74.684 E8.59323
G1 X71.925 Y75.352 E8.66006
G1 X71.589 Y75.594 E8.68588
G1 X70.507 Y76.296 E8.76631
G1 X70.091 Y76.534 E8.7962
G1 X68.768 Y77.194 E8.88841
G1 X68.362 Y77.371 E8.91603
G1 X67.3 Y77.769 E8.98675
G1 X66.795 Y77.923 E9.01968
G1 X64.988 Y78.354 E9.13553
G1 X64.462 Y78.445 E9.16882
G1 X63.138 Y78.589 E9.25187
G1 X62.679 Y78.614 E9.28054
G1 X-62.084 Y78.64 E17.06111
G1 X-62.432 Y78.626 E17.08283
G1 X-64.178 Y78.483 E17.19208
G1 X-64.827 Y78.379 E17.23307
G1 X-67.009 Y77.853 E17.37304
G1 X-67.563 Y77.678 E17.40927
G1 X-68.607 Y77.269 E17.4792
G1 X-69.087 Y77.046 E17.5122
G1 X-70.7 Y76.169 E17.6267
G1 X-71.153 Y75.884 E17.66008
G1 X-72.246 Y75.097 E17.74407
G1 X-72.706 Y74.714 E17.7814
G1 X-74.304 Y73.18 E17.91954
G1 X-74.685 Y72.762 E17.95481
G1 X-75.363 Y71.911 E18.02267
G1 X-75.607 Y71.572 E18.04871
G1 X-76.3 Y70.501 E18.12827
G1 X-76.535 Y70.089 E18.15785
G1 X-77.194 Y68.768 E18.24991
G1 X-77.371 Y68.362 E18.27753
G1 X-77.769 Y67.3 E18.34826
G1 X-77.895 Y66.905 E18.37411
G1 X-78.223 Y65.676 E18.45344
G1 X-78.314 Y65.25 E18.48061
G1 X-78.519 Y63.966 E18.56169
G1 X-78.566 Y63.514 E18.59003
G1 X-78.638 Y62.114 E18.67746
G1 X-78.644 Y61.895 E18.69112
G1 X-78.619 Y-62.595 E26.45466
G1 X-78.598 Y-63.02 E26.4812
G1 X-78.468 Y-64.309 E26.56199
G1 X-78.4 Y-64.749 E26.58975
G1 X-78.135 Y-66.023 E26.6709
G1 X-77.976 Y-66.587 E26.70745
G1 X-77.244 Y-68.636 E26.84314
G1 X-77.014 Y-69.164 E26.87905
G1 X-76.494 Y-70.166 E26.94946
G1 X-76.285 Y-70.525 E26.97536
G1 X-75.586 Y-71.6 E27.05533
G1 X-75.248 Y-72.051 E27.09048
G1 X-74.003 Y-73.502 E27.20971
G1 X-73.526 Y-73.976 E27.25164
G1 X-71.867 Y-75.382 E27.38726
G1 X-71.375 Y-75.742 E27.42528
G1 X-70.286 Y-76.424 E27.50541
G1 X-69.835 Y-76.669 E27.53742
G1 X-68.339 Y-77.371 E27.64048
G1 X-67.773 Y-77.589 E27.6783
G1 X-65.824 Y-78.183 E27.80537
G1 X-65.129 Y-78.333 E27.84971
G1 X-63.222 Y-78.579 E27.96962
G1 X-62.679 Y-78.614 E28.00355
G1 X62.085 Y-78.64 E35.78418
G1 X62.433 Y-78.626 E35.8059
G1 X64.178 Y-78.483 E35.91508
G1 X64.827 Y-78.379 E35.95607
G1 X67.009 Y-77.853 E36.09605
G1 X67.564 Y-77.678 E36.13234
G1 X68.602 Y-77.271 E36.20187
G1 X69.08 Y-77.048 E36.23476
G1 X70.698 Y-76.169 E36.34959
G1 X71.15 Y-75.885 E36.38289
G1 X72.243 Y-75.099 E36.46684
G1 X72.598 Y-74.814 E36.49523
G1 X73.57 Y-73.943 E36.57663
G1 X73.977 Y-73.525 E36.61301
G1 X75.382 Y-71.866 E36.74859
G1 X75.739 Y-71.377 E36.78634
G1 X76.422 Y-70.288 E36.86651
G1 X76.669 Y-69.835 E36.89869
G1 X77.371 Y-68.339 E37.00174
G1 X77.532 Y-67.949 E37.02805
G1 X77.86 Y-67.02 E37.08949
G1 X77.978 Y-66.623 E37.11532
G1 X78.291 Y-65.354 E37.19683
G1 X78.374 Y-64.924 E37.22414
G1 X78.55 Y-63.664 E37.30348
G1 X78.588 Y-63.224 E37.33102
G1 X78.647 Y-61.529 E37.43679
G1 X78.65 Y-61.381 E37.44603
G0 F24000 X78.15 Y-61.381
G1 F1800 X78.14 Y62.085 E45.1457
G1 X78.127 Y62.391 E45.1648
G1 X77.984 Y64.137 E45.27405
G1 X77.893 Y64.71 E45.31024
G1 X77.367 Y66.892 E45.45021
G1 X77.212 Y67.383 E45.48232
G1 X76.804 Y68.423 E45.55199
G1 X76.608 Y68.844 E45.58095
G1 X75.73 Y70.459 E45.69559
G1 X75.48 Y70.856 E45.72485
G1 X74.694 Y71.95 E45.80885
G1 X74.354 Y72.359 E45.84202
G1 X72.819 Y73.958 E45.98025
G1 X72.451 Y74.293 E46.01129
G1 X71.613 Y74.961 E46.07812
G1 X71.317 Y75.175 E46.1009
G1 X70.235 Y75.877 E46.18133
G1 X69.868 Y76.087 E46.2077
G1 X68.545 Y76.747 E46.2999
G1 X68.187 Y76.903 E46.32426
G1 X67.125 Y77.301 E46.39498
G1 X66.679 Y77.437 E46.42406
G1 X64.872 Y77.868 E46.53991
G1 X64.407 Y77.948 E46.56934
G1 X63.083 Y78.092 E46.65239
G1 X62.679 Y78.114 E46.67762
G1 X-62.084 Y78.14 E54.45819
G1 X-62.391 Y78.127 E54.47735
G1 X-64.137 Y77.984 E54.5866
G1 X-64.71 Y77.893 E54.62278
G1 X-66.892 Y77.367 E54.76276
G1 X-67.381 Y77.213 E54.79473
G1 X-68.425 Y76.804 E54.86465
G1 X-68.848 Y76.607 E54.89375
G1 X-70.461 Y75.73 E55.00825
G1 X-70.861 Y75.478 E55.03773
G1 X-71.954 Y74.691 E55.12173
G1 X-72.36 Y74.353 E55.15467
G1 X-73.958 Y72.819 E55.29281
G1 X-74.294 Y72.451 E55.32389
G1 X-74.972 Y71.6 E55.39174
G1 X-75.187 Y71.3 E55.41476
G1 X-75.88 Y70.229 E55.49431
G1 X-76.088 Y69.866 E55.5204
G1 X-76.747 Y68.545 E55.61247
G1 X-76.903 Y68.187 E55.63682
G1 X-77.301 Y67.125 E55.70755
G1 X-77.412 Y66.776 E55.73039
G1 X-77.74 Y65.547 E55.80971
G1 X-77.82 Y65.171 E55.83369
G1 X-78.025 Y63.887 E55.91477
G1 X-78.067 Y63.489 E55.93973
G1 X-78.139 Y62.089 E56.02716
G1 X-78.144 Y61.895 E56.03926
G1 X-78.119 Y-62.595 E63.8028
G1 X-78.1 Y-62.97 E63.82621
G1 X-77.97 Y-64.259 E63.90701
G1 X-77.91 Y-64.647 E63.93149
G1 X-77.645 Y-65.921 E64.01264
G1 X-77.505 Y-66.419 E64.0449
G1 X-76.773 Y-68.468 E64.18059
G1 X-76.57 Y-68.933 E64.21224
G1 X-76.05 Y-69.935 E64.28264
G1 X-75.866 Y-70.252 E64.30549
G1 X-75.167 Y-71.327 E64.38546
G1 X-74.869 Y-71.725 E64.41647
G1 X-73.624 Y-73.176 E64.5357
G1 X-73.203 Y-73.595 E64.57274
G1 X-71.544 Y-75.001 E64.70836
G1 X-71.109 Y-75.318 E64.74193
G1 X-70.02 Y-76 E64.82206
G1 X-69.623 Y-76.217 E64.85027
G1 X-68.127 Y-76.919 E64.95333
G1 X-67.627 Y-77.111 E64.98673
G1 X-65.678 Y-77.705 E65.11379
G1 X-65.065 Y-77.837 E65.1529
G1 X-63.158 Y-78.083 E65.27281
G1 X-62.679 Y-78.114 E65.30274
G1 X62.085 Y-78.14 E73.08337
G1 X62.392 Y-78.127 E73.10253
G1 X64.137 Y-77.984 E73.21172
G1 X64.71 Y-77.893 E73.2479
G1 X66.892 Y-77.367 E73.38788
G1 X67.382 Y-77.212 E73.41993
G1 X68.42 Y-76.805 E73.48946
G1 X68.841 Y-76.609 E73.51842
G1 X70.459 Y-75.73 E73.63325
G1 X70.858 Y-75.48 E73.66261
G1 X71.951 Y-74.694 E73.74657
G1 X72.265 Y-74.442 E73.77168
G1 X73.237 Y-73.571 E73.85307
G1 X73.596 Y-73.202 E73.88518
G1 X75.001 Y-71.543 E74.02075
G1 X75.316 Y-71.111 E74.0541
G1 X75.999 Y-70.022 E74.13426
G1 X76.217 Y-69.623 E74.16262
G1 X76.919 Y-68.127 E74.26567
G1 X77.06 Y-67.782 E74.28891
G1 X77.388 Y-66.853 E74.35035
G1 X77.493 Y-66.503 E74.37314
G1 X77.806 Y-65.234 E74.45465
G1 X77.879 Y-64.855 E74.47872
G1 X78.055 Y-63.595 E74.55806
G1 X78.089 Y-63.206 E74.58241
G1 X78.148 Y-61.511 E74.68818
G1 X78.15 Y-61.381 E74.69629
G0 F24000 X77.65 Y-61.381
G1 F1800 X77.64 Y62.085 E82.39597
G1 X77.629 Y62.35 E82.41251
G1 X77.486 Y64.096 E82.52176
G1 X77.406 Y64.593 E82.55315
G1 X76.88 Y66.775 E82.69313
G1 X76.747 Y67.2 E82.7209
G1 X76.339 Y68.24 E82.79057
G1 X76.168 Y68.605 E82.8157
G1 X75.29 Y70.22 E82.93034
G1 X75.074 Y70.564 E82.95567
G1 X74.288 Y71.658 E83.03968
G1 X73.994 Y72.013 E83.06843
G1 X72.459 Y73.612 E83.20666
G1 X72.14 Y73.902 E83.23354
G1 X71.302 Y74.57 E83.30037
G1 X71.045 Y74.755 E83.32012
G1 X69.963 Y75.457 E83.40056
G1 X69.645 Y75.639 E83.4234
G1 X68.322 Y76.299 E83.51561
G1 X68.012 Y76.434 E83.53669
G1 X66.95 Y76.832 E83.60742
G1 X66.563 Y76.95 E83.63265
G1 X64.756 Y77.381 E83.7485
G1 X64.353 Y77.451 E83.77401
G1 X63.029 Y77.595 E83.85707
G1 X62.679 Y77.614 E83.87893
G1 X-62.084 Y77.64 E91.65949
G1 X-62.35 Y77.629 E91.67609
G1 X-64.096 Y77.486 E91.78534
G1 X-64.593 Y77.406 E91.81674
G1 X-66.775 Y76.88 E91.95671
G1 X-67.198 Y76.747 E91.98436
G1 X-68.242 Y76.338 E92.05429
G1 X-68.609 Y76.167 E92.07954
G1 X-70.222 Y75.29 E92.19403
G1 X-70.569 Y75.072 E92.21959
G1 X-71.662 Y74.285 E92.30358
G1 X-72.014 Y73.993 E92.33211
G1 X-73.612 Y72.459 E92.47025
G1 X-73.903 Y72.139 E92.49722
G1 X-74.581 Y71.288 E92.56507
G1 X-74.768 Y71.029 E92.585
G1 X-75.461 Y69.958 E92.66455
G1 X-75.64 Y69.643 E92.68714
G1 X-76.299 Y68.322 E92.77921
G1 X-76.434 Y68.012 E92.80029
G1 X-76.832 Y66.95 E92.87102
G1 X-76.929 Y66.647 E92.89086
G1 X-77.257 Y65.418 E92.97019
G1 X-77.326 Y65.092 E92.99097
G1 X-77.531 Y63.808 E93.07206
G1 X-77.568 Y63.463 E93.0937
G1 X-77.64 Y62.063 E93.18112
G1 X-77.644 Y61.895 E93.1916
G1 X-77.619 Y-62.595 E100.95514
G1 X-77.603 Y-62.92 E100.97543
G1 X-77.473 Y-64.209 E101.05622
G1 X-77.421 Y-64.545 E101.07743
G1 X-77.156 Y-65.819 E101.15858
G1 X-77.035 Y-66.25 E101.18649
G1 X-76.303 Y-68.299 E101.32219
G1 X-76.127 Y-68.703 E101.34967
G1 X-75.607 Y-69.705 E101.42007
G1 X-75.447 Y-69.98 E101.43991
G1 X-74.748 Y-71.055 E101.51988
G1 X-74.49 Y-71.399 E101.54669
G1 X-73.245 Y-72.85 E101.66592
G1 X-72.879 Y-73.213 E101.69807
G1 X-71.22 Y-74.619 E101.83369
G1 X-70.844 Y-74.894 E101.86274
G1 X-69.755 Y-75.576 E101.94287
G1 X-69.411 Y-75.764 E101.96732
G1 X-67.915 Y-76.466 E102.07037
G1 X-67.481 Y-76.633 E102.09937
G1 X-65.532 Y-77.227 E102.22644
G1 X-65.001 Y-77.341 E102.26031
G1 X-63.094 Y-77.587 E102.38022
G1 X-62.679 Y-77.614 E102.40615
G1 X62.085 Y-77.64 E110.18678
G1 X62.351 Y-77.629 E110.20338
G1 X64.096 Y-77.486 E110.31257
G1 X64.593 Y-77.406 E110.34396
G1 X66.775 Y-76.88 E110.48394
G1 X67.199 Y-76.747 E110.51165
G1 X68.237 Y-76.34 E110.58118
G1 X68.602 Y-76.17 E110.60629
G1 X70.22 Y-75.291 E110.72112
G1 X70.566 Y-75.074 E110.74659
G1 X71.659 Y-74.288 E110.83055
G1 X71.931 Y-74.069 E110.85233
G1 X72.903 Y-73.198 E110.93372
G1 X73.214 Y-72.878 E110.96155
G1 X74.619 Y-71.219 E111.09713
G1 X74.892 Y-70.846 E111.12595
G1 X75.575 Y-69.757 E111.20612
G1 X75.764 Y-69.411 E111.2307
G1 X76.466 Y-67.915 E111.33376
G1 X76.589 Y-67.616 E111.35392
G1 X76.917 Y-66.687 E111.41536
G1 X77.007 Y-66.383 E111.43513
G1 X77.32 Y-65.114 E111.51664
G1 X77.384 Y-64.786 E111.53748
G1 X77.56 Y-63.526 E111.61682
G1 X77.589 Y-63.189 E111.63792
G1 X77.648 Y-61.494 E111.74369
G1 X77.65 Y-61.381 E111.75073
G1 F3000 E108.55073
G1 F24000 Z1.3
G0 X73.647 Y-62.036 Z1.3
;TYPE:WALL-INNER
G1 F24000 Z0.3
G1 F3000 E111.75073
G1 F1800 X73.65 Y-61.987 E111.7538
G1 X73.651 Y61.987 E119.48516
G1 X73.649 Y62.035 E119.48815
G1 X73.586 Y63.215 E119.56184
G1 X73.57 Y63.315 E119.56816
G1 X73.393 Y64.429 E119.6385
G1 X73.348 Y64.599 E119.64947
G1 X73.08 Y65.596 E119.71385
G1 X72.983 Y65.851 E119.73087
G1 X72.644 Y66.733 E119.78979
G1 X72.481 Y67.053 E119.81219
G1 X72.085 Y67.83 E119.86658
G1 X71.85 Y68.192 E119.89349
G1 X71.422 Y68.851 E119.9425
G1 X71.096 Y69.254 E119.97482
G1 X70.667 Y69.783 E120.0173
G1 X70.225 Y70.225 E120.05628
G1 X69.783 Y70.667 E120.09526
G1 X69.255 Y71.095 E120.13765
G1 X68.851 Y71.422 E120.17006
G1 X68.193 Y71.849 E120.21898
G1 X67.83 Y72.085 E120.24598
G1 X67.054 Y72.48 E120.30028
G1 X66.733 Y72.644 E120.32276
G1 X65.852 Y72.982 E120.38161
G1 X65.596 Y73.08 E120.3987
G1 X64.601 Y73.346 E120.46293
G1 X64.429 Y73.393 E120.47405
G1 X63.317 Y73.569 E120.54426
G1 X63.215 Y73.586 E120.55071
G1 X62.036 Y73.647 E120.62433
G1 X61.98 Y73.65 E120.62783
G1 X-61.98 Y73.651 E128.35832
G1 X-62.035 Y73.649 E128.36175
G1 X-63.215 Y73.586 E128.43544
G1 X-63.315 Y73.57 E128.44176
G1 X-64.429 Y73.393 E128.5121
G1 X-64.599 Y73.348 E128.52307
G1 X-65.596 Y73.08 E128.58745
G1 X-65.851 Y72.983 E128.60447
G1 X-66.733 Y72.644 E128.66339
G1 X-67.053 Y72.481 E128.68579
G1 X-67.83 Y72.085 E128.74018
G1 X-68.192 Y71.85 E128.76709
G1 X-68.851 Y71.422 E128.8161
G1 X-69.254 Y71.096 E128.84842
G1 X-69.783 Y70.667 E128.8909
G1 X-70.225 Y70.225 E128.92988
G1 X-70.667 Y69.783 E128.96886
G1 X-71.095 Y69.255 E129.01125
G1 X-71.422 Y68.851 E129.04366
G1 X-71.849 Y68.193 E129.09258
G1 X-72.085 Y67.83 E129.11958
G1 X-72.48 Y67.054 E129.17388
G1 X-72.644 Y66.733 E129.19636
G1 X-72.982 Y65.852 E129.25521
G1 X-73.08 Y65.596 E129.2723
G1 X-73.346 Y64.601 E129.33653
G1 X-73.393 Y64.429 E129.34765
G1 X-73.569 Y63.317 E129.41786
G1 X-73.586 Y63.215 E129.42431
G1 X-73.647 Y62.036 E129.49793
G1 X-73.65 Y61.987 E129.501
G1 X-73.651 Y-61.987 E137.23236
G1 X-73.649 Y-62.035 E137.23535
G1 X-73.586 Y-63.215 E137.30904
G1 X-73.57 Y-63.315 E137.31536
G1 X-73.393 Y-64.429 E137.3857
G1 X-73.348 Y-64.599 E137.39667
G1 X-73.08 Y-65.596 E137.46105
G1 X-72.983 Y-65.851 E137.47807
G1 X-72.644 Y-66.733 E137.53699
G1 X-72.481 Y-67.053 E137.55939
G1 X-72.085 Y-67.83 E137.61378
G1 X-71.85 Y-68.192 E137.64069
G1 X-71.422 Y-68.851 E137.6897
G1 X-71.096 Y-69.254 E137.72202
G1 X-70.667 Y-69.783 E137.7645
G1 X-70.225 Y-70.225 E137.80348
G1 X-69.783 Y-70.667 E137.84246
G1 X-69.255 Y-71.095 E137.88485
G1 X-68.851 Y-71.422 E137.91726
G1 X-68.193 Y-71.849 E137.96618
G1 X-67.83 Y-72.085 E137.99318
G1 X-67.054 Y-72.48 E138.04748
G1 X-66.733 Y-72.644 E138.06996
G1 X-65.852 Y-72.982 E138.12881
G1 X-65.596 Y-73.08 E138.1459
G1 X-64.601 Y-73.346 E138.21013
G1 X-64.429 Y-73.393 E138.22125
G1 X-63.317 Y-73.569 E138.29146
G1 X-63.215 Y-73.586 E138.29791
G1 X-62.036 Y-73.647 E138.37153
G1 X-61.98 Y-73.65 E138.37503
G1 X61.98 Y-73.651 E146.10552
G1 X62.035 Y-73.649 E146.10895
G1 X63.215 Y-73.586 E146.18264
G1 X63.315 Y-73.57 E146.18896
G1 X64.429 Y-73.393 E146.2593
G1 X64.599 Y-73.348 E146.27027
G1 X65.596 Y-73.08 E146.33465
G1 X65.851 Y-72.983 E146.35167
G1 X66.733 Y-72.644 E146.41059
G1 X67.053 Y-72.481 E146.43299
G1 X67.83 Y-72.085 E146.48738
G1 X68.192 Y-71.85 E146.51429
G1 X68.851 Y-71.422 E146.56329
G1 X69.254 Y-71.096 E146.59562
G1 X69.783 Y-70.667 E146.63809
G1 X70.225 Y-70.225 E146.67708
G1 X70.667 Y-69.783 E146.71606
G1 X71.095 Y-69.255 E146.75845
G1 X71.422 Y-68.851 E146.79086
G1 X71.849 Y-68.193 E146.83978
G1 X72.085 Y-67.83 E146.86678
G1 X72.48 Y-67.054 E146.92108
G1 X72.644 Y-66.733 E146.94356
G1 X72.982 Y-65.852 E147.00241
G1 X73.08 Y-65.596 E147.0195
G1 X73.346 Y-64.601 E147.08373
G1 X73.393 Y-64.429 E147.09485
G1 X73.569 Y-63.317 E147.16506
G1 X73.586 Y-63.215 E147.17151
G1 X73.647 Y-62.036 E147.24513
G0 F24000 X73.548 Y-62.03
G0 X73.103 Y-64.533
G0 X72.75 Y-65.761
G0 X72.262 Y-66.941
G0 X71.644 Y-68.059
G0 X70.906 Y-69.1
G0 X70.054 Y-70.054
G0 X69.1 Y-70.906
G0 X68.059 Y-71.644
G0 X66.941 Y-72.262
G0 X65.761 Y-72.75
G0 X64.533 Y-73.103
G0 X63.274 Y-73.318
G0 X62.022 Y-73.388
G0 X-62.022 Y-73.388
G0 X-63.274 Y-73.318
G0 X-64.533 Y-73.103
G0 X-65.761 Y-72.75
G0 X-66.941 Y-72.262
G0 X-68.059 Y-71.644
G0 X-69.1 Y-70.906
G0 X-70.054 Y-70.054
G0 X-70.906 Y-69.1
G0 X-71.644 Y-68.059
G0 X-71.819 Y-67.743
G0 X-72.807 Y-65.781
G0 X-72.713 Y-65.748
G1 F1800 X-72.781 Y-65.511 E147.254
G1 X-73.065 Y-64.525 E147.29245
G1 X-73.09 Y-64.379 E147.29764
G1 X-73.279 Y-63.27 E147.33976
G1 X-73.283 Y-63.199 E147.34203
G1 X-73.349 Y-62.021 E147.38639
G1 X-73.349 Y-61.987 E147.38749
G1 X-73.349 Y61.987 E152.0495
G1 X-73.349 Y62.021 E152.05058
G1 X-73.283 Y63.199 E152.09478
G1 X-73.279 Y63.27 E152.09702
G1 X-73.091 Y64.377 E152.13891
G1 X-73.065 Y64.525 E152.14415
G1 X-72.782 Y65.51 E152.18249
G1 X-72.713 Y65.748 E152.19139
G1 X-72.355 Y66.614 E152.22638
G1 X-72.226 Y66.924 E152.23857
G1 X-71.81 Y67.678 E152.27062
G1 X-71.611 Y68.038 E152.2857
G1 X-71.165 Y68.667 E152.31439
G1 X-70.875 Y69.076 E152.33289
G1 X-70.432 Y69.571 E152.35752
G1 X-70.026 Y70.026 E152.38002
G1 X-69.573 Y70.431 E152.40238
G1 X-69.076 Y70.875 E152.42704
G1 X-68.668 Y71.164 E152.44548
G1 X-68.038 Y71.611 E152.47422
G1 X-67.679 Y71.809 E152.48923
G1 X-66.924 Y72.226 E152.52132
G1 X-66.614 Y72.354 E152.53354
G1 X-65.748 Y72.713 E152.56857
G1 X-65.511 Y72.781 E152.57744
G1 X-64.525 Y73.065 E152.61589
G1 X-64.379 Y73.09 E152.62109
G1 X-63.27 Y73.279 E152.6632
G1 X-63.199 Y73.283 E152.66547
G1 X-62.021 Y73.349 E152.70983
G1 X-61.98 Y73.349 E152.71119
G1 X61.98 Y73.349 E157.37268
G1 X62.021 Y73.349 E157.37402
G1 X63.199 Y73.283 E157.41822
G1 X63.27 Y73.279 E157.42045
G1 X64.377 Y73.091 E157.46235
G1 X64.525 Y73.065 E157.46759
G1 X65.51 Y72.782 E157.50593
G1 X65.748 Y72.713 E157.51483
G1 X66.614 Y72.355 E157.54982
G1 X66.924 Y72.226 E157.562
G1 X67.678 Y71.81 E157.59406
G1 X68.038 Y71.611 E157.60914
G1 X68.667 Y71.165 E157.63783
G1 X69.076 Y70.875 E157.65633
G1 X69.571 Y70.432 E157.68096
G1 X70.026 Y70.026 E157.70346
