;FLAVOR:RepRap
;TIME:5218
;Filament used: 10.1188m
;Layer height: 0.2
;Generated with Cura_SteamEngine 3.4.1
T0
M190 S65
M104 S200
M109 S200
M82 ;absolute extrusion mode
G28
G1 Z15.0 F10000
G92 E0
G92 E0
G1 F3000 E-5
;LAYER_COUNT:20
;LAYER:0
M107
M203 Z21000
G0 F18000 X129.234 Y0.68 Z0.3
;TYPE:SKIRT
G1 F3000 E0
G1 F1800 X129.067 Y6.729 E0.37738
G1 X129.056 Y6.948 E0.39105
G1 X128.523 Y13.662 E0.81107
G1 X128.501 Y13.871 E0.82418
G1 X127.743 Y19.736 E1.19298
G1 X127.709 Y19.953 E1.20667
G1 X126.521 Y26.476 E1.62016
G1 X126.477 Y26.687 E1.6336
G1 X125.064 Y32.696 E2.01856
G1 X125.01 Y32.902 E2.03184
G1 X123.291 Y38.858 E2.41843
G1 X123.231 Y39.05 E2.43098
G1 X121.359 Y44.541 E2.79276
G1 X121.284 Y44.743 E2.8062
G1 X118.909 Y50.706 E3.20648
G1 X118.83 Y50.892 E3.21908
G1 X116.458 Y56.109 E3.57648
G1 X116.366 Y56.299 E3.58965
G1 X113.455 Y61.94 E3.98551
G1 X113.357 Y62.118 E3.99818
G1 X110.453 Y67.14 E4.35996
G1 X110.345 Y67.318 E4.37295
G1 X106.952 Y72.574 E4.76309
G1 X106.839 Y72.74 E4.77561
G1 X103.489 Y77.427 E5.13489
G1 X103.364 Y77.593 E5.14785
G1 X99.449 Y82.541 E5.54133
G1 X99.322 Y82.694 E5.55373
G1 X95.583 Y86.99 E5.9089
G1 X95.444 Y87.142 E5.92175
G1 X91.12 Y91.649 E6.31125
G1 X90.979 Y91.789 E6.32364
G1 X86.811 Y95.746 E6.68205
G1 X86.656 Y95.887 E6.69512
G1 X81.868 Y100.004 E7.08892
G1 X81.716 Y100.128 E7.10115
G1 X77.211 Y103.652 E7.45784
G1 X77.042 Y103.777 E7.47095
G1 X71.905 Y107.402 E7.86304
G1 X71.74 Y107.513 E7.87544
G1 X66.909 Y110.594 E8.23277
G1 X66.732 Y110.701 E8.24567
G1 X61.322 Y113.791 E8.6342
G1 X61.143 Y113.888 E8.6469
G1 X55.93 Y116.544 E9.01176
G1 X55.739 Y116.635 E9.02495
G1 X49.933 Y119.237 E9.42173
G1 X49.737 Y119.319 E9.43498
G1 X44.033 Y121.54 E9.81671
G1 X43.836 Y121.612 E9.82979
G1 X38.002 Y123.558 E10.21332
G1 X37.8 Y123.619 E10.22648
G1 X31.841 Y125.283 E10.61232
G1 X31.636 Y125.335 E10.62551
G1 X25.607 Y126.699 E11.011
G1 X25.407 Y126.739 E11.02371
G1 X19.625 Y127.759 E11.38986
G1 X19.408 Y127.792 E11.40355
G1 X12.745 Y128.615 E11.82223
G1 X12.537 Y128.635 E11.83526
G1 X6.565 Y129.076 E12.20871
G1 X6.344 Y129.087 E12.22251
G1 X-.471 Y129.235 E12.64761
G1 X-.68 Y129.234 E12.66064
G1 X-6.729 Y129.067 E13.03802
G1 X-6.948 Y129.056 E13.0517
G1 X-13.662 Y128.523 E13.47172
G1 X-13.871 Y128.501 E13.48482
G1 X-19.736 Y127.743 E13.85362
G1 X-19.953 Y127.709 E13.86732
G1 X-26.476 Y126.521 E14.2808
G1 X-26.687 Y126.477 E14.29424
G1 X-32.696 Y125.064 E14.6792
G1 X-32.902 Y125.01 E14.69248
G1 X-38.858 Y123.291 E15.07908
G1 X-39.05 Y123.231 E15.09162
G1 X-44.541 Y121.359 E15.45341
G1 X-44.743 Y121.284 E15.46685
G1 X-50.706 Y118.909 E15.86713
G1 X-50.892 Y118.83 E15.87973
G1 X-56.109 Y116.458 E16.23712
G1 X-56.299 Y116.366 E16.25029
G1 X-61.94 Y113.455 E16.64616
G1 X-62.118 Y113.357 E16.65883
G1 X-67.14 Y110.453 E17.02061
G1 X-67.318 Y110.345 E17.03359
G1 X-72.574 Y106.952 E17.42373
G1 X-72.74 Y106.839 E17.43626
G1 X-77.427 Y103.489 E17.79554
G1 X-77.593 Y103.364 E17.8085
G1 X-82.541 Y99.449 E18.20197
G1 X-82.694 Y99.322 E18.21437
G1 X-86.99 Y95.583 E18.56954
G1 X-87.142 Y95.444 E18.58239
G1 X-91.649 Y91.12 E18.9719
G1 X-91.789 Y90.979 E18.98429
G1 X-95.746 Y86.811 E19.3427
G1 X-95.887 Y86.656 E19.35576
G1 X-100.004 Y81.868 E19.74956
G1 X-100.128 Y81.716 E19.7618
G1 X-103.652 Y77.211 E20.11848
G1 X-103.777 Y77.042 E20.13159
G1 X-107.402 Y71.905 E20.52368
G1 X-107.513 Y71.74 E20.53608
G1 X-110.594 Y66.909 E20.89341
G1 X-110.701 Y66.732 E20.90631
G1 X-113.792 Y61.321 E21.29493
G1 X-113.889 Y61.142 E21.30763
G1 X-116.544 Y55.93 E21.67241
G1 X-116.635 Y55.739 E21.6856
G1 X-119.237 Y49.933 E22.08238
G1 X-119.319 Y49.737 E22.09563
G1 X-121.54 Y44.033 E22.47736
G1 X-121.612 Y43.836 E22.49044
G1 X-123.558 Y38.002 E22.87397
G1 X-123.619 Y37.8 E22.88713
G1 X-125.283 Y31.841 E23.27296
G1 X-125.335 Y31.636 E23.28615
G1 X-126.699 Y25.607 E23.67164
G1 X-126.739 Y25.407 E23.68436
G1 X-127.759 Y19.624 E24.05057
G1 X-127.792 Y19.407 E24.06426
G1 X-128.615 Y12.745 E24.48288
G1 X-128.635 Y12.537 E24.49591
G1 X-129.076 Y6.565 E24.86935
G1 X-129.087 Y6.344 E24.88315
G1 X-129.235 Y-.471 E25.30826
G1 X-129.234 Y-.68 E25.32129
G1 X-129.067 Y-6.729 E25.69867
G1 X-129.056 Y-6.948 E25.71234
G1 X-128.523 Y-13.662 E26.13236
G1 X-128.501 Y-13.871 E26.14547
G1 X-127.743 Y-19.736 E26.51427
G1 X-127.709 Y-19.953 E26.52796
G1 X-126.521 Y-26.476 E26.94145
G1 X-126.477 Y-26.687 E26.95489
G1 X-125.064 Y-32.696 E27.33985
G1 X-125.01 Y-32.902 E27.35313
G1 X-123.291 Y-38.858 E27.73972
G1 X-123.231 Y-39.05 E27.75227
G1 X-121.359 Y-44.541 E28.11405
G1 X-121.284 Y-44.743 E28.12749
G1 X-118.909 Y-50.706 E28.52777
G1 X-118.83 Y-50.892 E28.54037
G1 X-116.458 Y-56.109 E28.89777
G1 X-116.366 Y-56.299 E28.91093
G1 X-113.455 Y-61.94 E29.3068
G1 X-113.357 Y-62.118 E29.31947
G1 X-110.453 Y-67.14 E29.68125
G1 X-110.345 Y-67.318 E29.69424
G1 X-106.952 Y-72.574 E30.08438
G1 X-106.839 Y-72.74 E30.0969
G1 X-103.489 Y-77.427 E30.45618
G1 X-103.364 Y-77.593 E30.46914
G1 X-99.449 Y-82.541 E30.86262
G1 X-99.322 Y-82.694 E30.87502
G1 X-95.583 Y-86.99 E31.23019
G1 X-95.444 Y-87.142 E31.24304
G1 X-91.12 Y-91.649 E31.63254
G1 X-90.979 Y-91.789 E31.64493
G1 X-86.811 Y-95.746 E32.00334
G1 X-86.656 Y-95.887 E32.01641
G1 X-81.868 Y-100.004 E32.41021
G1 X-81.716 Y-100.128 E32.42244
G1 X-77.211 Y-103.652 E32.77913
G1 X-77.042 Y-103.777 E32.79224
G1 X-71.905 Y-107.402 E33.18433
G1 X-71.74 Y-107.513 E33.19673
G1 X-66.909 Y-110.594 E33.55406
G1 X-66.732 Y-110.701 E33.56696
G1 X-61.322 Y-113.791 E33.95549
G1 X-61.143 Y-113.888 E33.96819
G1 X-55.93 Y-116.544 E34.33305
G1 X-55.739 Y-116.635 E34.34624
G1 X-49.933 Y-119.237 E34.74302
G1 X-49.737 Y-119.319 E34.75627
G1 X-44.033 Y-121.54 E35.138
G1 X-43.836 Y-121.612 E35.15108
G1 X-38.002 Y-123.558 E35.53461
G1 X-37.8 Y-123.619 E35.54777
G1 X-31.841 Y-125.283 E35.93361
G1 X-31.636 Y-125.335 E35.9468
G1 X-25.607 Y-126.699 E36.33229
G1 X-25.407 Y-126.739 E36.345
G1 X-19.625 Y-127.759 E36.71115
G1 X-19.408 Y-127.792 E36.72484
G1 X-12.745 Y-128.615 E37.14352
G1 X-12.537 Y-128.635 E37.15655
G1 X-6.565 Y-129.076 E37.53
G1 X-6.344 Y-129.087 E37.5438
G1 X0.472 Y-129.235 E37.96896
G1 X0.681 Y-129.234 E37.982
G1 X6.729 Y-129.067 E38.35931
G1 X6.948 Y-129.056 E38.37298
G1 X13.662 Y-128.523 E38.79301
G1 X13.871 Y-128.501 E38.80611
G1 X19.736 Y-127.743 E39.17491
G1 X19.953 Y-127.709 E39.18861
G1 X26.476 Y-126.521 E39.60209
G1 X26.678 Y-126.479 E39.61496
G1 X32.37 Y-125.153 E39.97943
G1 X32.573 Y-125.101 E39.9925
G1 X38.485 Y-123.413 E40.37592
G1 X38.692 Y-123.348 E40.38945
G1 X44.803 Y-121.26 E40.79218
G1 X44.997 Y-121.188 E40.80509
G1 X50.39 Y-119.048 E41.16692
G1 X50.585 Y-118.965 E41.18014
G1 X56.396 Y-116.315 E41.57843
G1 X56.579 Y-116.226 E41.59112
G1 X61.715 Y-113.581 E41.9514
G1 X61.899 Y-113.481 E41.96446
G1 X67.347 Y-110.325 E42.3571
G1 X67.518 Y-110.22 E42.36961
G1 X72.368 Y-107.096 E42.72939
G1 X72.543 Y-106.977 E42.74258
G1 X77.69 Y-103.287 E43.13753
G1 X77.847 Y-103.169 E43.14978
G1 X82.282 Y-99.668 E43.50215
G1 X82.441 Y-99.536 E43.51504
G1 X87.175 Y-95.411 E43.90662
G1 X87.323 Y-95.276 E43.91911
G1 X91.478 Y-91.296 E44.27792
G1 X91.624 Y-91.149 E44.29084
G1 X95.948 Y-86.583 E44.68301
G1 X96.081 Y-86.436 E44.69537
G1 X99.799 Y-82.124 E45.05044
G1 X99.929 Y-81.965 E45.06325
G1 X103.77 Y-77.048 E45.45236
G1 X103.89 Y-76.887 E45.46488
G1 X107.228 Y-72.17 E45.82525
G1 X107.344 Y-71.997 E45.83824
G1 X110.737 Y-66.667 E46.23227
G1 X110.841 Y-66.495 E46.2448
G1 X113.702 Y-61.492 E46.60422
G1 X113.802 Y-61.306 E46.61738
G1 X116.666 Y-55.666 E47.01186
G1 X116.754 Y-55.484 E47.02447
G1 X119.127 Y-50.203 E47.38553
G1 X119.206 Y-50.014 E47.3983
G1 X121.43 Y-44.35 E47.77778
G1 X121.505 Y-44.144 E47.79145
G1 X123.557 Y-38.004 E48.19517
G1 X123.619 Y-37.8 E48.20847
G1 X125.283 Y-31.841 E48.59431
G1 X125.335 Y-31.636 E48.6075
G1 X126.699 Y-25.607 E48.99298
G1 X126.739 Y-25.407 E49.0057
G1 X127.759 Y-19.625 E49.37185
G1 X127.792 Y-19.408 E49.38554
G1 X128.615 Y-12.745 E49.80422
G1 X128.635 Y-12.537 E49.81725
G1 X129.076 Y-6.565 E50.1907
G1 X129.087 Y-6.344 E50.2045
G1 X129.235 Y0.471 E50.6296
G1 X129.234 Y0.68 E50.64263
G0 F18000 X128.735 Y0.666
G1 F1800 X128.568 Y6.715 E51.02001
G1 X128.557 Y6.909 E51.03213
G1 X128.024 Y13.623 E51.45215
G1 X128.005 Y13.807 E51.46368
G1 X127.247 Y19.672 E51.83248
G1 X127.217 Y19.863 E51.84454
G1 X126.029 Y26.386 E52.25802
G1 X125.99 Y26.572 E52.26988
G1 X124.577 Y32.581 E52.65484
G1 X124.53 Y32.763 E52.66656
G1 X122.811 Y38.719 E53.05315
G1 X122.757 Y38.889 E53.06427
G1 X120.885 Y44.38 E53.42606
G1 X120.82 Y44.558 E53.43788
G1 X118.445 Y50.521 E53.83816
G1 X118.375 Y50.685 E53.84928
G1 X116.003 Y55.902 E54.20667
G1 X115.921 Y56.07 E54.21833
G1 X113.01 Y61.711 E54.6142
G1 X112.924 Y61.868 E54.62536
G1 X110.02 Y66.89 E54.98714
G1 X109.925 Y67.047 E54.99859
G1 X106.532 Y72.303 E55.38873
G1 X106.432 Y72.45 E55.39982
G1 X103.082 Y77.137 E55.7591
G1 X102.972 Y77.283 E55.7705
G1 X99.057 Y82.231 E56.16397
G1 X98.945 Y82.366 E56.17491
G1 X95.206 Y86.662 E56.53008
G1 X95.083 Y86.796 E56.54143
G1 X90.759 Y91.303 E56.93093
G1 X90.635 Y91.427 E56.94187
G1 X86.467 Y95.384 E57.30028
G1 X86.33 Y95.507 E57.31176
G1 X81.542 Y99.624 E57.70556
G1 X81.407 Y99.735 E57.71646
G1 X76.902 Y103.259 E58.07315
G1 X76.754 Y103.369 E58.08465
G1 X71.617 Y106.994 E58.47674
G1 X71.471 Y107.092 E58.4877
G1 X66.64 Y110.173 E58.84503
G1 X66.484 Y110.267 E58.85639
G1 X61.074 Y113.357 E59.24493
G1 X60.916 Y113.442 E59.25611
G1 X55.703 Y116.098 E59.62098
G1 X55.535 Y116.179 E59.63261
G1 X49.729 Y118.781 E60.02938
G1 X49.556 Y118.853 E60.04107
G1 X43.852 Y121.074 E60.4228
G1 X43.678 Y121.137 E60.43434
G1 X37.844 Y123.083 E60.81787
G1 X37.666 Y123.138 E60.82949
G1 X31.707 Y124.802 E61.21533
G1 X31.525 Y124.848 E61.22703
G1 X25.496 Y126.212 E61.61252
G1 X25.32 Y126.247 E61.62371
G1 X19.538 Y127.267 E61.98986
G1 X19.347 Y127.296 E62.00191
G1 X12.684 Y128.119 E62.42059
G1 X12.5 Y128.137 E62.43212
G1 X6.528 Y128.578 E62.80556
G1 X6.333 Y128.587 E62.81774
G1 X-.482 Y128.735 E63.24284
G1 X-.666 Y128.735 E63.25431
G1 X-6.715 Y128.568 E63.63169
G1 X-6.909 Y128.557 E63.64381
G1 X-13.623 Y128.024 E64.06383
G1 X-13.807 Y128.005 E64.07536
G1 X-19.672 Y127.247 E64.44416
G1 X-19.863 Y127.217 E64.45622
G1 X-26.386 Y126.029 E64.8697
G1 X-26.572 Y125.99 E64.88156
G1 X-32.581 Y124.577 E65.26652
G1 X-32.763 Y124.53 E65.27824
G1 X-38.719 Y122.811 E65.66483
G1 X-38.889 Y122.757 E65.67595
G1 X-44.38 Y120.885 E66.03774
G1 X-44.558 Y120.82 E66.04956
G1 X-50.521 Y118.445 E66.44984
G1 X-50.685 Y118.375 E66.46096
G1 X-55.902 Y116.003 E66.81835
G1 X-56.07 Y115.921 E66.83001
G1 X-61.711 Y113.01 E67.22588
G1 X-61.868 Y112.924 E67.23704
G1 X-66.89 Y110.02 E67.59882
G1 X-67.047 Y109.925 E67.61027
G1 X-72.303 Y106.532 E68.00041
G1 X-72.45 Y106.432 E68.0115
G1 X-77.137 Y103.082 E68.37078
G1 X-77.283 Y102.972 E68.38218
G1 X-82.231 Y99.057 E68.77565
G1 X-82.366 Y98.945 E68.78659
G1 X-86.662 Y95.206 E69.14176
G1 X-86.796 Y95.083 E69.15311
G1 X-91.303 Y90.759 E69.54261
G1 X-91.427 Y90.635 E69.55355
G1 X-95.384 Y86.467 E69.91196
G1 X-95.507 Y86.33 E69.92344
G1 X-99.624 Y81.542 E70.31724
G1 X-99.735 Y81.407 E70.32814
G1 X-103.259 Y76.902 E70.68483
G1 X-103.369 Y76.754 E70.69633
G1 X-106.994 Y71.617 E71.08842
G1 X-107.092 Y71.471 E71.09938
G1 X-110.173 Y66.64 E71.45671
G1 X-110.267 Y66.484 E71.46807
G1 X-113.358 Y61.073 E71.85669
G1 X-113.443 Y60.915 E71.86788
G1 X-116.098 Y55.703 E72.23266
G1 X-116.179 Y55.535 E72.24429
G1 X-118.781 Y49.729 E72.64106
G1 X-118.853 Y49.556 E72.65275
G1 X-121.074 Y43.852 E73.03448
G1 X-121.137 Y43.678 E73.04602
G1 X-123.083 Y37.844 E73.42955
G1 X-123.138 Y37.666 E73.44117
G1 X-124.802 Y31.707 E73.82701
G1 X-124.848 Y31.525 E73.83871
G1 X-126.212 Y25.496 E74.2242
G1 X-126.247 Y25.32 E74.23539
G1 X-127.267 Y19.537 E74.6016
G1 X-127.296 Y19.346 E74.61365
G1 X-128.119 Y12.684 E75.03227
G1 X-128.137 Y12.5 E75.0438
G1 X-128.578 Y6.528 E75.41724
G1 X-128.587 Y6.333 E75.42942
G1 X-128.735 Y-.482 E75.85452
G1 X-128.735 Y-.666 E75.86599
G1 X-128.568 Y-6.715 E76.24337
G1 X-128.557 Y-6.909 E76.25549
G1 X-128.024 Y-13.623 E76.67551
G1 X-128.005 Y-13.807 E76.68704
G1 X-127.247 Y-19.672 E77.05584
G1 X-127.217 Y-19.863 E77.0679
G1 X-126.029 Y-26.386 E77.48139
G1 X-125.99 Y-26.572 E77.49324
G1 X-124.577 Y-32.581 E77.8782
G1 X-124.53 Y-32.763 E77.88992
G1 X-122.811 Y-38.719 E78.27651
G1 X-122.757 Y-38.889 E78.28763
G1 X-120.885 Y-44.38 E78.64942
G1 X-120.82 Y-44.558 E78.66124
G1 X-118.445 Y-50.521 E79.06152
G1 X-118.375 Y-50.685 E79.07264
G1 X-116.003 Y-55.902 E79.43004
G1 X-115.921 Y-56.07 E79.44169
G1 X-113.01 Y-61.711 E79.83756
G1 X-112.924 Y-61.868 E79.84872
G1 X-110.02 Y-66.89 E80.2105
G1 X-109.925 Y-67.047 E80.22195
G1 X-106.532 Y-72.303 E80.61209
G1 X-106.432 Y-72.45 E80.62318
G1 X-103.082 Y-77.137 E80.98246
G1 X-102.972 Y-77.283 E80.99386
G1 X-99.057 Y-82.231 E81.38733
G1 X-98.945 Y-82.366 E81.39827
G1 X-95.206 Y-86.662 E81.75344
G1 X-95.083 Y-86.796 E81.76479
G1 X-90.759 Y-91.303 E82.15429
G1 X-90.635 Y-91.427 E82.16523
G1 X-86.467 Y-95.384 E82.52364
G1 X-86.33 Y-95.507 E82.53512
G1 X-81.542 Y-99.624 E82.92892
G1 X-81.407 Y-99.735 E82.93982
G1 X-76.902 Y-103.259 E83.29651
G1 X-76.754 Y-103.369 E83.30801
G1 X-71.617 Y-106.994 E83.7001
G1 X-71.471 Y-107.092 E83.71106
G1 X-66.64 Y-110.173 E84.06839
G1 X-66.484 Y-110.267 E84.07975
G1 X-61.074 Y-113.357 E84.46829
G1 X-60.916 Y-113.442 E84.47948
G1 X-55.703 Y-116.098 E84.84434
G1 X-55.535 Y-116.179 E84.85597
G1 X-49.729 Y-118.781 E85.25274
G1 X-49.556 Y-118.853 E85.26443
G1 X-43.852 Y-121.074 E85.64616
G1 X-43.678 Y-121.137 E85.6577
G1 X-37.844 Y-123.083 E86.04123
G1 X-37.666 Y-123.138 E86.05285
G1 X-31.707 Y-124.802 E86.43869
G1 X-31.525 Y-124.848 E86.45039
G1 X-25.496 Y-126.212 E86.83588
G1 X-25.32 Y-126.247 E86.84707
G1 X-19.538 Y-127.267 E87.21322
G1 X-19.347 Y-127.296 E87.22527
G1 X-12.684 Y-128.119 E87.64395
G1 X-12.5 Y-128.137 E87.65548
G1 X-6.528 Y-128.578 E88.02892
G1 X-6.333 Y-128.587 E88.0411
G1 X0.483 Y-128.735 E88.46626
G1 X0.668 Y-128.735 E88.4778
G1 X6.716 Y-128.568 E88.85511
G1 X6.909 Y-128.557 E88.86717
G1 X13.623 Y-128.024 E89.28719
G1 X13.807 Y-128.005 E89.29872
G1 X19.672 Y-127.247 E89.66752
G1 X19.863 Y-127.217 E89.67958
G1 X26.386 Y-126.029 E90.09307
G1 X26.565 Y-125.992 E90.10446
G1 X32.257 Y-124.666 E90.46894
G1 X32.436 Y-124.62 E90.48046
G1 X38.348 Y-122.932 E90.86389
G1 X38.53 Y-122.875 E90.87578
G1 X44.641 Y-120.787 E91.27851
G1 X44.812 Y-120.724 E91.28987
G1 X50.205 Y-118.584 E91.65171
G1 X50.378 Y-118.51 E91.66344
G1 X56.189 Y-115.86 E92.06174
G1 X56.35 Y-115.782 E92.07289
G1 X61.486 Y-113.137 E92.43317
G1 X61.649 Y-113.048 E92.44475
G1 X67.097 Y-109.892 E92.83739
G1 X67.248 Y-109.8 E92.84842
G1 X72.098 Y-106.676 E93.20819
G1 X72.252 Y-106.571 E93.21982
G1 X77.399 Y-102.881 E93.61476
G1 X77.538 Y-102.776 E93.62563
G1 X81.973 Y-99.275 E93.978
G1 X82.113 Y-99.159 E93.98933
G1 X86.847 Y-95.034 E94.38091
G1 X86.977 Y-94.915 E94.3919
G1 X91.132 Y-90.935 E94.75072
G1 X91.261 Y-90.806 E94.76209
G1 X95.585 Y-86.24 E95.15426
G1 X95.702 Y-86.11 E95.16517
G1 X99.42 Y-81.798 E95.52024
G1 X99.535 Y-81.658 E95.53154
G1 X103.376 Y-76.741 E95.92064
G1 X103.482 Y-76.598 E95.93174
G1 X106.82 Y-71.881 E96.29211
G1 X106.922 Y-71.729 E96.30353
G1 X110.315 Y-66.399 E96.69756
G1 X110.407 Y-66.247 E96.70864
G1 X113.268 Y-61.244 E97.06805
G1 X113.357 Y-61.08 E97.07969
G1 X116.221 Y-55.44 E97.47416
G1 X116.298 Y-55.279 E97.48529
G1 X118.671 Y-49.998 E97.84635
G1 X118.741 Y-49.832 E97.85759
G1 X120.965 Y-44.168 E98.23706
G1 X121.031 Y-43.986 E98.24914
G1 X123.083 Y-37.846 E98.65286
G1 X123.138 Y-37.666 E98.6646
G1 X124.802 Y-31.707 E99.05044
G1 X124.848 Y-31.525 E99.06214
G1 X126.212 Y-25.496 E99.44763
G1 X126.247 Y-25.32 E99.45882
G1 X127.267 Y-19.538 E99.82497
G1 X127.296 Y-19.347 E99.83702
G1 X128.119 Y-12.684 E100.2557
G1 X128.137 Y-12.5 E100.26723
G1 X128.578 Y-6.528 E100.64067
G1 X128.587 Y-6.333 E100.65285
G1 X128.735 Y0.482 E101.07795
G1 X128.735 Y0.666 E101.08942
G0 F18000 X128.235 Y0.653
G1 F1800 X128.068 Y6.702 E101.4668
G1 X128.059 Y6.869 E101.47723
G1 X127.526 Y13.583 E101.89725
