;FLAVOR:RepRap
;TIME:8309
;Filament used: 10.7812m, 2.38944m
;Layer height: 0.2
;Generated with Cura_SteamEngine 3.4.1
T0
M190 S65
M104 S200
M104 T1 S200
M109 S200
M109 T1 S200
M82 ;absolute extrusion mode
M203 Z24000
G28 ;Home
G1 X0 Y-130 Z0.3 F8000 ;Move the platform down 15mm
G92 E0
G1 E160 F5000
G92 E0
G1 Z5
G1 F200 E3
G92 E0
G92 E0
G1 F4800 E-5
;LAYER_COUNT:20
;LAYER:0
M107
M203 Z21000
G0 F21000 X128.735 Y0.482 Z0.3
;TYPE:SKIRT
G1 F4800 E0.08315
G1 F2100 X128.735 Y0.666 E0.09463
G1 X128.568 Y6.715 E0.472
G1 X128.557 Y6.909 E0.48412
G1 X128.024 Y13.623 E0.90414
G1 X128.005 Y13.807 E0.91568
G1 X127.247 Y19.672 E1.28448
G1 X127.217 Y19.863 E1.29653
G1 X126.029 Y26.386 E1.71002
G1 X125.99 Y26.572 E1.72187
G1 X124.577 Y32.581 E2.10683
G1 X124.53 Y32.763 E2.11855
G1 X122.811 Y38.719 E2.50514
G1 X122.757 Y38.889 E2.51627
G1 X120.885 Y44.38 E2.87805
G1 X120.82 Y44.558 E2.88987
G1 X118.445 Y50.521 E3.29015
G1 X118.375 Y50.685 E3.30127
G1 X116.003 Y55.902 E3.65867
G1 X115.921 Y56.07 E3.67032
G1 X113.01 Y61.711 E4.06619
G1 X112.924 Y61.868 E4.07736
G1 X110.02 Y66.89 E4.43913
G1 X109.925 Y67.047 E4.45058
G1 X106.532 Y72.303 E4.84072
G1 X106.432 Y72.45 E4.85181
G1 X103.082 Y77.137 E5.21109
G1 X102.972 Y77.283 E5.22249
G1 X99.057 Y82.231 E5.61597
G1 X98.945 Y82.366 E5.6269
G1 X95.206 Y86.662 E5.98208
G1 X95.083 Y86.796 E5.99342
G1 X90.759 Y91.303 E6.38292
G1 X90.635 Y91.427 E6.39386
G1 X86.467 Y95.384 E6.75227
G1 X86.33 Y95.507 E6.76375
G1 X81.542 Y99.624 E7.15755
G1 X81.407 Y99.735 E7.16845
G1 X76.902 Y103.259 E7.52514
G1 X76.754 Y103.369 E7.53664
G1 X71.617 Y106.994 E7.92873
G1 X71.471 Y107.092 E7.93969
G1 X66.64 Y110.173 E8.29702
G1 X66.484 Y110.267 E8.30838
G1 X61.074 Y113.357 E8.69692
G1 X60.916 Y113.442 E8.70811
G1 X55.703 Y116.098 E9.07297
G1 X55.535 Y116.179 E9.0846
G1 X49.729 Y118.781 E9.48137
G1 X49.556 Y118.853 E9.49306
G1 X43.852 Y121.074 E9.87479
G1 X43.678 Y121.137 E9.88633
G1 X37.844 Y123.083 E10.26986
G1 X37.666 Y123.138 E10.28148
G1 X31.707 Y124.802 E10.66732
G1 X31.525 Y124.848 E10.67902
G1 X25.496 Y126.212 E11.06451
G1 X25.32 Y126.247 E11.0757
G1 X19.538 Y127.267 E11.44185
G1 X19.347 Y127.296 E11.4539
G1 X12.684 Y128.119 E11.87258
G1 X12.5 Y128.137 E11.88411
G1 X6.528 Y128.578 E12.25755
G1 X6.333 Y128.587 E12.26973
G1 X-.482 Y128.735 E12.69483
G1 X-.666 Y128.735 E12.70631
G1 X-6.715 Y128.568 E13.08368
G1 X-6.909 Y128.557 E13.0958
G1 X-13.623 Y128.024 E13.51582
G1 X-13.807 Y128.005 E13.52736
G1 X-19.672 Y127.247 E13.89616
G1 X-19.863 Y127.217 E13.90821
G1 X-26.386 Y126.029 E14.3217
G1 X-26.572 Y125.99 E14.33355
G1 X-32.581 Y124.577 E14.71851
G1 X-32.763 Y124.53 E14.73023
G1 X-38.719 Y122.811 E15.11682
G1 X-38.889 Y122.757 E15.12795
G1 X-44.38 Y120.885 E15.48973
G1 X-44.558 Y120.82 E15.50155
G1 X-50.521 Y118.445 E15.90183
G1 X-50.685 Y118.375 E15.91295
G1 X-55.902 Y116.003 E16.27035
G1 X-56.07 Y115.921 E16.282
G1 X-61.711 Y113.01 E16.67787
G1 X-61.868 Y112.924 E16.68904
G1 X-66.89 Y110.02 E17.05081
G1 X-67.047 Y109.925 E17.06226
G1 X-72.303 Y106.532 E17.4524
G1 X-72.45 Y106.432 E17.46349
G1 X-77.137 Y103.082 E17.82277
G1 X-77.283 Y102.972 E17.83417
G1 X-82.231 Y99.057 E18.22765
G1 X-82.366 Y98.945 E18.23858
G1 X-86.662 Y95.206 E18.59376
G1 X-86.796 Y95.083 E18.6051
G1 X-91.303 Y90.759 E18.9946
G1 X-91.427 Y90.635 E19.00554
G1 X-95.384 Y86.467 E19.36395
G1 X-95.507 Y86.33 E19.37543
G1 X-99.624 Y81.542 E19.76923
G1 X-99.735 Y81.407 E19.78013
G1 X-103.259 Y76.902 E20.13682
G1 X-103.369 Y76.754 E20.14832
G1 X-106.994 Y71.617 E20.54041
G1 X-107.092 Y71.471 E20.55137
G1 X-110.173 Y66.64 E20.9087
G1 X-110.267 Y66.484 E20.92006
G1 X-113.358 Y61.073 E21.30868
G1 X-113.443 Y60.915 E21.31987
G1 X-116.098 Y55.703 E21.68465
G1 X-116.179 Y55.535 E21.69628
G1 X-118.781 Y49.729 E22.09306
G1 X-118.853 Y49.556 E22.10474
G1 X-121.074 Y43.852 E22.48647
G1 X-121.137 Y43.678 E22.49801
G1 X-123.083 Y37.844 E22.88154
G1 X-123.138 Y37.666 E22.89316
G1 X-124.802 Y31.707 E23.279
G1 X-124.848 Y31.525 E23.29071
G1 X-126.212 Y25.496 E23.67619
G1 X-126.247 Y25.32 E23.68738
G1 X-127.267 Y19.537 E24.05359
G1 X-127.296 Y19.346 E24.06564
G1 X-128.119 Y12.684 E24.48426
G1 X-128.137 Y12.5 E24.49579
G1 X-128.578 Y6.528 E24.86923
G1 X-128.587 Y6.333 E24.88141
G1 X-128.735 Y-.482 E25.30651
G1 X-128.735 Y-.666 E25.31799
G1 X-128.568 Y-6.715 E25.69536
G1 X-128.557 Y-6.909 E25.70748
G1 X-128.024 Y-13.623 E26.1275
G1 X-128.005 Y-13.807 E26.13904
G1 X-127.247 Y-19.672 E26.50784
G1 X-127.217 Y-19.863 E26.51989
G1 X-126.029 Y-26.386 E26.93338
G1 X-125.99 Y-26.572 E26.94523
G1 X-124.577 Y-32.581 E27.33019
G1 X-124.53 Y-32.763 E27.34191
G1 X-122.811 Y-38.719 E27.7285
G1 X-122.757 Y-38.889 E27.73963
G1 X-120.885 Y-44.38 E28.10141
G1 X-120.82 Y-44.558 E28.11323
G1 X-118.445 Y-50.521 E28.51351
G1 X-118.375 Y-50.685 E28.52463
G1 X-116.003 Y-55.902 E28.88203
G1 X-115.921 Y-56.07 E28.89369
G1 X-113.01 Y-61.711 E29.28955
G1 X-112.924 Y-61.868 E29.30072
G1 X-110.02 Y-66.89 E29.66249
G1 X-109.925 Y-67.047 E29.67394
G1 X-106.532 Y-72.303 E30.06408
G1 X-106.432 Y-72.45 E30.07517
G1 X-103.082 Y-77.137 E30.43445
G1 X-102.972 Y-77.283 E30.44585
G1 X-99.057 Y-82.231 E30.83933
G1 X-98.945 Y-82.366 E30.85027
G1 X-95.206 Y-86.662 E31.20544
G1 X-95.083 Y-86.796 E31.21678
G1 X-90.759 Y-91.303 E31.60628
G1 X-90.635 Y-91.427 E31.61722
G1 X-86.467 Y-95.384 E31.97563
G1 X-86.33 Y-95.507 E31.98711
G1 X-81.542 Y-99.624 E32.38091
G1 X-81.407 Y-99.735 E32.39181
G1 X-76.902 Y-103.259 E32.7485
G1 X-76.754 Y-103.369 E32.76
G1 X-71.617 Y-106.994 E33.15209
G1 X-71.471 Y-107.092 E33.16305
G1 X-66.64 Y-110.173 E33.52038
G1 X-66.484 Y-110.267 E33.53174
G1 X-61.074 Y-113.357 E33.92028
G1 X-60.916 Y-113.442 E33.93147
G1 X-55.703 Y-116.098 E34.29633
G1 X-55.535 Y-116.179 E34.30796
G1 X-49.729 Y-118.781 E34.70473
G1 X-49.556 Y-118.853 E34.71642
G1 X-43.852 Y-121.074 E35.09815
G1 X-43.678 Y-121.137 E35.10969
G1 X-37.844 Y-123.083 E35.49322
G1 X-37.666 Y-123.138 E35.50484
G1 X-31.707 Y-124.802 E35.89068
G1 X-31.525 Y-124.848 E35.90239
G1 X-25.496 Y-126.212 E36.28787
G1 X-25.32 Y-126.247 E36.29906
G1 X-19.538 Y-127.267 E36.66521
G1 X-19.347 Y-127.296 E36.67726
G1 X-12.684 Y-128.119 E37.09594
G1 X-12.5 Y-128.137 E37.10747
G1 X-6.528 Y-128.578 E37.48091
G1 X-6.333 Y-128.587 E37.49309
G1 X0.483 Y-128.735 E37.91825
G1 X0.668 Y-128.735 E37.92979
G1 X6.716 Y-128.568 E38.3071
G1 X6.909 Y-128.557 E38.31916
G1 X13.623 Y-128.024 E38.73918
G1 X13.807 Y-128.005 E38.75072
G1 X19.672 Y-127.247 E39.11952
G1 X19.863 Y-127.217 E39.13157
G1 X26.386 Y-126.029 E39.54506
G1 X26.565 Y-125.992 E39.55646
G1 X32.257 Y-124.666 E39.92093
G1 X32.436 Y-124.62 E39.93245
G1 X38.348 Y-122.932 E40.31588
G1 X38.53 Y-122.875 E40.32777
G1 X44.641 Y-120.787 E40.7305
G1 X44.812 Y-120.724 E40.74187
G1 X50.205 Y-118.584 E41.1037
G1 X50.378 Y-118.51 E41.11543
G1 X56.189 Y-115.86 E41.51373
G1 X56.35 Y-115.782 E41.52488
G1 X61.486 Y-113.137 E41.88516
G1 X61.649 Y-113.048 E41.89674
G1 X67.097 Y-109.892 E42.28938
G1 X67.248 Y-109.8 E42.30041
G1 X72.098 Y-106.676 E42.66018
G1 X72.252 Y-106.571 E42.67181
G1 X77.399 Y-102.881 E43.06675
G1 X77.538 Y-102.776 E43.07762
G1 X81.973 Y-99.275 E43.42999
G1 X82.113 Y-99.159 E43.44133
G1 X86.847 Y-95.034 E43.8329
G1 X86.977 Y-94.915 E43.8439
G1 X91.132 Y-90.935 E44.20271
G1 X91.261 Y-90.806 E44.21409
G1 X95.585 Y-86.24 E44.60625
G1 X95.702 Y-86.11 E44.61716
G1 X99.42 Y-81.798 E44.97223
G1 X99.535 Y-81.658 E44.98353
G1 X103.376 Y-76.741 E45.37263
G1 X103.482 Y-76.598 E45.38373
G1 X106.82 Y-71.881 E45.7441
G1 X106.922 Y-71.729 E45.75552
G1 X110.315 Y-66.399 E46.14955
G1 X110.407 Y-66.247 E46.16063
G1 X113.268 Y-61.244 E46.52004
G1 X113.357 Y-61.08 E46.53168
G1 X116.221 Y-55.44 E46.92616
G1 X116.298 Y-55.279 E46.93729
G1 X118.671 Y-49.998 E47.29834
G1 X118.741 Y-49.832 E47.30958
G1 X120.965 Y-44.168 E47.68906
G1 X121.031 Y-43.986 E47.70113
G1 X123.083 Y-37.846 E48.10485
G1 X123.138 Y-37.666 E48.11659
G1 X124.802 Y-31.707 E48.50243
G1 X124.848 Y-31.525 E48.51413
G1 X126.212 Y-25.496 E48.89962
G1 X126.247 Y-25.32 E48.91081
G1 X127.267 Y-19.538 E49.27696
G1 X127.296 Y-19.347 E49.28901
G1 X128.119 Y-12.684 E49.70769
G1 X128.137 Y-12.5 E49.71922
G1 X128.578 Y-6.528 E50.09266
G1 X128.587 Y-6.333 E50.10484
G1 X128.735 Y0.482 E50.52994
G0 F21000 X128.235 Y0.492
G1 F2100 X128.235 Y0.653 E50.53998
G1 X128.068 Y6.702 E50.91736
G1 X128.059 Y6.869 E50.92779
G1 X127.526 Y13.583 E51.34781
G1 X127.509 Y13.743 E51.35784
G1 X126.751 Y19.608 E51.72664
G1 X126.725 Y19.773 E51.73706
G1 X125.537 Y26.296 E52.15054
G1 X125.504 Y26.458 E52.16085
G1 X124.091 Y32.467 E52.54581
G1 X124.05 Y32.624 E52.55593
G1 X122.331 Y38.58 E52.94252
G1 X122.284 Y38.728 E52.95221
G1 X120.412 Y44.219 E53.31399
G1 X120.355 Y44.373 E53.32424
G1 X117.98 Y50.336 E53.72451
G1 X117.92 Y50.478 E53.73413
G1 X115.548 Y55.695 E54.09152
G1 X115.477 Y55.84 E54.10159
G1 X112.566 Y61.481 E54.49746
G1 X112.491 Y61.618 E54.5072
G1 X109.587 Y66.64 E54.86898
G1 X109.504 Y66.776 E54.87891
G1 X106.111 Y72.032 E55.26906
G1 X106.025 Y72.159 E55.27862
G1 X102.675 Y76.846 E55.6379
G1 X102.58 Y76.973 E55.64779
G1 X98.665 Y81.921 E56.04127
G1 X98.568 Y82.038 E56.05075
G1 X94.829 Y86.334 E56.40592
G1 X94.722 Y86.45 E56.41576
G1 X90.398 Y90.957 E56.80527
G1 X90.291 Y91.064 E56.8147
G1 X86.123 Y95.021 E57.17311
G1 X86.004 Y95.128 E57.18309
G1 X81.216 Y99.245 E57.57689
G1 X81.099 Y99.341 E57.58633
G1 X76.594 Y102.865 E57.94302
G1 X76.466 Y102.96 E57.95296
G1 X71.329 Y106.585 E58.34505
G1 X71.203 Y106.67 E58.35453
G1 X66.372 Y109.751 E58.71186
G1 X66.236 Y109.833 E58.72176
G1 X60.826 Y112.923 E59.1103
G1 X60.689 Y112.997 E59.12001
G1 X55.476 Y115.653 E59.48487
G1 X55.33 Y115.723 E59.49496
G1 X49.524 Y118.325 E59.89174
G1 X49.374 Y118.388 E59.90189
G1 X43.67 Y120.609 E60.28362
G1 X43.519 Y120.663 E60.29362
G1 X37.685 Y122.609 E60.67715
G1 X37.531 Y122.656 E60.68719
G1 X31.572 Y124.32 E61.07303
G1 X31.415 Y124.36 E61.08313
G1 X25.386 Y125.724 E61.46862
G1 X25.234 Y125.755 E61.47829
G1 X19.452 Y126.775 E61.84444
G1 X19.285 Y126.799 E61.85496
G1 X12.622 Y127.622 E62.27364
G1 X12.463 Y127.638 E62.28361
G1 X6.491 Y128.079 E62.65705
G1 X6.323 Y128.087 E62.66754
G1 X-.492 Y128.235 E63.09265
G1 X-.653 Y128.235 E63.10269
G1 X-6.702 Y128.068 E63.48006
G1 X-6.869 Y128.059 E63.49049
G1 X-13.583 Y127.526 E63.91051
G1 X-13.743 Y127.509 E63.92055
G1 X-19.608 Y126.751 E64.28935
G1 X-19.773 Y126.725 E64.29976
G1 X-26.296 Y125.537 E64.71325
G1 X-26.458 Y125.504 E64.72356
G1 X-32.467 Y124.091 E65.10852
G1 X-32.624 Y124.05 E65.11864
G1 X-38.58 Y122.331 E65.50523
G1 X-38.728 Y122.284 E65.51491
G1 X-44.219 Y120.412 E65.8767
G1 X-44.373 Y120.355 E65.88694
G1 X-50.336 Y117.98 E66.28722
G1 X-50.478 Y117.92 E66.29683
G1 X-55.695 Y115.548 E66.65423
G1 X-55.84 Y115.477 E66.6643
G1 X-61.481 Y112.566 E67.06017
G1 X-61.618 Y112.491 E67.06991
G1 X-66.64 Y109.587 E67.43168
G1 X-66.776 Y109.504 E67.44162
G1 X-72.032 Y106.111 E67.83176
G1 X-72.159 Y106.025 E67.84133
G1 X-76.846 Y102.675 E68.20061
G1 X-76.973 Y102.58 E68.2105
G1 X-81.921 Y98.665 E68.60398
G1 X-82.038 Y98.568 E68.61345
G1 X-86.334 Y94.829 E68.96863
G1 X-86.45 Y94.722 E68.97847
G1 X-90.957 Y90.398 E69.36797
G1 X-91.064 Y90.291 E69.37741
G1 X-95.021 Y86.123 E69.73582
G1 X-95.128 Y86.004 E69.7458
G1 X-99.245 Y81.216 E70.1396
G1 X-99.341 Y81.099 E70.14904
G1 X-102.865 Y76.594 E70.50572
G1 X-102.96 Y76.466 E70.51566
G1 X-106.585 Y71.329 E70.90775
G1 X-106.67 Y71.203 E70.91723
G1 X-109.751 Y66.372 E71.27456
G1 X-109.833 Y66.236 E71.28447
G1 X-112.924 Y60.825 E71.67309
G1 X-112.998 Y60.688 E71.6828
G1 X-115.653 Y55.476 E72.04757
G1 X-115.723 Y55.33 E72.05767
G1 X-118.325 Y49.524 E72.45445
G1 X-118.388 Y49.374 E72.46459
G1 X-120.609 Y43.67 E72.84633
G1 X-120.663 Y43.519 E72.85633
G1 X-122.609 Y37.685 E73.23986
G1 X-122.656 Y37.531 E73.2499
G1 X-124.32 Y31.572 E73.63573
G1 X-124.36 Y31.415 E73.64584
G1 X-125.724 Y25.386 E74.03133
G1 X-125.755 Y25.234 E74.041
G1 X-126.775 Y19.451 E74.40721
G1 X-126.799 Y19.284 E74.41773
G1 X-127.622 Y12.622 E74.83635
G1 X-127.638 Y12.463 E74.84632
G1 X-128.079 Y6.491 E75.21976
G1 X-128.087 Y6.323 E75.23025
G1 X-128.235 Y-.492 E75.65535
G1 X-128.235 Y-.653 E75.66539
G1 X-128.068 Y-6.702 E76.04277
G1 X-128.059 Y-6.869 E76.0532
G1 X-127.526 Y-13.583 E76.47322
G1 X-127.509 Y-13.743 E76.48325
G1 X-126.751 Y-19.608 E76.85205
G1 X-126.725 Y-19.773 E76.86247
G1 X-125.537 Y-26.296 E77.27595
G1 X-125.504 Y-26.458 E77.28626
G1 X-124.091 Y-32.467 E77.67122
G1 X-124.05 Y-32.624 E77.68134
G1 X-122.331 Y-38.58 E78.06794
G1 X-122.284 Y-38.728 E78.07762
G1 X-120.412 Y-44.219 E78.43941
G1 X-120.355 Y-44.373 E78.44965
G1 X-117.98 Y-50.336 E78.84993
G1 X-117.92 Y-50.478 E78.85954
G1 X-115.548 Y-55.695 E79.21694
G1 X-115.477 Y-55.84 E79.227
G1 X-112.566 Y-61.481 E79.62287
G1 X-112.491 Y-61.618 E79.63261
G1 X-109.587 Y-66.64 E79.99439
G1 X-109.504 Y-66.776 E80.00433
G1 X-106.111 Y-72.032 E80.39447
G1 X-106.025 Y-72.159 E80.40403
G1 X-102.675 Y-76.846 E80.76331
G1 X-102.58 Y-76.973 E80.7732
G1 X-98.665 Y-81.921 E81.16668
G1 X-98.568 Y-82.038 E81.17616
G1 X-94.829 Y-86.334 E81.53133
G1 X-94.722 Y-86.45 E81.54117
G1 X-90.398 Y-90.957 E81.93068
G1 X-90.291 Y-91.064 E81.94012
G1 X-86.123 Y-95.021 E82.29853
G1 X-86.004 Y-95.128 E82.30851
G1 X-81.216 Y-99.245 E82.7023
G1 X-81.099 Y-99.341 E82.71174
G1 X-76.594 Y-102.865 E83.06843
G1 X-76.466 Y-102.96 E83.07837
G1 X-71.329 Y-106.585 E83.47046
G1 X-71.203 Y-106.67 E83.47994
G1 X-66.372 Y-109.751 E83.83727
G1 X-66.236 Y-109.833 E83.84717
G1 X-60.826 Y-112.923 E84.23571
G1 X-60.689 Y-112.997 E84.24542
G1 X-55.476 Y-115.653 E84.61028
G1 X-55.33 Y-115.723 E84.62038
G1 X-49.524 Y-118.325 E85.01715
G1 X-49.374 Y-118.388 E85.0273
G1 X-43.67 Y-120.609 E85.40903
G1 X-43.519 Y-120.663 E85.41903
G1 X-37.685 Y-122.609 E85.80256
G1 X-37.531 Y-122.656 E85.8126
G1 X-31.572 Y-124.32 E86.19844
G1 X-31.415 Y-124.36 E86.20854
G1 X-25.386 Y-125.724 E86.59403
G1 X-25.234 Y-125.755 E86.6037
G1 X-19.452 Y-126.775 E86.96985
G1 X-19.285 Y-126.799 E86.98038
G1 X-12.622 Y-127.622 E87.39906
G1 X-12.463 Y-127.638 E87.40902
G1 X-6.491 Y-128.079 E87.78247
G1 X-6.323 Y-128.087 E87.79296
G1 X0.493 Y-128.235 E88.21812
G1 X0.654 Y-128.235 E88.22816
G1 X6.702 Y-128.068 E88.60547
G1 X6.869 Y-128.059 E88.6159
G1 X13.583 Y-127.526 E89.03592
G1 X13.743 Y-127.509 E89.04596
G1 X19.608 Y-126.751 E89.41476
G1 X19.773 Y-126.725 E89.42518
G1 X26.296 Y-125.537 E89.83866
G1 X26.451 Y-125.505 E89.84853
G1 X32.143 Y-124.179 E90.213
G1 X32.298 Y-124.139 E90.22299
G1 X38.21 Y-122.451 E90.60641
G1 X38.369 Y-122.401 E90.6168
G1 X44.48 Y-120.313 E91.01953
G1 X44.628 Y-120.259 E91.02936
G1 X50.021 Y-118.119 E91.39119
G1 X50.171 Y-118.055 E91.40136
G1 X55.982 Y-115.405 E91.79965
G1 X56.121 Y-115.337 E91.8093
G1 X61.257 Y-112.692 E92.16958
G1 X61.398 Y-112.615 E92.1796
G1 X66.846 Y-109.459 E92.57224
G1 X66.977 Y-109.379 E92.58181
G1 X71.827 Y-106.255 E92.94159
G1 X71.961 Y-106.164 E92.95169
G1 X77.108 Y-102.474 E93.34664
G1 X77.228 Y-102.384 E93.35599
G1 X81.663 Y-98.883 E93.70836
G1 X81.784 Y-98.782 E93.71819
G1 X86.518 Y-94.657 E94.10977
G1 X86.631 Y-94.554 E94.1193
G1 X90.786 Y-90.574 E94.47812
G1 X90.898 Y-90.462 E94.48799
G1 X95.222 Y-85.896 E94.88016
G1 X95.323 Y-85.783 E94.88961
G1 X99.041 Y-81.471 E95.24468
G1 X99.141 Y-81.35 E95.25447
G1 X102.982 Y-76.433 E95.64358
G1 X103.074 Y-76.309 E95.65321
G1 X106.412 Y-71.592 E96.01358
G1 X106.501 Y-71.46 E96.0235
G1 X109.894 Y-66.13 E96.41753
G1 X109.973 Y-65.998 E96.42713
G1 X112.834 Y-60.995 E96.78654
G1 X112.911 Y-60.854 E96.79656
G1 X115.775 Y-55.214 E97.19104
G1 X115.841 Y-55.074 E97.20069
G1 X118.214 Y-49.793 E97.56175
G1 X118.275 Y-49.649 E97.5715
G1 X120.499 Y-43.985 E97.95098
G1 X120.556 Y-43.827 E97.96145
G1 X122.608 Y-37.687 E98.36518
G1 X122.656 Y-37.531 E98.37535
G1 X124.32 Y-31.572 E98.76119
G1 X124.36 Y-31.415 E98.77129
G1 X125.724 Y-25.386 E99.15678
G1 X125.755 Y-25.234 E99.16646
G1 X126.775 Y-19.452 E99.53261
G1 X126.799 Y-19.285 E99.54313
G1 X127.622 Y-12.622 E99.96181
G1 X127.638 Y-12.463 E99.97177
G1 X128.079 Y-6.491 E100.34522
G1 X128.087 Y-6.323 E100.35571
