;FLAVOR:RepRap
;TIME:10604
;Filament used: 4.99273m, 2.24356m
;Layer height: 0.1
;MINX:-129.042
;MINY:-129.042
;MINZ:0.2
;MAXX:129.042
;MAXY:129.042
;MAXZ:4.5
;Generated with Cura_SteamEngine mb-master-20191003
T0
M190 S65
M104 S215
M109 S215
M82 ;absolute extrusion mode
M203 Z14000
G28 ;Home
G1 X0 Y130 Z0.3 F8000 ;Move the platform down 15mm
G1 Z5
G1 F200 E3
G92 E0
M82 ;absolute extrusion mode
G91
G1 Z1 F10000
G90
G1 X0 Y130 F14000
T0 P0
G92 E0
G1 E160 F5000
G92 E0
M18 E1
M83 ;relative extrusion mode
M83 ;relative extrusion mode
G1 F3600 E-6
;LAYER_COUNT:34
;LAYER:0
M107
G1 F3600 Z1.2
G0 F18000 X128.581 Y-.814 Z1.2
;TYPE:SKIRT
G1 F3600 Z0.2
G1 F3600 E6
G1 F2700 X128.582 Y-.764 E0.00166
G1 X128.592 Y0.112 E0.02914
G1 X128.592 Y0.206 E0.00313
G1 X128.586 Y0.616 E0.01364
G1 X128.585 Y0.654 E0.00126
G1 X128.455 Y5.788 E0.17081
G1 X128.453 Y5.842 E0.0018
G1 X128.416 Y6.757 E0.03046
G1 X128.411 Y6.846 E0.00296
G1 X128.388 Y7.199 E0.01177
G1 X128.386 Y7.237 E0.00127
G1 X127.999 Y12.342 E0.17028
G1 X127.994 Y12.393 E0.0017
G1 X127.916 Y13.258 E0.02889
G1 X127.907 Y13.347 E0.00298
G1 X127.862 Y13.738 E0.01309
G1 X127.857 Y13.78 E0.00141
G1 X127.217 Y18.814 E0.16878
G1 X127.21 Y18.866 E0.00175
G1 X127.092 Y19.697 E0.02792
G1 X127.079 Y19.785 E0.00296
G1 X127.022 Y20.126 E0.0115
G1 X127.015 Y20.165 E0.00132
G1 X126.123 Y25.162 E0.16883
G1 X126.114 Y25.212 E0.00169
G1 X125.957 Y26.024 E0.02751
G1 X125.938 Y26.114 E0.00306
G1 X125.856 Y26.487 E0.0127
G1 X125.848 Y26.523 E0.00123
G1 X124.731 Y31.365 E0.16528
G1 X124.719 Y31.416 E0.00174
G1 X124.51 Y32.266 E0.02911
G1 X124.486 Y32.359 E0.00319
G1 X124.399 Y32.676 E0.01093
G1 X124.39 Y32.706 E0.00104
G1 X123.024 Y37.518 E0.16637
G1 X123.009 Y37.57 E0.0018
G1 X122.774 Y38.353 E0.02719
G1 X122.748 Y38.436 E0.00289
G1 X122.63 Y38.797 E0.01263
G1 X122.618 Y38.833 E0.00126
G1 X121.06 Y43.438 E0.16169
G1 X121.043 Y43.487 E0.00173
G1 X120.729 Y44.373 E0.03126
G1 X120.703 Y44.444 E0.00251
G1 X120.605 Y44.703 E0.00921
G1 X120.587 Y44.75 E0.00167
G1 X118.78 Y49.332 E0.16382
G1 X118.761 Y49.378 E0.00166
G1 X118.428 Y50.189 E0.02916
G1 X118.393 Y50.273 E0.00303
G1 X118.256 Y50.584 E0.0113
G1 X118.241 Y50.616 E0.00118
G1 X116.232 Y55.061 E0.16224
G1 X116.21 Y55.11 E0.00179
G1 X115.847 Y55.882 E0.02837
G1 X115.811 Y55.955 E0.00271
G1 X115.67 Y56.238 E0.01052
G1 X115.652 Y56.274 E0.00134
G1 X113.441 Y60.591 E0.16132
G1 X113.418 Y60.636 E0.00168
G1 X112.984 Y61.455 E0.03083
G1 X112.94 Y61.535 E0.00304
G1 X112.815 Y61.757 E0.00847
G1 X112.799 Y61.785 E0.00107
G1 X110.38 Y65.993 E0.16144
G1 X110.344 Y66.054 E0.00236
G1 X109.732 Y67.072 E0.03951
G1 X109.678 Y67.16 E0.00343
G1 X107.067 Y71.233 E0.16091
G1 X107.04 Y71.274 E0.00163
G1 X106.527 Y72.051 E0.03097
G1 X106.468 Y72.137 E0.00347
G1 X106.326 Y72.339 E0.00821
G1 X106.315 Y72.356 E0.00067
G1 X103.526 Y76.277 E0.16004
G1 X103.496 Y76.317 E0.00166
G1 X102.935 Y77.083 E0.03158
G1 X102.887 Y77.148 E0.00269
G1 X102.689 Y77.406 E0.01082
G1 X102.664 Y77.438 E0.00135
G1 X99.7 Y81.21 E0.15956
G1 X99.666 Y81.252 E0.0018
G1 X99.129 Y81.915 E0.02838
G1 X99.079 Y81.976 E0.00262
G1 X98.863 Y82.231 E0.01112
G1 X98.837 Y82.261 E0.00132
G1 X95.7 Y85.882 E0.15934
G1 X95.666 Y85.921 E0.00172
G1 X95.064 Y86.596 E0.03008
G1 X95.015 Y86.65 E0.00243
G1 X94.845 Y86.833 E0.00831
G1 X94.812 Y86.867 E0.00158
G1 X91.462 Y90.38 E0.16145
G1 X91.426 Y90.417 E0.00172
G1 X90.796 Y91.059 E0.02992
G1 X90.735 Y91.12 E0.00287
G1 X90.561 Y91.289 E0.00807
G1 X90.538 Y91.312 E0.00108
G1 X87.034 Y94.654 E0.16105
G1 X86.995 Y94.69 E0.00177
G1 X86.331 Y95.305 E0.0301
G1 X86.269 Y95.361 E0.00278
G1 X86.045 Y95.559 E0.00994
G1 X86.018 Y95.583 E0.0012
G1 X82.4 Y98.716 E0.15918
G1 X82.363 Y98.748 E0.00163
G1 X81.669 Y99.333 E0.03019
G1 X81.594 Y99.394 E0.00322
G1 X81.342 Y99.595 E0.01072
G1 X81.322 Y99.611 E0.00085
G1 X77.575 Y102.557 E0.15853
G1 X77.533 Y102.59 E0.00178
G1 X76.775 Y103.168 E0.0317
G1 X76.68 Y103.238 E0.00392
G1 X72.558 Y106.172 E0.16828
G1 X72.512 Y106.204 E0.00186
G1 X71.757 Y106.724 E0.03049
G1 X71.693 Y106.767 E0.00256
G1 X71.433 Y106.938 E0.01035
G1 X71.398 Y106.961 E0.00139
G1 X67.378 Y109.538 E0.15882
G1 X67.335 Y109.565 E0.00169
G1 X66.524 Y110.069 E0.03176
G1 X66.453 Y110.112 E0.00276
G1 X66.214 Y110.253 E0.00923
G1 X66.179 Y110.273 E0.00134
G1 X61.96 Y112.698 E0.16185
G1 X61.916 Y112.723 E0.00168
G1 X61.132 Y113.159 E0.02984
G1 X61.024 Y113.216 E0.00406
G1 X56.464 Y115.554 E0.17044
G1 X56.418 Y115.578 E0.00173
G1 X55.597 Y115.984 E0.03046
G1 X55.514 Y116.023 E0.00305
G1 X55.255 Y116.143 E0.00949
G1 X55.225 Y116.157 E0.0011
G1 X50.802 Y118.157 E0.16145
G1 X50.754 Y118.179 E0.00176
G1 X49.896 Y118.552 E0.03112
G1 X49.826 Y118.581 E0.00252
G1 X49.56 Y118.69 E0.00956
G1 X49.516 Y118.708 E0.00158
G1 X44.956 Y120.506 E0.16303
G1 X44.909 Y120.524 E0.00167
G1 X44.071 Y120.841 E0.0298
G1 X43.975 Y120.876 E0.0034
G1 X43.669 Y120.982 E0.01077
G1 X43.644 Y120.99 E0.00087
G1 X39.052 Y122.543 E0.16123
G1 X39.006 Y122.558 E0.00161
G1 X38.081 Y122.857 E0.03233
G1 X37.997 Y122.883 E0.00292
G1 X37.68 Y122.977 E0.011
G1 X37.641 Y122.989 E0.00136
G1 X32.882 Y124.341 E0.16455
G1 X32.831 Y124.355 E0.00176
G1 X32.022 Y124.572 E0.02786
G1 X31.939 Y124.593 E0.00285
G1 X31.548 Y124.688 E0.01338
G1 X31.508 Y124.698 E0.00137
G1 X26.709 Y125.806 E0.16381
G1 X26.657 Y125.817 E0.00177
G1 X25.78 Y126.006 E0.02984
G1 X25.693 Y126.024 E0.00295
G1 X25.34 Y126.091 E0.01195
G1 X25.302 Y126.098 E0.00129
G1 X20.355 Y126.982 E0.16714
G1 X20.301 Y126.991 E0.00182
G1 X19.466 Y127.127 E0.02814
G1 X19.385 Y127.139 E0.00272
G1 X18.97 Y127.197 E0.01394
G1 X18.925 Y127.203 E0.00151
G1 X13.954 Y127.834 E0.16666
G1 X13.908 Y127.84 E0.00154
G1 X13.03 Y127.94 E0.02939
G1 X12.929 Y127.95 E0.00338
G1 X12.53 Y127.984 E0.01332
G1 X12.497 Y127.987 E0.0011
G1 X7.447 Y128.371 E0.16845
G1 X7.396 Y128.374 E0.0017
G1 X6.474 Y128.431 E0.03072
G1 X6.381 Y128.436 E0.0031
G1 X6.019 Y128.449 E0.01205
G1 X5.981 Y128.45 E0.00126
G1 X0.814 Y128.581 E0.17191
G1 X0.764 Y128.582 E0.00166
G1 X-.112 Y128.592 E0.02914
G1 X-.206 Y128.592 E0.00313
G1 X-.616 Y128.586 E0.01364
G1 X-.654 Y128.585 E0.00126
G1 X-5.788 Y128.455 E0.17081
G1 X-5.842 Y128.453 E0.0018
G1 X-6.757 Y128.416 E0.03046
G1 X-6.846 Y128.411 E0.00296
G1 X-7.199 Y128.388 E0.01177
G1 X-7.237 Y128.386 E0.00127
G1 X-12.342 Y127.999 E0.17028
G1 X-12.393 Y127.994 E0.0017
G1 X-13.258 Y127.916 E0.02889
G1 X-13.347 Y127.907 E0.00298
G1 X-13.738 Y127.862 E0.01309
G1 X-13.78 Y127.857 E0.00141
G1 X-18.814 Y127.217 E0.16878
G1 X-18.866 Y127.21 E0.00175
G1 X-19.697 Y127.092 E0.02792
G1 X-19.785 Y127.079 E0.00296
G1 X-20.126 Y127.022 E0.0115
G1 X-20.165 Y127.015 E0.00132
G1 X-25.162 Y126.123 E0.16883
G1 X-25.212 Y126.114 E0.00169
G1 X-26.024 Y125.957 E0.02751
G1 X-26.114 Y125.938 E0.00306
G1 X-26.487 Y125.856 E0.0127
G1 X-26.523 Y125.848 E0.00123
G1 X-31.365 Y124.731 E0.16528
G1 X-31.416 Y124.719 E0.00174
G1 X-32.266 Y124.51 E0.02911
G1 X-32.359 Y124.486 E0.00319
G1 X-32.676 Y124.399 E0.01093
G1 X-32.706 Y124.39 E0.00104
G1 X-37.518 Y123.024 E0.16637
G1 X-37.57 Y123.009 E0.0018
G1 X-38.353 Y122.774 E0.02719
G1 X-38.436 Y122.748 E0.00289
G1 X-38.797 Y122.63 E0.01263
G1 X-38.833 Y122.618 E0.00126
G1 X-43.438 Y121.06 E0.16169
G1 X-43.487 Y121.043 E0.00173
G1 X-44.373 Y120.729 E0.03126
G1 X-44.444 Y120.703 E0.00251
G1 X-44.703 Y120.605 E0.00921
G1 X-44.75 Y120.587 E0.00167
G1 X-49.332 Y118.78 E0.16382
G1 X-49.378 Y118.761 E0.00166
G1 X-50.189 Y118.428 E0.02916
G1 X-50.273 Y118.393 E0.00303
G1 X-50.584 Y118.256 E0.0113
G1 X-50.616 Y118.241 E0.00118
G1 X-55.061 Y116.232 E0.16224
G1 X-55.11 Y116.21 E0.00179
G1 X-55.882 Y115.847 E0.02837
G1 X-55.955 Y115.811 E0.00271
G1 X-56.238 Y115.67 E0.01052
G1 X-56.274 Y115.652 E0.00134
G1 X-60.591 Y113.441 E0.16132
G1 X-60.636 Y113.418 E0.00168
G1 X-61.455 Y112.984 E0.03083
G1 X-61.535 Y112.94 E0.00304
G1 X-61.757 Y112.815 E0.00847
G1 X-61.785 Y112.799 E0.00107
G1 X-65.994 Y110.379 E0.16148
G1 X-66.054 Y110.344 E0.00231
G1 X-67.071 Y109.733 E0.03946
G1 X-67.16 Y109.678 E0.00348
G1 X-71.233 Y107.067 E0.16091
G1 X-71.274 Y107.04 E0.00163
G1 X-72.051 Y106.527 E0.03097
G1 X-72.137 Y106.468 E0.00347
G1 X-72.339 Y106.326 E0.00821
G1 X-72.356 Y106.315 E0.00067
G1 X-76.277 Y103.526 E0.16004
G1 X-76.317 Y103.496 E0.00166
G1 X-77.083 Y102.935 E0.03158
G1 X-77.148 Y102.887 E0.00269
G1 X-77.406 Y102.689 E0.01082
G1 X-77.438 Y102.664 E0.00135
G1 X-81.21 Y99.7 E0.15956
G1 X-81.252 Y99.666 E0.0018
G1 X-81.915 Y99.129 E0.02838
G1 X-81.976 Y99.079 E0.00262
G1 X-82.231 Y98.863 E0.01112
G1 X-82.261 Y98.837 E0.00132
G1 X-85.883 Y95.699 E0.15939
G1 X-85.922 Y95.665 E0.00172
G1 X-86.596 Y95.064 E0.03004
G1 X-86.65 Y95.015 E0.00243
G1 X-86.833 Y94.845 E0.00831
G1 X-86.867 Y94.812 E0.00158
G1 X-90.38 Y91.462 E0.16145
G1 X-90.417 Y91.426 E0.00172
G1 X-91.06 Y90.795 E0.02996
G1 X-91.122 Y90.734 E0.00289
G1 X-91.29 Y90.561 E0.00802
G1 X-91.312 Y90.538 E0.00106
G1 X-94.654 Y87.034 E0.16105
G1 X-94.69 Y86.995 E0.00177
G1 X-95.305 Y86.331 E0.0301
G1 X-95.361 Y86.27 E0.00275
G1 X-95.56 Y86.045 E0.00999
G1 X-95.584 Y86.017 E0.00123
G1 X-98.716 Y82.4 E0.15914
G1 X-98.748 Y82.363 E0.00163
G1 X-99.333 Y81.669 E0.03019
G1 X-99.394 Y81.594 E0.00322
G1 X-99.595 Y81.342 E0.01072
G1 X-99.611 Y81.322 E0.00085
G1 X-102.558 Y77.574 E0.15858
G1 X-102.591 Y77.531 E0.0018
G1 X-103.168 Y76.774 E0.03166
G1 X-103.238 Y76.68 E0.0039
G1 X-106.172 Y72.558 E0.16828
G1 X-106.203 Y72.513 E0.00182
G1 X-106.724 Y71.757 E0.03054
G1 X-106.77 Y71.689 E0.00273
G1 X-106.94 Y71.43 E0.0103
G1 X-106.961 Y71.398 E0.00127
G1 X-109.538 Y67.378 E0.15882
G1 X-109.565 Y67.335 E0.00169
G1 X-110.069 Y66.524 E0.03176
G1 X-110.112 Y66.453 E0.00276
G1 X-110.253 Y66.214 E0.00923
G1 X-110.273 Y66.179 E0.00134
G1 X-112.698 Y61.96 E0.16185
G1 X-112.723 Y61.916 E0.00168
G1 X-113.159 Y61.132 E0.02984
G1 X-113.216 Y61.024 E0.00406
G1 X-115.554 Y56.464 E0.17044
G1 X-115.578 Y56.418 E0.00173
G1 X-115.984 Y55.597 E0.03046
G1 X-116.023 Y55.514 E0.00305
G1 X-116.143 Y55.255 E0.00949
G1 X-116.157 Y55.225 E0.0011
G1 X-118.157 Y50.802 E0.16145
G1 X-118.179 Y50.754 E0.00176
G1 X-118.552 Y49.896 E0.03112
G1 X-118.581 Y49.826 E0.00252
G1 X-118.69 Y49.56 E0.00956
G1 X-118.708 Y49.516 E0.00158
G1 X-120.506 Y44.956 E0.16303
G1 X-120.525 Y44.908 E0.00172
G1 X-120.853 Y44.04 E0.03086
G1 X-120.889 Y43.939 E0.00357
G1 X-120.984 Y43.663 E0.00971
G1 X-120.99 Y43.645 E0.00063
G1 X-122.543 Y39.054 E0.1612
G1 X-122.558 Y39.007 E0.00164
G1 X-122.857 Y38.082 E0.03233
G1 X-122.884 Y37.995 E0.00303
G1 X-122.978 Y37.677 E0.01103
G1 X-122.989 Y37.641 E0.00125
G1 X-124.341 Y32.881 E0.16458
G1 X-124.355 Y32.831 E0.00173
G1 X-124.572 Y32.023 E0.02783
G1 X-124.593 Y31.939 E0.00288
G1 X-124.688 Y31.548 E0.01338
G1 X-124.698 Y31.508 E0.00137
G1 X-125.806 Y26.709 E0.16381
G1 X-125.817 Y26.657 E0.00177
G1 X-126.006 Y25.78 E0.02984
G1 X-126.024 Y25.693 E0.00295
G1 X-126.091 Y25.34 E0.01195
G1 X-126.098 Y25.302 E0.00129
G1 X-126.982 Y20.355 E0.16714
G1 X-126.991 Y20.3 E0.00185
G1 X-127.127 Y19.464 E0.02817
G1 X-127.139 Y19.385 E0.00266
G1 X-127.197 Y18.971 E0.0139
G1 X-127.203 Y18.925 E0.00154
G1 X-127.834 Y13.954 E0.16666
G1 X-127.84 Y13.908 E0.00154
G1 X-127.94 Y13.029 E0.02942
G1 X-127.95 Y12.928 E0.00338
G1 X-127.984 Y12.53 E0.01329
G1 X-127.987 Y12.497 E0.0011
G1 X-128.371 Y7.447 E0.16845
G1 X-128.374 Y7.396 E0.0017
G1 X-128.431 Y6.474 E0.03072
G1 X-128.436 Y6.381 E0.0031
G1 X-128.449 Y6.019 E0.01205
G1 X-128.45 Y5.981 E0.00126
G1 X-128.581 Y0.814 E0.17191
G1 X-128.582 Y0.764 E0.00166
G1 X-128.592 Y-.112 E0.02914
G1 X-128.592 Y-.206 E0.00313
G1 X-128.586 Y-.616 E0.01364
G1 X-128.585 Y-.654 E0.00126
G1 X-128.455 Y-5.788 E0.17081
G1 X-128.453 Y-5.842 E0.0018
G1 X-128.416 Y-6.757 E0.03046
G1 X-128.411 Y-6.846 E0.00296
G1 X-128.388 Y-7.199 E0.01177
G1 X-128.386 Y-7.237 E0.00127
G1 X-127.999 Y-12.342 E0.17028
G1 X-127.994 Y-12.393 E0.0017
G1 X-127.916 Y-13.258 E0.02889
G1 X-127.907 Y-13.347 E0.00298
G1 X-127.862 Y-13.738 E0.01309
G1 X-127.857 Y-13.78 E0.00141
G1 X-127.217 Y-18.814 E0.16878
G1 X-127.21 Y-18.866 E0.00175
G1 X-127.092 Y-19.697 E0.02792
G1 X-127.079 Y-19.785 E0.00296
G1 X-127.022 Y-20.126 E0.0115
G1 X-127.015 Y-20.165 E0.00132
G1 X-126.123 Y-25.162 E0.16883
G1 X-126.114 Y-25.212 E0.00169
G1 X-125.957 Y-26.024 E0.02751
G1 X-125.938 Y-26.114 E0.00306
G1 X-125.856 Y-26.487 E0.0127
G1 X-125.848 Y-26.523 E0.00123
G1 X-124.731 Y-31.365 E0.16528
G1 X-124.719 Y-31.416 E0.00174
G1 X-124.51 Y-32.266 E0.02911
G1 X-124.486 Y-32.359 E0.00319
G1 X-124.399 Y-32.676 E0.01093
G1 X-124.39 Y-32.706 E0.00104
G1 X-123.024 Y-37.518 E0.16637
G1 X-123.009 Y-37.57 E0.0018
G1 X-122.774 Y-38.353 E0.02719
G1 X-122.748 Y-38.436 E0.00289
G1 X-122.63 Y-38.797 E0.01263
G1 X-122.618 Y-38.833 E0.00126
G1 X-121.06 Y-43.438 E0.16169
G1 X-121.043 Y-43.487 E0.00173
G1 X-120.729 Y-44.373 E0.03126
G1 X-120.703 Y-44.444 E0.00251
G1 X-120.605 Y-44.703 E0.00921
G1 X-120.587 Y-44.75 E0.00167
G1 X-118.78 Y-49.332 E0.16382
G1 X-118.761 Y-49.378 E0.00166
G1 X-118.428 Y-50.189 E0.02916
G1 X-118.393 Y-50.273 E0.00303
G1 X-118.256 Y-50.584 E0.0113
G1 X-118.241 Y-50.616 E0.00118
G1 X-116.232 Y-55.061 E0.16224
G1 X-116.21 Y-55.11 E0.00179
G1 X-115.847 Y-55.882 E0.02837
G1 X-115.811 Y-55.955 E0.00271
G1 X-115.67 Y-56.238 E0.01052
G1 X-115.652 Y-56.274 E0.00134
G1 X-113.441 Y-60.591 E0.16132
G1 X-113.418 Y-60.636 E0.00168
G1 X-112.984 Y-61.455 E0.03083
G1 X-112.94 Y-61.535 E0.00304
G1 X-112.815 Y-61.757 E0.00847
G1 X-112.799 Y-61.785 E0.00107
G1 X-110.38 Y-65.993 E0.16144
G1 X-110.344 Y-66.054 E0.00236
G1 X-109.732 Y-67.072 E0.03951
G1 X-109.678 Y-67.16 E0.00343
G1 X-107.067 Y-71.233 E0.16091
G1 X-107.04 Y-71.274 E0.00163
G1 X-106.527 Y-72.051 E0.03097
G1 X-106.468 Y-72.137 E0.00347
G1 X-106.326 Y-72.339 E0.00821
G1 X-106.315 Y-72.356 E0.00067
G1 X-103.526 Y-76.277 E0.16004
G1 X-103.496 Y-76.317 E0.00166
G1 X-102.935 Y-77.083 E0.03158
G1 X-102.887 Y-77.148 E0.00269
G1 X-102.689 Y-77.406 E0.01082
G1 X-102.664 Y-77.438 E0.00135
G1 X-99.7 Y-81.21 E0.15956
G1 X-99.666 Y-81.252 E0.0018
G1 X-99.12 Y-81.926 E0.02885
G1 X-99.068 Y-81.989 E0.00272
G1 X-98.861 Y-82.233 E0.01064
G1 X-98.837 Y-82.261 E0.00123
G1 X-95.7 Y-85.882 E0.15934
G1 X-95.666 Y-85.921 E0.00172
G1 X-95.064 Y-86.596 E0.03008
G1 X-95.015 Y-86.65 E0.00243
G1 X-94.845 Y-86.833 E0.00831
G1 X-94.812 Y-86.867 E0.00158
G1 X-91.462 Y-90.38 E0.16145
G1 X-91.426 Y-90.417 E0.00172
G1 X-90.796 Y-91.059 E0.02992
G1 X-90.735 Y-91.12 E0.00287
G1 X-90.561 Y-91.289 E0.00807
G1 X-90.538 Y-91.312 E0.00108
G1 X-87.034 Y-94.654 E0.16105
G1 X-86.995 Y-94.69 E0.00177
G1 X-86.331 Y-95.305 E0.0301
G1 X-86.269 Y-95.361 E0.00278
G1 X-86.045 Y-95.559 E0.00994
G1 X-86.018 Y-95.583 E0.0012
G1 X-82.4 Y-98.716 E0.15918
G1 X-82.363 Y-98.748 E0.00163
G1 X-81.669 Y-99.333 E0.03019
G1 X-81.594 Y-99.394 E0.00322
G1 X-81.342 Y-99.595 E0.01072
G1 X-81.322 Y-99.611 E0.00085
G1 X-77.575 Y-102.557 E0.15853
G1 X-77.533 Y-102.59 E0.00178
G1 X-76.775 Y-103.168 E0.0317
G1 X-76.68 Y-103.238 E0.00392
G1 X-72.558 Y-106.172 E0.16828
G1 X-72.512 Y-106.204 E0.00186
G1 X-71.757 Y-106.724 E0.03049
G1 X-71.693 Y-106.767 E0.00256
G1 X-71.433 Y-106.938 E0.01035
G1 X-71.398 Y-106.961 E0.00139
G1 X-67.378 Y-109.538 E0.15882
G1 X-67.335 Y-109.565 E0.00169
G1 X-66.524 Y-110.069 E0.03176
G1 X-66.453 Y-110.112 E0.00276
G1 X-66.214 Y-110.253 E0.00923
G1 X-66.179 Y-110.273 E0.00134
G1 X-61.96 Y-112.698 E0.16185
G1 X-61.916 Y-112.723 E0.00168
G1 X-61.132 Y-113.159 E0.02984
G1 X-61.024 Y-113.216 E0.00406
G1 X-56.464 Y-115.554 E0.17044
G1 X-56.418 Y-115.578 E0.00173
G1 X-55.597 Y-115.984 E0.03046
G1 X-55.514 Y-116.023 E0.00305
G1 X-55.255 Y-116.143 E0.00949
G1 X-55.225 Y-116.157 E0.0011
G1 X-50.802 Y-118.157 E0.16145
G1 X-50.754 Y-118.179 E0.00176
G1 X-49.896 Y-118.552 E0.03112
G1 X-49.826 Y-118.581 E0.00252
G1 X-49.56 Y-118.69 E0.00956
G1 X-49.516 Y-118.708 E0.00158
G1 X-44.956 Y-120.506 E0.16303
G1 X-44.909 Y-120.524 E0.00167
G1 X-44.071 Y-120.841 E0.0298
G1 X-43.975 Y-120.876 E0.0034
G1 X-43.669 Y-120.982 E0.01077
G1 X-43.644 Y-120.99 E0.00087
G1 X-39.052 Y-122.543 E0.16123
